; generated by PrusaSlicer 2.5.0+linux-x64-GTK3 on 2022-12-16 at 22:21:04 UTC


;
;
; 

; external perimeters extrusion width = 0.45mm
; perimeters extrusion width = 0.45mm
; infill extrusion width = 0.45mm
; solid infill extrusion width = 0.45mm
; top infill extrusion width = 0.40mm
; first layer extrusion width = 0.42mm

; external perimeters extrusion width = 0.45mm
; perimeters extrusion width = 0.45mm
; infill extrusion width = 0.45mm
; solid infill extrusion width = 0.45mm
; top infill extrusion width = 0.40mm
; first layer extrusion width = 0.42mm

; external perimeters extrusion width = 0.45mm
; perimeters extrusion width = 0.45mm
; infill extrusion width = 0.45mm
; solid infill extrusion width = 0.45mm
; top infill extrusion width = 0.40mm
; first layer extrusion width = 0.42mm

; external perimeters extrusion width = 0.45mm
; perimeters extrusion width = 0.45mm
; infill extrusion width = 0.45mm
; solid infill extrusion width = 0.45mm
; top infill extrusion width = 0.40mm
; first layer extrusion width = 0.42mm

; external perimeters extrusion width = 0.45mm
; perimeters extrusion width = 0.45mm
; infill extrusion width = 0.45mm
; solid infill extrusion width = 0.45mm
; top infill extrusion width = 0.40mm
; first layer extrusion width = 0.42mm

M73 P0 R58
M73 Q0 S59
M201 X1000 Y1000 Z200 E5000 ; sets maximum accelerations, mm/sec^2
M203 X200 Y200 Z12 E120 ; sets maximum feedrates, mm / sec
M204 P1250 R1250 T1250 ; sets acceleration (P, T) and retract acceleration (R), mm/sec^2
M205 X8.00 Y8.00 Z0.40 E4.50 ; sets the jerk limits, mm/sec
M205 S0 T0 ; sets the minimum extruding and travel feed rate, mm/sec
M107
;TYPE:Custom
M862.3 P "MK3S" ; printer model check
M862.1 P0.4 ; nozzle diameter check
M115 U3.11.0 ; tell printer latest fw version
G90 ; use absolute coordinates
M83 ; extruder relative mode
M104 S215 ; set extruder temp
M140 S60 ; set bed temp
M190 S60 ; wait for bed temp
M109 S215 ; wait for extruder temp
G28 W ; home all without mesh bed level
G80 ; mesh bed leveling

G1 Z0.2 F720
G1 Y-3 F1000 ; go outside print area
G92 E0
G1 X60 E9 F1000 ; intro line
G1 X100 E12.5 F1000 ; intro line

G92 E0
M221 S95

; Don't change E values below. Excessive value can damage the printer.
M907 E430 ; set extruder motor current
G21 ; set units to millimeters
G90 ; use absolute coordinates
M83 ; use relative distances for extrusion
M900 K0.05 ; Filament gcode LA 1.5
M900 K30 ; Filament gcode LA 1.0
M107
;LAYER_CHANGE
;Z:0.2
;HEIGHT:0.2
;BEFORE_LAYER_CHANGE
G92 E0.0
;0.2


G1 E-.8 F2100
G1 Z.4 F720
;AFTER_LAYER_CHANGE
;0.2
G1 X44.85 Y49.963 F10800
G1 Z.2 F720
G1 E.8 F2100
M204 S800
;TYPE:Skirt/Brim
;WIDTH:0.42
G1 F1200
G1 X45.83 Y49.117 E.0406
G1 X61.851 Y41.66 E.55406
G1 X64.294 Y40.764 E.08159
G1 X66.865 Y40.101 E.08326
G1 X69.462 Y39.7 E.08239
G1 X72.156 Y39.558 E.08458
G1 X132.487 Y42.099 E1.89333
G1 X135.337 Y42.389 E.0898
G1 X137.769 Y42.889 E.07786
G1 X140.739 Y43.837 E.09775
G1 X142.743 Y44.706 E.06849
G1 X144.939 Y45.901 E.0784
G1 X147.205 Y47.442 E.08592
G1 X149.122 Y49.048 E.07841
G1 X151.08 Y51.053 E.08788
G1 X152.638 Y53.009 E.07839
G1 X153.8 Y54.761 E.06593
G1 X154.71 Y56.387 E.05842
G1 X155.572 Y58.235 E.06394
G1 X156.233 Y59.979 E.05846
G1 X156.828 Y61.994 E.0659
G1 X157.312 Y64.363 E.07581
G1 X157.556 Y66.47 E.06651
G1 X157.626 Y67.952 E.04651
G1 X157.557 Y70.422 E.07747
G1 X153.337 Y121.55 E1.60853
G1 X152.975 Y123.944 E.07591
G1 X152.396 Y126.191 E.07276
G1 X151.597 Y128.369 E.07276
G1 X150.585 Y130.457 E.07276
G1 X149.776 Y131.811 E.04945
G1 X148.762 Y133.281 E.05598
G1 X147.275 Y135.062 E.07276
G1 X145.618 Y136.686 E.07276
G1 X143.807 Y138.138 E.07276
G1 X141.758 Y139.461 E.07647
G1 X139.799 Y140.466 E.06904
G1 X138.731 Y140.919 E.03639
G1 X136.419 Y141.696 E.07647
G1 X135.293 Y141.979 E.03639
G1 X133.125 Y142.362 E.06904
G1 X81.678 Y147.674 E1.62166
G1 X79.338 Y147.796 E.07346
M73 Q0 S58
G1 X77.005 Y147.711 E.07321
G1 X74.089 Y147.315 E.09227
G1 X71.794 Y146.766 E.07398
G1 X68.975 Y145.782 E.09363
G1 X66.836 Y144.785 E.07398
G1 X55.896 Y138.812 E.39083
G1 X54.936 Y137.841 E.04278
G1 X54.697 Y137.154 E.02283
G1 X44.497 Y81.426 E1.77634
G1 X44.458 Y51.27 E.9455
G1 X44.833 Y50.021 E.0409
M204 S1000
; printing object case-Body.stl id:4 copy 0
;WIPE_START
G1 F8640
G1 X45.83 Y49.117 E-.31074
G1 X47.594 Y48.296 E-.44926
;WIPE_END
G1 E-.04 F2100
G1 Z.6 F720
G1 X76.941 Y45.431 F10800
G1 Z.2 F720
G1 E.8 F2100
M204 S800
;TYPE:Perimeter
;WIDTH:0.419999
G1 F1200
G1 X77.95 Y45.687 E.03264
G1 X78.962 Y45.999 E.0332
G1 X79.957 Y46.36 E.0332
G1 X80.933 Y46.771 E.0332
G1 X81.887 Y47.23 E.0332
G1 X82.818 Y47.736 E.0332
G1 X83.722 Y48.287 E.0332
G1 X84.597 Y48.883 E.0332
G1 X85.441 Y49.522 E.0332
G1 X86.327 Y50.27 E.03634
G1 X87.03 Y50.922 E.03006
G1 X87.689 Y51.596 E.02957
G1 X88.471 Y52.473 E.03683
G1 X89.149 Y53.323 E.03409
G1 X89.75 Y54.16 E.03232
G1 X90.114 Y54.721 E.02096
G1 X90.855 Y55.965 E.04543
G1 X91.351 Y56.933 E.03409
G1 X91.775 Y57.872 E.03232
G1 X92.163 Y58.858 E.0332
G1 X92.509 Y59.888 E.03408
G1 X92.795 Y60.908 E.0332
G1 X93.024 Y61.913 E.03232
G1 X93.209 Y62.955 E.0332
G1 X93.341 Y64.006 E.0332
G1 X93.423 Y65.09 E.03408
G1 X93.448 Y66.12 E.03232
G1 X93.423 Y67.179 E.0332
G1 X93.341 Y68.263 E.03408
G1 X93.209 Y69.314 E.0332
G1 X93.03 Y70.329 E.03232
G1 X92.795 Y71.361 E.0332
G1 X92.509 Y72.381 E.0332
G1 X92.163 Y73.411 E.03408
G1 X91.786 Y74.371 E.03232
G1 X91.351 Y75.336 E.0332
G1 X90.869 Y76.279 E.0332
G1 X90.114 Y77.548 E.04632
G1 X89.75 Y78.109 E.02096
G1 X89.149 Y78.946 E.03232
G1 X88.323 Y79.964 E.04109
G1 X87.789 Y80.569 E.02531
G1 X87.166 Y81.208 E.02798
G1 X86.476 Y81.861 E.02977
G1 X85.99 Y82.287 E.02028
G1 X85.463 Y82.729 E.02156
G1 X84.849 Y83.196 E.02418
G1 X83.991 Y83.799 E.03291
G1 X83.103 Y84.36 E.03291
G1 X82.189 Y84.876 E.03292
G1 X81.239 Y85.351 E.03332
G1 X80.289 Y85.769 E.03252
G1 X79.309 Y86.145 E.03292
G1 X78.311 Y86.471 E.03291
G1 X77.299 Y86.747 E.03291
G1 X76.282 Y86.972 E.03265
G1 X75.249 Y87.147 E.03285
G1 X74.21 Y87.271 E.03282
G1 X73.126 Y87.346 E.03405
G1 X72.079 Y87.365 E.03284
G1 X71.071 Y87.335 E.03162
G1 X69.988 Y87.249 E.03408
G1 X68.95 Y87.113 E.03282
G1 X67.919 Y86.927 E.03284
G1 X66.899 Y86.69 E.03284
G1 X65.901 Y86.406 E.03251
G1 X64.894 Y86.064 E.03335
G1 X63.918 Y85.678 E.03291
G1 X62.962 Y85.245 E.03292
G1 X62.51 Y85.026 E.01573
G1 X61.605 Y84.533 E.03232
G1 X60.689 Y83.974 E.03366
G1 X59.814 Y83.378 E.03319
G1 X59.383 Y83.051 E.01697
G1 X58.959 Y82.729 E.01667
G1 X58.17 Y82.067 E.03232
G1 X57.393 Y81.347 E.0332
G1 X56.708 Y80.646 E.03075
G1 X55.952 Y79.796 E.03565
G1 X55.291 Y78.969 E.0332
G1 X54.73 Y78.19 E.0301
G1 X54.165 Y77.324 E.03241
G1 X53.567 Y76.304 E.03708
G1 X53.071 Y75.336 E.03409
G1 X52.637 Y74.371 E.0332
G1 X52.26 Y73.411 E.03232
G1 X51.922 Y72.408 E.0332
G1 X51.628 Y71.361 E.03409
G1 X51.398 Y70.356 E.03232
G1 X51.291 Y69.752 E.01925
;WIDTH:0.462342
G1 X51.25 Y69.638 E.00423
;WIDTH:0.504684
G1 X51.208 Y69.524 E.00465
;WIDTH:0.547026
G1 X51.167 Y69.41 E.00508
;WIDTH:0.589368
G1 X51.125 Y69.296 E.00551
G1 X51.077 Y68.783 E.02343
;WIDTH:0.557203
G1 X51.029 Y68.27 E.02205
;WIDTH:0.525037
G1 X51.027 Y68.239 E.00124
;WIDTH:0.5229
G1 X50.969 Y67.21 E.04114
;WIDTH:0.484335
G1 X50.968 Y67.18 E.00109
;WIDTH:0.483318
G1 X50.949 Y66.149 E.03774
;WIDTH:0.470468
G1 X50.949 Y66.12 E.00105
;WIDTH:0.483317
G1 X50.968 Y65.089 E.03774
;WIDTH:0.484335
G1 X50.969 Y65.059 E.00109
;WIDTH:0.5229
G1 X51.027 Y64.03 E.04114
;WIDTH:0.525037
G1 X51.029 Y63.999 E.00124
;WIDTH:0.557203
G1 X51.077 Y63.486 E.02205
;WIDTH:0.589368
G1 X51.125 Y62.973 E.02343
;WIDTH:0.596898
G1 X51.135 Y62.894 E.00364
G1 X51.174 Y62.8 E.0047
;WIDTH:0.552674
G1 X51.213 Y62.706 E.00433
;WIDTH:0.508449
G1 X51.252 Y62.611 E.00395
;WIDTH:0.464224
G1 X51.291 Y62.517 E.00357
;WIDTH:0.419999
G1 X51.398 Y61.913 E.01925
G1 X51.628 Y60.908 E.03232
G1 X51.914 Y59.888 E.0332
G1 X52.25 Y58.884 E.0332
G1 X52.637 Y57.898 E.0332
G1 X53.071 Y56.933 E.0332
G1 X53.554 Y55.99 E.0332
G1 X54.083 Y55.073 E.0332
G1 X54.657 Y54.183 E.0332
G1 X55.274 Y53.323 E.0332
G1 X55.934 Y52.494 E.0332
G1 X56.634 Y51.7 E.0332
G1 X57.193 Y51.126 E.02512
G1 X58.17 Y50.202 E.04217
G1 X58.959 Y49.54 E.03231
G1 X59.803 Y48.9 E.0332
G1 X60.677 Y48.303 E.0332
G1 X61.581 Y47.75 E.0332
G1 X62.51 Y47.243 E.0332
G1 X63.464 Y46.783 E.0332
G1 X64.44 Y46.371 E.0332
G1 X65.434 Y46.008 E.0332
G1 X66.446 Y45.695 E.0332
G1 X67.472 Y45.433 E.0332
G1 X68.51 Y45.223 E.0332
G1 X69.557 Y45.064 E.0332
G1 X70.61 Y44.958 E.0332
G1 X71.668 Y44.905 E.0332
G1 X72.727 Y44.904 E.0332
G1 X73.784 Y44.956 E.0332
G1 X74.838 Y45.061 E.0332
G1 X75.885 Y45.218 E.0332
G1 X76.882 Y45.419 E.03188
M204 S1000
G1 X76.67 Y45.76 F10800
M204 S800
;TYPE:External perimeter
G1 F1200
G1 X77.857 Y46.053 E.03831
G1 X78.851 Y46.359 E.03261
G1 X79.828 Y46.715 E.03261
G1 X80.787 Y47.119 E.03261
G1 X81.724 Y47.57 E.03261
G1 X82.637 Y48.067 E.03261
G1 X83.525 Y48.609 E.03261
G1 X84.384 Y49.195 E.03261
G1 X85.214 Y49.823 E.03261
G1 X86.07 Y50.546 E.03516
G1 X86.773 Y51.198 E.03006
G1 X87.419 Y51.86 E.02898
G1 X88.188 Y52.722 E.03624
G1 X88.842 Y53.543 E.03291
G1 X89.444 Y54.38 E.03232
G1 X89.797 Y54.925 E.02037
G1 X90.529 Y56.154 E.04484
G1 X91.004 Y57.079 E.03261
G1 X91.432 Y58.027 E.03261
G1 X91.812 Y58.996 E.03261
G1 X92.143 Y59.981 E.03261
G1 X92.425 Y60.983 E.03261
G1 X92.657 Y61.997 E.03261
G1 X92.838 Y63.021 E.03261
G1 X92.967 Y64.053 E.03261
G1 X93.046 Y65.099 E.03291
G1 X93.071 Y66.139 E.03261
G1 X93.045 Y67.179 E.03261
G1 X92.967 Y68.216 E.03261
G1 X92.838 Y69.248 E.03261
G1 X92.657 Y70.272 E.03261
G1 X92.425 Y71.286 E.03261
M73 P1 R58
G1 X92.146 Y72.279 E.03232
G1 X91.815 Y73.265 E.03261
G1 X91.435 Y74.233 E.03261
G1 X91.008 Y75.181 E.03261
G1 X90.533 Y76.107 E.03261
M73 Q1 S58
G1 X90.211 Y76.665 E.0202
G1 X89.449 Y77.882 E.04501
G1 X88.842 Y78.726 E.03261
G1 X88.04 Y79.714 E.03991
G1 X87.506 Y80.319 E.02531
G1 X86.896 Y80.945 E.02739
G1 X86.22 Y81.584 E.02918
G1 X85.221 Y82.441 E.04125
G1 X84.622 Y82.895 E.02359
G1 X83.778 Y83.488 E.03232
G1 X82.907 Y84.038 E.03232
G1 X82.009 Y84.545 E.03233
G1 X81.075 Y85.012 E.03273
G1 X80.143 Y85.422 E.03193
G1 X79.18 Y85.79 E.03233
G1 X78.2 Y86.11 E.03232
G1 X77.206 Y86.382 E.03232
G1 X76.207 Y86.602 E.03206
G1 X75.193 Y86.774 E.03226
G1 X74.172 Y86.896 E.03223
G1 X73.107 Y86.969 E.03346
G1 X72.079 Y86.988 E.03225
G1 X71.09 Y86.958 E.03103
G1 X70.025 Y86.874 E.03349
G1 X69.006 Y86.741 E.03223
G1 X67.994 Y86.557 E.03225
G1 X66.992 Y86.324 E.03225
G1 X66.013 Y86.046 E.03192
G1 X65.023 Y85.71 E.03276
G1 X64.064 Y85.331 E.03232
G1 X63.126 Y84.905 E.03233
G1 X62.209 Y84.433 E.03233
G1 X60.89 Y83.655 E.04801
G1 X60.038 Y83.074 E.03232
G1 X59.209 Y82.446 E.03261
G1 X58.412 Y81.778 E.03261
G1 X57.65 Y81.071 E.03261
M73 P1 R57
G1 X56.917 Y80.319 E.03291
G1 X56.235 Y79.547 E.03232
G1 X55.586 Y78.734 E.03261
G1 X55.036 Y77.969 E.02951
G1 X54.409 Y77.008 E.036
G1 X53.894 Y76.115 E.03232
G1 X53.419 Y75.19 E.03261
G1 X52.991 Y74.242 E.03261
G1 X52.611 Y73.273 E.03261
G1 X52.28 Y72.288 E.03261
G1 X51.998 Y71.286 E.03261
G1 X51.766 Y70.272 E.03261
G1 X51.584 Y69.239 E.03291
G1 X51.455 Y68.216 E.03232
G1 X51.378 Y67.179 E.03261
G1 X51.351 Y66.139 E.03261
G1 X51.377 Y65.099 E.03261
G1 X51.455 Y64.062 E.03261
G1 X51.584 Y63.03 E.03261
G1 X51.766 Y61.997 E.03291
G1 X51.995 Y60.992 E.03232
G1 X52.277 Y59.99 E.03261
G1 X52.608 Y59.004 E.03261
G1 X52.988 Y58.036 E.03261
G1 X53.415 Y57.088 E.03261
G1 X53.889 Y56.162 E.03261
G1 X54.409 Y55.261 E.03261
G1 X54.973 Y54.388 E.03261
G1 X55.58 Y53.543 E.03261
G1 X56.229 Y52.73 E.03261
G1 X56.917 Y51.95 E.03261
G1 X57.463 Y51.389 E.02454
G1 X58.412 Y50.491 E.04099
G1 X59.202 Y49.828 E.03231
G1 X60.031 Y49.2 E.03261
G1 X60.89 Y48.614 E.03261
G1 X61.777 Y48.072 E.03261
G1 X62.691 Y47.574 E.03261
G1 X63.628 Y47.122 E.03261
G1 X64.586 Y46.718 E.03261
G1 X65.563 Y46.362 E.03261
G1 X66.557 Y46.055 E.03261
G1 X67.565 Y45.799 E.03261
G1 X68.584 Y45.592 E.03261
G1 X69.613 Y45.437 E.03261
G1 X70.648 Y45.333 E.03261
G1 X71.687 Y45.281 E.03261
G1 X72.727 Y45.281 E.03261
G1 X73.766 Y45.332 E.03261
G1 X74.801 Y45.436 E.03261
G1 X75.829 Y45.591 E.03261
G1 X76.611 Y45.749 E.02503
M204 S1000
G1 X76.941 Y45.466 F10800
;WIPE_START
G1 F8640
G1 X77.857 Y46.053 E-.29596
G1 X78.851 Y46.359 E-.24016
G1 X79.762 Y46.691 E-.22388
;WIPE_END
G1 E-.04 F2100
G1 Z.6 F720
G1 X50.476 Y53.821 F10800
G1 Z.2 F720
G1 E.8 F2100
M204 S800
;TYPE:Perimeter
G1 F1200
G1 X50.465 Y53.678 E.0045
G1 X50.331 Y53.463 E.00794
G1 X50.105 Y53.325 E.0083
G1 X49.931 Y53.297 E.00553
G1 X48.579 Y53.297 E.04239
G1 X48.58 Y51.541 E.05506
G1 X49.334 Y51.217 E.02573
G1 X50.01 Y50.866 E.0239
G1 X55.095 Y49.311 E.16672
G1 X55.958 Y48.97 E.02909
G1 X56.78 Y48.492 E.02979
G1 X58.087 Y47.463 E.05218
G1 X58.994 Y46.81 E.03503
G1 X60.001 Y46.158 E.0376
G1 X61.003 Y45.579 E.03628
G1 X62.032 Y45.051 E.03629
G1 X63.087 Y44.573 E.0363
G1 X64.123 Y44.164 E.03491
G1 X65.248 Y43.781 E.03727
G1 X66.361 Y43.464 E.03629
G1 X67.489 Y43.203 E.03628
G1 X68.634 Y42.997 E.03651
G1 X69.782 Y42.848 E.03627
G1 X70.936 Y42.757 E.03629
G1 X72.092 Y42.722 E.03629
G1 X73.25 Y42.745 E.0363
G1 X74.405 Y42.825 E.03629
G1 X75.554 Y42.962 E.03629
G1 X76.694 Y43.155 E.03627
G1 X77.825 Y43.405 E.03629
G1 X78.942 Y43.71 E.03631
G1 X80.074 Y44.082 E.03737
G1 X81.117 Y44.482 E.03501
G1 X82.176 Y44.948 E.03629
G1 X83.247 Y45.486 E.0376
G1 X84.219 Y46.035 E.03499
G1 X85.198 Y46.654 E.0363
G1 X86.145 Y47.319 E.03629
G1 X87.31 Y48.227 E.04633
G1 X87.783 Y48.54 E.01777
G1 X88.524 Y48.912 E.02599
G1 X89.297 Y49.171 E.02557
G1 X90.075 Y49.305 E.02476
G1 X90.635 Y49.355 E.01762
G1 X96.773 Y49.465 E.19249
G1 X97.203 Y49.91 E.01938
G1 X98.23 Y50.756 E.04172
G1 X98.685 Y51.053 E.01704
G1 X98.685 Y53.297 E.07037
G1 X97.213 Y53.297 E.04614
G1 X96.684 Y53.34 E.01664
G1 X96.553 Y53.415 E.00476
G1 X96.388 Y53.618 E.00818
G1 X96.333 Y53.863 E.00787
G1 X96.339 Y78.494 E.77228
G1 X96.455 Y78.757 E.009
G1 X96.687 Y78.931 E.00909
G1 X96.898 Y78.972 E.00675
G1 X98.685 Y78.972 E.05602
G1 X98.685 Y81.216 E.07037
G1 X98.121 Y81.597 E.02133
G1 X97.492 Y82.095 E.02517
G1 X96.782 Y82.803 E.03144
G1 X90.594 Y82.917 E.19403
G1 X89.786 Y82.994 E.02547
G1 X89.232 Y83.116 E.01778
G1 X88.449 Y83.389 E.02599
G1 X87.725 Y83.763 E.02557
G1 X87.278 Y84.066 E.01691
G1 X86.157 Y84.941 E.04458
G1 X85.21 Y85.607 E.03631
G1 X84.232 Y86.226 E.03631
G1 X83.223 Y86.796 E.03632
G1 X82.176 Y87.321 E.03671
G1 X81.128 Y87.783 E.03591
G1 X80.047 Y88.197 E.03631
G1 X78.946 Y88.558 E.03631
G1 X77.83 Y88.863 E.0363
G1 X76.707 Y89.111 E.03604
G1 X75.568 Y89.305 E.03624
G1 X74.421 Y89.443 E.03623
G1 X73.228 Y89.525 E.03747
G1 X72.073 Y89.547 E.03624
G1 X70.957 Y89.513 E.035
G1 X69.766 Y89.419 E.03748
G1 X68.62 Y89.27 E.03623
G1 X67.482 Y89.065 E.03624
G1 X66.357 Y88.803 E.03624
G1 X65.256 Y88.49 E.0359
G1 X64.145 Y88.114 E.03675
G1 X63.068 Y87.688 E.03631
G1 X62.013 Y87.21 E.03632
G1 X60.984 Y86.679 E.03632
G1 X59.981 Y86.099 E.03632
G1 X59.009 Y85.47 E.03632
G1 X58.067 Y84.792 E.03637
G1 X56.78 Y83.777 E.0514
G1 X55.823 Y83.23 E.03455
G1 X55.138 Y82.971 E.02298
G1 X51.058 Y81.724 E.13375
G1 X49.904 Y81.348 E.03807
G1 X49.208 Y80.995 E.02446
G1 X48.58 Y80.728 E.0214
G1 X48.579 Y78.972 E.05506
G1 X49.637 Y78.972 E.03316
G1 X50.105 Y78.944 E.01471
G1 X50.331 Y78.806 E.0083
G1 X50.448 Y78.635 E.00651
G1 X50.496 Y78.406 E.00733
G1 X50.496 Y69.821 E.26916
;WIDTH:0.462342
G1 X50.518 Y69.699 E.00435
;WIDTH:0.504684
G1 X50.539 Y69.576 E.00478
;WIDTH:0.547026
G1 X50.56 Y69.453 E.00522
;WIDTH:0.589368
G1 X50.581 Y69.33 E.00566
G1 X50.565 Y68.815 E.02343
;WIDTH:0.557203
G1 X50.549 Y68.3 E.02205
;WIDTH:0.525037
G1 X50.548 Y68.257 E.00172
;WIDTH:0.5229
G1 X50.529 Y67.226 E.04114
;WIDTH:0.484335
G1 X50.528 Y67.185 E.0015
;WIDTH:0.483318
G1 X50.522 Y66.155 E.03774
;WIDTH:0.470468
G1 X50.522 Y66.114 E.00143
;WIDTH:0.483317
G1 X50.528 Y65.084 E.03774
;WIDTH:0.484335
G1 X50.529 Y65.043 E.0015
;WIDTH:0.5229
G1 X50.548 Y64.012 E.04114
;WIDTH:0.525037
G1 X50.549 Y63.969 E.00172
;WIDTH:0.557203
G1 X50.565 Y63.454 E.02205
;WIDTH:0.589368
G1 X50.581 Y62.939 E.02343
