; generated by PrusaSlicer 2.5.0+linux-x64-GTK3 on 2022-12-16 at 22:23:48 UTC


;
;
; 

; external perimeters extrusion width = 0.45mm
; perimeters extrusion width = 0.45mm
; infill extrusion width = 0.45mm
; solid infill extrusion width = 0.45mm
; top infill extrusion width = 0.40mm
; first layer extrusion width = 0.42mm

M73 P0 R29
M73 Q0 S30
M201 X1000 Y1000 Z200 E5000 ; sets maximum accelerations, mm/sec^2
M203 X200 Y200 Z12 E120 ; sets maximum feedrates, mm / sec
M204 P1250 R1250 T1250 ; sets acceleration (P, T) and retract acceleration (R), mm/sec^2
M205 X8.00 Y8.00 Z0.40 E4.50 ; sets the jerk limits, mm/sec
M205 S0 T0 ; sets the minimum extruding and travel feed rate, mm/sec
M107
;TYPE:Custom
M862.3 P "MK3S" ; printer model check
M862.1 P0.4 ; nozzle diameter check
M115 U3.11.0 ; tell printer latest fw version
G90 ; use absolute coordinates
M83 ; extruder relative mode
M104 S215 ; set extruder temp
M140 S60 ; set bed temp
M190 S60 ; wait for bed temp
M109 S215 ; wait for extruder temp
G28 W ; home all without mesh bed level
G80 ; mesh bed leveling

G1 Z0.2 F720
G1 Y-3 F1000 ; go outside print area
G92 E0
G1 X60 E9 F1000 ; intro line
G1 X100 E12.5 F1000 ; intro line

G92 E0
M221 S95

; Don't change E values below. Excessive value can damage the printer.
M907 E430 ; set extruder motor current
G21 ; set units to millimeters
G90 ; use absolute coordinates
M83 ; use relative distances for extrusion
M900 K0.05 ; Filament gcode LA 1.5
M900 K30 ; Filament gcode LA 1.0
M107
;LAYER_CHANGE
;Z:0.2
;HEIGHT:0.2
;BEFORE_LAYER_CHANGE
G92 E0.0
;0.2


G1 E-.8 F2100
G1 Z.4 F720
;AFTER_LAYER_CHANGE
;0.2
G1 X96.436 Y88.829 F10800
G1 Z.2 F720
G1 E.8 F2100
M204 S800
;TYPE:Skirt/Brim
;WIDTH:0.42
G1 F1200
G1 X97.416 Y87.983 E.0406
G1 X113.436 Y80.526 E.55406
G1 X115.879 Y79.63 E.08159
G1 X118.451 Y78.966 E.08326
G1 X121.048 Y78.566 E.08239
G1 X123.741 Y78.424 E.08458
G1 X126.006 Y78.519 E.07108
G1 X127.539 Y78.688 E.04834
G1 X130.235 Y79.216 E.08614
G1 X149.428 Y85.286 E.63115
G1 X150.109 Y85.632 E.02396
G1 X153.336 Y87.994 E.12538
G1 X154.159 Y89.082 E.04278
G1 X154.309 Y89.911 E.02643
G1 X154.309 Y120.089 E.9462
G1 X153.917 Y121.396 E.04278
G1 X153.336 Y122.007 E.02643
G1 X150.109 Y124.368 E.12538
G1 X149.428 Y124.715 E.02396
G1 X130.252 Y130.781 E.6306
G1 X127.399 Y131.33 E.09111
G1 X125.152 Y131.541 E.07076
G1 X123.652 Y131.577 E.04704
G1 X121.048 Y131.435 E.08176
G1 X118.688 Y131.078 E.07486
G1 X117.094 Y130.717 E.05123
G1 X114.586 Y129.929 E.08243
G1 X112.268 Y128.946 E.07895
G1 X97.416 Y122.017 E.51386
G1 X96.397 Y121.11 E.04278
G1 X96.044 Y119.864 E.0406
G1 X96.044 Y90.136 E.93211
G1 X96.418 Y88.887 E.0409
M204 S1000
; printing object case-Body.stl id:0 copy 0
;WIPE_START
G1 F8640
G1 X97.416 Y87.983 E-.31074
G1 X99.18 Y87.162 E-.44926
;WIPE_END
G1 E-.04 F2100
G1 Z.6 F720
G1 X128.526 Y84.297 F10800
G1 Z.2 F720
G1 E.8 F2100
M204 S800
;TYPE:Perimeter
;WIDTH:0.419999
G1 F1200
G1 X129.535 Y84.553 E.03264
G1 X130.547 Y84.865 E.0332
G1 X131.542 Y85.226 E.0332
G1 X132.519 Y85.637 E.0332
G1 X133.473 Y86.096 E.0332
G1 X134.403 Y86.601 E.0332
G1 X135.307 Y87.153 E.0332
G1 X136.182 Y87.749 E.0332
G1 X137.027 Y88.388 E.0332
G1 X137.912 Y89.135 E.03634
G1 X138.615 Y89.787 E.03006
G1 X139.274 Y90.462 E.02957
G1 X140.056 Y91.339 E.03683
G1 X140.734 Y92.188 E.03409
M73 Q1 S30
G1 X141.336 Y93.025 E.03232
M73 P1 R29
G1 X141.699 Y93.586 E.02096
G1 X142.441 Y94.831 E.04543
G1 X142.937 Y95.798 E.03409
G1 X143.361 Y96.738 E.03232
G1 X143.748 Y97.723 E.0332
G1 X144.094 Y98.754 E.03408
G1 X144.381 Y99.773 E.0332
G1 X144.61 Y100.778 E.03232
G1 X144.795 Y101.821 E.0332
G1 X144.927 Y102.872 E.0332
G1 X145.008 Y103.956 E.03408
G1 X145.034 Y104.986 E.03232
G1 X145.008 Y106.045 E.0332
G1 X144.927 Y107.129 E.03408
G1 X144.795 Y108.179 E.0332
G1 X144.616 Y109.194 E.03232
G1 X144.381 Y110.227 E.0332
G1 X144.094 Y111.246 E.0332
G1 X143.748 Y112.277 E.03408
G1 X143.372 Y113.236 E.03232
G1 X142.937 Y114.202 E.0332
G1 X142.454 Y115.144 E.0332
G1 X141.699 Y116.414 E.04632
G1 X141.336 Y116.975 E.02096
G1 X140.734 Y117.812 E.03232
G1 X139.908 Y118.829 E.04109
G1 X139.374 Y119.435 E.02531
G1 X138.752 Y120.074 E.02798
G1 X138.062 Y120.726 E.02977
G1 X137.576 Y121.153 E.02028
G1 X137.049 Y121.595 E.02156
G1 X136.435 Y122.061 E.02418
G1 X135.576 Y122.665 E.03291
G1 X134.689 Y123.225 E.03291
G1 X133.774 Y123.741 E.03292
G1 X132.824 Y124.217 E.03332
G1 X131.875 Y124.635 E.03252
G1 X130.894 Y125.01 E.03292
G1 X129.897 Y125.336 E.03291
G1 X128.884 Y125.613 E.03291
G1 X127.867 Y125.837 E.03265
G1 X126.835 Y126.013 E.03285
G1 X125.795 Y126.137 E.03282
G1 X124.712 Y126.212 E.03405
G1 X123.665 Y126.231 E.03284
G1 X122.656 Y126.2 E.03162
G1 X121.573 Y126.114 E.03408
G1 X120.535 Y125.979 E.03282
G1 X119.504 Y125.793 E.03284
G1 X118.484 Y125.556 E.03284
G1 X117.487 Y125.272 E.03251
G1 X116.479 Y124.93 E.03335
G1 X115.503 Y124.544 E.03291
G1 X114.547 Y124.11 E.03292
G1 X114.096 Y123.892 E.01573
G1 X113.191 Y123.399 E.03232
G1 X112.274 Y122.84 E.03366
G1 X111.4 Y122.243 E.03319
G1 X110.968 Y121.917 E.01697
G1 X110.545 Y121.595 E.01667
G1 X109.755 Y120.933 E.03232
G1 X108.979 Y120.213 E.0332
G1 X108.293 Y119.511 E.03075
G1 X107.537 Y118.662 E.03565
G1 X106.877 Y117.834 E.0332
G1 X106.316 Y117.055 E.0301
G1 X105.75 Y116.19 E.03241
G1 X105.153 Y115.169 E.03708
G1 X104.657 Y114.202 E.03409
G1 X104.222 Y113.236 E.0332
G1 X103.845 Y112.277 E.03232
G1 X103.508 Y111.273 E.0332
G1 X103.213 Y110.227 E.03409
G1 X102.984 Y109.222 E.03232
G1 X102.876 Y108.618 E.01925
;WIDTH:0.462342
G1 X102.835 Y108.504 E.00423
;WIDTH:0.504684
G1 X102.794 Y108.39 E.00465
;WIDTH:0.547026
G1 X102.752 Y108.276 E.00508
;WIDTH:0.589368
G1 X102.711 Y108.162 E.00551
G1 X102.663 Y107.649 E.02343
;WIDTH:0.557203
G1 X102.615 Y107.135 E.02205
;WIDTH:0.525037
G1 X102.613 Y107.104 E.00124
;WIDTH:0.5229
G1 X102.555 Y106.075 E.04114
;WIDTH:0.484335
G1 X102.554 Y106.045 E.00109
;WIDTH:0.483318
G1 X102.535 Y105.015 E.03774
;WIDTH:0.470468
G1 X102.535 Y104.985 E.00105
;WIDTH:0.483317
G1 X102.554 Y103.955 E.03774
;WIDTH:0.484335
G1 X102.555 Y103.925 E.00109
;WIDTH:0.5229
G1 X102.613 Y102.896 E.04114
;WIDTH:0.525037
G1 X102.615 Y102.865 E.00124
;WIDTH:0.557203
G1 X102.663 Y102.352 E.02205
;WIDTH:0.589368
G1 X102.711 Y101.838 E.02343
;WIDTH:0.596898
G1 X102.72 Y101.76 E.00364
G1 X102.759 Y101.666 E.0047
;WIDTH:0.552674
G1 X102.798 Y101.571 E.00433
;WIDTH:0.508449
G1 X102.837 Y101.477 E.00395
;WIDTH:0.464224
G1 X102.876 Y101.383 E.00357
;WIDTH:0.419999
G1 X102.984 Y100.778 E.01925
G1 X103.213 Y99.773 E.03232
G1 X103.499 Y98.754 E.0332
M73 Q1 S29
G1 X103.836 Y97.75 E.0332
G1 X104.222 Y96.764 E.0332
G1 X104.657 Y95.798 E.0332
G1 X105.139 Y94.856 E.0332
G1 X105.668 Y93.939 E.0332
G1 X106.242 Y93.049 E.0332
G1 X106.86 Y92.188 E.0332
G1 X107.519 Y91.36 E.0332
G1 X108.219 Y90.566 E.0332
G1 X108.778 Y89.992 E.02512
G1 X109.756 Y89.068 E.04217
G1 X110.545 Y88.405 E.03231
G1 X111.388 Y87.765 E.0332
G1 X112.263 Y87.168 E.0332
G1 X113.166 Y86.615 E.0332
G1 X114.096 Y86.108 E.0332
G1 X115.05 Y85.648 E.0332
G1 X116.025 Y85.236 E.0332
G1 X117.02 Y84.874 E.0332
G1 X118.031 Y84.561 E.0332
G1 X119.057 Y84.299 E.0332
G1 X120.095 Y84.088 E.0332
G1 X121.142 Y83.93 E.0332
G1 X122.196 Y83.824 E.0332
G1 X123.253 Y83.77 E.0332
G1 X124.312 Y83.769 E.0332
G1 X125.37 Y83.822 E.0332
G1 X126.424 Y83.926 E.0332
G1 X127.471 Y84.083 E.0332
G1 X128.467 Y84.284 E.03188
M204 S1000
G1 X128.26 Y84.627 F10800
M204 S800
;TYPE:External perimeter
G1 F1200
G1 X129.442 Y84.919 E.03817
G1 X130.436 Y85.225 E.03261
G1 X131.414 Y85.58 E.03261
G1 X132.372 Y85.984 E.03261
G1 X133.309 Y86.435 E.03261
G1 X134.223 Y86.933 E.03261
G1 X135.11 Y87.475 E.03261
G1 X135.97 Y88.06 E.03261
G1 X136.799 Y88.688 E.03261
G1 X137.656 Y89.412 E.03516
G1 X138.359 Y90.064 E.03006
G1 X139.004 Y90.725 E.02898
G1 X139.774 Y91.588 E.03624
G1 X140.428 Y92.409 E.03291
G1 X141.03 Y93.245 E.03232
G1 X141.382 Y93.791 E.02037
G1 X142.114 Y95.02 E.04484
G1 X142.589 Y95.945 E.03261
G1 X143.017 Y96.893 E.03261
G1 X143.397 Y97.861 E.03261
G1 X143.729 Y98.847 E.03261
G1 X144.011 Y99.848 E.03261
G1 X144.242 Y100.862 E.03261
G1 X144.423 Y101.886 E.03261
G1 X144.553 Y102.919 E.03261
G1 X144.631 Y103.965 E.03291
G1 X144.657 Y105.005 E.03261
G1 X144.631 Y106.045 E.03261
G1 X144.553 Y107.082 E.03261
G1 X144.423 Y108.114 E.03261
G1 X144.242 Y109.138 E.03261
G1 X144.011 Y110.152 E.03261
G1 X143.731 Y111.144 E.03232
G1 X143.4 Y112.13 E.03261
G1 X143.021 Y113.099 E.03261
G1 X142.593 Y114.047 E.03261
G1 X142.119 Y114.972 E.03261
G1 X141.797 Y115.53 E.0202
G1 X141.035 Y116.747 E.04501
G1 X140.428 Y117.592 E.03261
G1 X139.626 Y118.58 E.03991
G1 X139.092 Y119.185 E.02531
G1 X138.482 Y119.811 E.02739
G1 X137.805 Y120.45 E.02918
G1 X136.807 Y121.306 E.04125
G1 X136.207 Y121.761 E.02359
G1 X135.364 Y122.353 E.03232
G1 X134.492 Y122.904 E.03232
G1 X133.594 Y123.41 E.03233
G1 X132.661 Y123.877 E.03273
G1 X131.728 Y124.287 E.03193
G1 X130.765 Y124.656 E.03233
G1 X129.785 Y124.976 E.03232
G1 X128.791 Y125.248 E.03232
G1 X127.793 Y125.468 E.03206
G1 X126.778 Y125.64 E.03226
G1 X125.757 Y125.762 E.03223
G1 X124.693 Y125.835 E.03346
G1 X123.665 Y125.854 E.03225
G1 X122.675 Y125.824 E.03103
G1 X121.611 Y125.739 E.03349
G1 X120.591 Y125.606 E.03223
G1 X119.579 Y125.423 E.03225
G1 X118.577 Y125.19 E.03225
G1 X117.598 Y124.911 E.03192
G1 X116.608 Y124.576 E.03276
G1 X115.65 Y124.197 E.03232
G1 X114.711 Y123.77 E.03233
G1 X113.794 Y123.298 E.03233
G1 X112.475 Y122.521 E.04801
G1 X111.624 Y121.94 E.03232
G1 X110.795 Y121.312 E.03261
G1 X109.998 Y120.644 E.03261
G1 X109.235 Y119.936 E.03261
G1 X108.502 Y119.185 E.03291
G1 X107.82 Y118.412 E.03232
G1 X107.171 Y117.599 E.03261
G1 X106.622 Y116.835 E.02951
G1 X105.995 Y115.873 E.036
G1 X105.479 Y114.981 E.03232
G1 X105.005 Y114.055 E.03261
G1 X104.577 Y113.107 E.03261
G1 X104.196 Y112.139 E.03261
G1 X103.865 Y111.153 E.03261
G1 X103.583 Y110.152 E.03261
G1 X103.351 Y109.138 E.03261
G1 X103.169 Y108.105 E.03291
G1 X103.041 Y107.082 E.03232
G1 X102.963 Y106.045 E.03261
G1 X102.937 Y105.005 E.03261
G1 X102.963 Y103.965 E.03261
G1 X103.04 Y102.928 E.03261
G1 X103.169 Y101.896 E.03261
G1 X103.351 Y100.862 E.03291
G1 X103.581 Y99.857 E.03232
G1 X103.862 Y98.856 E.03261
G1 X104.193 Y97.87 E.03261
G1 X104.573 Y96.902 E.03261
G1 X105.001 Y95.954 E.03261
G1 X105.475 Y95.028 E.03261
G1 X105.995 Y94.127 E.03261
G1 X106.559 Y93.253 E.03261
G1 X107.166 Y92.409 E.03261
G1 X107.814 Y91.595 E.03261
G1 X108.502 Y90.815 E.03261
G1 X109.048 Y90.255 E.02454
G1 X109.998 Y89.356 E.04099
G1 X110.787 Y88.694 E.03231
G1 X111.616 Y88.066 E.03261
G1 X112.475 Y87.48 E.03261
G1 X113.363 Y86.937 E.03261
G1 X114.276 Y86.44 E.03261
G1 X115.213 Y85.988 E.03261
G1 X116.171 Y85.584 E.03261
G1 X117.149 Y85.228 E.03261
G1 X118.143 Y84.921 E.03261
G1 X119.151 Y84.664 E.03261
G1 X120.17 Y84.458 E.03261
G1 X121.198 Y84.303 E.03261
G1 X122.233 Y84.199 E.03261
G1 X123.272 Y84.147 E.03261
G1 X124.312 Y84.147 E.03261
G1 X125.351 Y84.198 E.03261
G1 X126.386 Y84.301 E.03261
G1 X127.415 Y84.456 E.03261
G1 X128.201 Y84.615 E.02516
M204 S1000
G1 X128.53 Y84.332 F10800
;WIPE_START
G1 F8640
G1 X129.442 Y84.919 E-.29497
G1 X130.436 Y85.225 E-.24016
G1 X131.351 Y85.558 E-.22487
;WIPE_END
G1 E-.04 F2100
G1 Z.6 F720
G1 X102.061 Y92.686 F10800
G1 Z.2 F720
G1 E.8 F2100
M204 S800
;TYPE:Perimeter
G1 F1200
G1 X102.051 Y92.543 E.0045
G1 X101.916 Y92.329 E.00794
G1 X101.69 Y92.191 E.0083
G1 X101.516 Y92.163 E.00553
G1 X100.164 Y92.163 E.04239
G1 X100.166 Y90.407 E.05506
G1 X100.92 Y90.083 E.02573
G1 X101.596 Y89.731 E.0239
G1 X106.681 Y88.177 E.16672
G1 X107.544 Y87.835 E.02909
G1 X108.365 Y87.358 E.02979
G1 X109.672 Y86.328 E.05218
G1 X110.579 Y85.675 E.03503
G1 X111.586 Y85.024 E.0376
G1 X112.588 Y84.445 E.03628
G1 X113.618 Y83.916 E.03629
G1 X114.673 Y83.439 E.0363
G1 X115.708 Y83.03 E.03491
G1 X116.834 Y82.647 E.03727
G1 X117.947 Y82.33 E.03629
G1 X119.074 Y82.069 E.03628
G1 X120.22 Y81.862 E.03651
G1 X121.367 Y81.714 E.03627
G1 X122.521 Y81.622 E.03629
G1 X123.678 Y81.588 E.03629
G1 X124.835 Y81.611 E.0363
G1 X125.99 Y81.69 E.03629
G1 X127.139 Y81.827 E.03629
G1 X128.28 Y82.021 E.03627
G1 X129.41 Y82.27 E.03629
G1 X130.527 Y82.576 E.03631
G1 X131.659 Y82.948 E.03737
G1 X132.702 Y83.347 E.03501
G1 X133.761 Y83.814 E.03629
G1 X134.833 Y84.352 E.0376
G1 X135.804 Y84.901 E.03499
G1 X136.783 Y85.519 E.0363
G1 X137.73 Y86.185 E.03629
G1 X138.896 Y87.093 E.04633
G1 X139.368 Y87.405 E.01777
G1 X140.109 Y87.778 E.02599
G1 X140.882 Y88.037 E.02557
G1 X141.661 Y88.171 E.02476
G1 X142.22 Y88.22 E.01762
G1 X148.359 Y88.331 E.19249
G1 X148.788 Y88.776 E.01938
G1 X149.815 Y89.622 E.04172
G1 X150.27 Y89.919 E.01704
G1 X150.27 Y92.163 E.07037
G1 X148.799 Y92.163 E.04614
G1 X148.27 Y92.205 E.01664
G1 X148.138 Y92.281 E.00476
G1 X147.974 Y92.484 E.00818
G1 X147.918 Y92.729 E.00787
G1 X147.925 Y117.36 E.77228
G1 X148.04 Y117.623 E.009
G1 X148.272 Y117.796 E.00909
G1 X148.484 Y117.837 E.00675
G1 X150.27 Y117.837 E.05602
G1 X150.27 Y120.082 E.07037
G1 X149.707 Y120.463 E.02133
G1 X149.077 Y120.961 E.02517
M73 P2 R29
G1 X148.367 Y121.669 E.03144
G1 X142.18 Y121.782 E.19403
G1 X141.371 Y121.859 E.02547
M73 Q2 S29
G1 X140.817 Y121.981 E.01778
G1 X140.035 Y122.254 E.02599
G1 X139.31 Y122.629 E.02557
G1 X138.863 Y122.931 E.01691
G1 X137.743 Y123.806 E.04458
G1 X136.796 Y124.473 E.03631
G1 X135.817 Y125.092 E.03631
G1 X134.809 Y125.662 E.03632
G1 X133.762 Y126.186 E.03671
G1 X132.714 Y126.648 E.03591
G1 X131.632 Y127.063 E.03631
G1 X130.532 Y127.423 E.03631
G1 X129.415 Y127.729 E.0363
G1 X128.293 Y127.977 E.03604
G1 X127.153 Y128.171 E.03624
G1 X126.006 Y128.308 E.03623
G1 X124.814 Y128.391 E.03747
G1 X123.658 Y128.412 E.03624
G1 X122.543 Y128.379 E.035
G1 X121.351 Y128.285 E.03748
G1 X120.205 Y128.136 E.03623
G1 X119.068 Y127.93 E.03624
G1 X117.942 Y127.669 E.03624
G1 X116.841 Y127.355 E.0359
G1 X115.731 Y126.98 E.03675
G1 X114.654 Y126.554 E.03631
G1 X113.599 Y126.075 E.03632
G1 X112.569 Y125.545 E.03632
G1 X111.567 Y124.965 E.03632
G1 X110.594 Y124.335 E.03632
G1 X109.653 Y123.658 E.03637
G1 X108.366 Y122.643 E.0514
G1 X107.409 Y122.096 E.03455
G1 X106.723 Y121.836 E.02298
G1 X102.644 Y120.589 E.13375
G1 X101.489 Y120.214 E.03807
G1 X100.794 Y119.86 E.02446
G1 X100.166 Y119.593 E.0214
G1 X100.164 Y117.837 E.05506
G1 X101.222 Y117.837 E.03316
G1 X101.69 Y117.81 E.01471
G1 X101.916 Y117.672 E.0083
G1 X102.034 Y117.5 E.00651
G1 X102.082 Y117.272 E.00733
G1 X102.082 Y108.687 E.26916
;WIDTH:0.462342
G1 X102.103 Y108.564 E.00435
;WIDTH:0.504684
G1 X102.124 Y108.442 E.00478
;WIDTH:0.547026
G1 X102.145 Y108.319 E.00522
;WIDTH:0.589368
G1 X102.167 Y108.196 E.00566
G1 X102.151 Y107.681 E.02343
;WIDTH:0.557203
G1 X102.134 Y107.165 E.02205
;WIDTH:0.525037
G1 X102.133 Y107.122 E.00172
;WIDTH:0.5229
G1 X102.114 Y106.092 E.04114
;WIDTH:0.484335
G1 X102.114 Y106.051 E.0015
;WIDTH:0.483318
G1 X102.107 Y105.02 E.03774
;WIDTH:0.470468
G1 X102.107 Y104.98 E.00143
;WIDTH:0.483317
G1 X102.114 Y103.949 E.03774
;WIDTH:0.484335
G1 X102.114 Y103.909 E.0015
;WIDTH:0.5229
G1 X102.133 Y102.878 E.04114
;WIDTH:0.525037
G1 X102.134 Y102.835 E.00172
;WIDTH:0.557203
G1 X102.151 Y102.32 E.02205
;WIDTH:0.589368
G1 X102.167 Y101.804 E.02343
;WIDTH:0.596898
G1 X102.17 Y101.712 E.00427
G1 X102.148 Y101.612 E.0047
;WIDTH:0.552674
G1 X102.126 Y101.513 E.00433
;WIDTH:0.508449
G1 X102.104 Y101.413 E.00395
;WIDTH:0.464224
G1 X102.082 Y101.313 E.00357
;WIDTH:0.419999
G1 X102.082 Y92.978 E.26136
G1 X102.065 Y92.746 E.00727
M204 S1000
G1 X101.705 Y92.729 F10800
M204 S800
;TYPE:External perimeter
G1 F1200
G1 X101.65 Y92.595 E.00452
G1 X101.516 Y92.54 E.00452
G1 X99.787 Y92.54 E.05422
G1 X99.789 Y90.147 E.07502
G1 X100.211 Y89.986 E.01418
G1 X100.746 Y89.748 E.01834
G1 X101.453 Y89.381 E.02499
G1 X106.625 Y87.799 E.16959
G1 X107.356 Y87.508 E.02468
G1 X108.132 Y87.062 E.02806
G1 X109.446 Y86.027 E.05243
G1 X110.367 Y85.364 E.03558
G1 X111.389 Y84.702 E.03819
G1 X112.408 Y84.114 E.03687
G1 X113.454 Y83.577 E.03688
G1 X114.525 Y83.091 E.03688
G1 X115.578 Y82.675 E.03549
G1 X116.721 Y82.287 E.03786
