; generated by PrusaSlicer 2.5.0+linux-x64-GTK3 on 2022-12-15 at 21:18:29 UTC


;
;
; 

; external perimeters extrusion width = 0.45mm
; perimeters extrusion width = 0.45mm
; infill extrusion width = 0.45mm
; solid infill extrusion width = 0.45mm
; top infill extrusion width = 0.40mm
; first layer extrusion width = 0.42mm

; external perimeters extrusion width = 0.45mm
; perimeters extrusion width = 0.45mm
; infill extrusion width = 0.45mm
; solid infill extrusion width = 0.45mm
; top infill extrusion width = 0.40mm
; first layer extrusion width = 0.42mm

M73 P0 R8
M73 Q0 S8
M201 X1000 Y1000 Z200 E5000 ; sets maximum accelerations, mm/sec^2
M203 X200 Y200 Z12 E120 ; sets maximum feedrates, mm / sec
M204 P1250 R1250 T1250 ; sets acceleration (P, T) and retract acceleration (R), mm/sec^2
M205 X8.00 Y8.00 Z0.40 E4.50 ; sets the jerk limits, mm/sec
M205 S0 T0 ; sets the minimum extruding and travel feed rate, mm/sec
M107
;TYPE:Custom
M862.3 P "MK3S" ; printer model check
M862.1 P0.4 ; nozzle diameter check
M115 U3.11.0 ; tell printer latest fw version
G90 ; use absolute coordinates
M83 ; extruder relative mode
M104 S215 ; set extruder temp
M140 S60 ; set bed temp
M190 S60 ; wait for bed temp
M109 S215 ; wait for extruder temp
G28 W ; home all without mesh bed level
G80 ; mesh bed leveling

G1 Z0.2 F720
G1 Y-3 F1000 ; go outside print area
G92 E0
G1 X60 E9 F1000 ; intro line
G1 X100 E12.5 F1000 ; intro line

G92 E0
M221 S95

; Don't change E values below. Excessive value can damage the printer.
M907 E430 ; set extruder motor current
G21 ; set units to millimeters
G90 ; use absolute coordinates
M83 ; use relative distances for extrusion
M900 K0.05 ; Filament gcode LA 1.5
M900 K30 ; Filament gcode LA 1.0
M107
;LAYER_CHANGE
;Z:0.2
;HEIGHT:0.2
;BEFORE_LAYER_CHANGE
G92 E0.0
;0.2


G1 E-.8 F2100
M73 P1 R8
M73 Q1 S8
G1 Z.4 F720
;AFTER_LAYER_CHANGE
;0.2
G1 X107.017 Y90.263 F10800
G1 Z.2 F720
G1 E.8 F2100
M204 S800
;TYPE:Skirt/Brim
;WIDTH:0.42
G1 F1200
G1 X107.978 Y89.125 E.04671
G1 X109.643 Y87.509 E.07276
G1 X111.461 Y86.066 E.07276
G1 X113.413 Y84.812 E.07276
G1 X115.481 Y83.759 E.07276
G1 X117.643 Y82.917 E.07276
G1 X119.763 Y82.32 E.06904
G1 X120.9 Y82.088 E.03639
G1 X123.201 Y81.793 E.07276
G1 X169.336 Y80.143 E1.44745
G1 X170.816 Y80.225 E.04645
G1 X172.832 Y80.497 E.06379
M73 Q2 S8
G1 X174.28 Y80.81 E.04645
G1 X176.228 Y81.396 E.06379
G1 X177.608 Y81.933 E.04645
M73 P2 R8
G1 X179.44 Y82.818 E.06379
G1 X181.213 Y83.886 E.0649
G1 X182.449 Y84.773 E.04768
G1 X184.002 Y86.087 E.06378
G1 X185.478 Y87.594 E.06614
G1 X186.426 Y88.732 E.04645
G1 X187.601 Y90.393 E.06379
G1 X188.359 Y91.666 E.04645
G1 X189.288 Y93.559 E.06613
G1 X190.01 Y95.461 E.06379
G1 X190.426 Y96.883 E.04645
G1 X190.84 Y98.875 E.06379
G1 X191.036 Y100.462 E.05014
G1 X191.123 Y102.452 E.06244
G1 X191.027 Y104.484 E.06379
G1 X190.84 Y105.954 E.04645
G1 X190.426 Y107.945 E.06379
G1 X189.806 Y109.961 E.06614
G1 X189.258 Y111.338 E.04645
G1 X188.359 Y113.163 E.06378
G1 X187.601 Y114.436 E.04645
G1 X186.426 Y116.097 E.06379
G1 X185.478 Y117.235 E.04645
G1 X184.056 Y118.69 E.06378
G1 X182.449 Y120.056 E.06614
G1 X181.246 Y120.921 E.04645
G1 X179.506 Y121.975 E.06379
G1 X177.539 Y122.925 E.06848
G1 X175.561 Y123.655 E.06614
G1 X173.521 Y124.195 E.06614
G1 X171.44 Y124.54 E.06614
G1 X126.756 Y128.211 E1.40578
G1 X124.479 Y128.271 E.07141
M73 Q3 S8
G1 X123.201 Y128.207 E.0401
M73 P3 R8
G1 X121.635 Y128.026 E.04945
G1 X119.878 Y127.706 E.05598
G1 X117.531 Y127.045 E.07647
G1 X115.373 Y126.192 E.07276
G1 X113.413 Y125.188 E.06904
G1 X112.421 Y124.585 E.03639
G1 X110.441 Y123.161 E.07647
G1 X109.554 Y122.413 E.03639
G1 X107.978 Y120.875 E.06904
G1 X106.41 Y119.007 E.07647
G1 X105.282 Y117.363 E.06251
G1 X104.587 Y116.184 E.04292
G1 X103.574 Y114.096 E.07276
G1 X102.775 Y111.917 E.07276
G1 X102.429 Y110.686 E.04011
G1 X101.975 Y108.411 E.07276
G1 X101.75 Y106.101 E.07276
G1 X101.756 Y103.781 E.07276
G1 X101.992 Y101.472 E.07276
G1 X102.458 Y99.199 E.07276
G1 X103.148 Y96.983 E.07276
G1 X104.054 Y94.847 E.07276
G1 X105.169 Y92.812 E.07276
G1 X106.481 Y90.898 E.07276
G1 X106.978 Y90.309 E.02417
M204 S1000
; printing object positioning ring-Body.stl id:0 copy 0
;WIPE_START
G1 F8640
G1 X107.978 Y89.125 E-.35781
G1 X109.228 Y87.912 E-.40219
;WIPE_END
G1 E-.04 F2100
G1 Z.6 F720
G1 X109.218 Y118.222 F10800
G1 Z.2 F720
G1 E.8 F2100
M204 S800
;TYPE:External perimeter
;WIDTH:0.419974
G1 F1200
G1 X108.58 Y117.42 E.03213
G1 X107.981 Y116.586 E.03219
G1 X107.425 Y115.723 E.03219
G1 X106.912 Y114.834 E.03218
G1 X106.445 Y113.92 E.03218
G1 X106.023 Y112.984 E.03219
G1 X105.649 Y112.028 E.03218
G1 X105.322 Y111.055 E.03218
G1 X105.045 Y110.067 E.03219
G1 X104.817 Y109.066 E.03218
G1 X104.64 Y108.055 E.03219
G1 X104.513 Y107.036 E.03219
;WIDTH:0.421221
G1 X104.435 Y105.96 E.03393
;WIDTH:0.420032
G1 X104.411 Y105 E.03011
;WIDTH:0.419973
G1 X104.438 Y103.96 E.03263
G1 X104.516 Y102.936 E.03218
G1 X104.644 Y101.918 E.03218
G1 X104.823 Y100.907 E.03219
G1 X105.052 Y99.906 E.03218
G1 X105.331 Y98.918 E.03219
G1 X105.658 Y97.945 E.03218
G1 X106.034 Y96.99 E.03218
G1 X106.457 Y96.054 E.03219
G1 X106.926 Y95.141 E.03218
G1 X107.44 Y94.253 E.03218
G1 X107.997 Y93.391 E.03218
G1 X108.597 Y92.557 E.03219
G1 X109.238 Y91.755 E.03218
G1 X109.917 Y90.986 E.03219
G1 X110.635 Y90.252 E.03218
G1 X111.388 Y89.554 E.03218
G1 X112.174 Y88.895 E.03218
G1 X112.993 Y88.275 E.03219
G1 X113.842 Y87.698 E.03218
G1 X114.718 Y87.163 E.03219
G1 X115.62 Y86.673 E.03219
G1 X116.545 Y86.228 E.03218
M73 Q4 S8
G1 X117.491 Y85.83 E.03218
G1 X118.456 Y85.479 E.03218
G1 X119.437 Y85.177 E.03218
G1 X120.432 Y84.925 E.03218
G1 X121.439 Y84.722 E.03218
M73 P4 R8
G1 X122.454 Y84.57 E.03219
G1 X123.475 Y84.468 E.03218
G1 X124.501 Y84.418 E.03218
G1 X125.527 Y84.419 E.03218
G1 X126.553 Y84.47 E.03218
G1 X127.574 Y84.573 E.03218
G1 X128.589 Y84.727 E.03219
G1 X129.595 Y84.931 E.03218
G1 X130.59 Y85.185 E.03218
G1 X131.57 Y85.488 E.03218
G1 X132.535 Y85.84 E.03218
G1 X133.481 Y86.24 E.03218
G1 X134.405 Y86.686 E.03218
G1 X135.306 Y87.177 E.03219
G1 X136.182 Y87.713 E.03219
G1 X137.03 Y88.292 E.03218
G1 X137.848 Y88.912 E.03219
G1 X138.633 Y89.573 E.03218
G1 X139.386 Y90.271 E.03218
G1 X140.102 Y91.007 E.03218
G1 X140.781 Y91.777 E.03219
G1 X141.42 Y92.58 E.03218
G1 X142.019 Y93.414 E.03219
G1 X142.575 Y94.277 E.03218
G1 X143.088 Y95.166 E.03218
G1 X143.555 Y96.08 E.03218
G1 X143.977 Y97.016 E.03219
G1 X144.351 Y97.972 E.03219
G1 X144.678 Y98.945 E.03218
G1 X144.955 Y99.933 E.03219
G1 X145.183 Y100.934 E.03218
G1 X145.36 Y101.945 E.03219
G1 X145.487 Y102.964 E.03219
;WIDTH:0.421219
G1 X145.565 Y104.04 E.03393
;WIDTH:0.419974
G1 X145.588 Y105.014 E.03055
G1 X145.562 Y106.04 E.03218
G1 X145.484 Y107.064 E.03218
G1 X145.356 Y108.082 E.03218
G1 X145.177 Y109.093 E.03219
G1 X144.948 Y110.094 E.03218
G1 X144.669 Y111.082 E.03219
G1 X144.342 Y112.055 E.03218
G1 X143.966 Y113.01 E.03219
G1 X143.543 Y113.946 E.03219
G1 X143.074 Y114.859 E.03218
G1 X142.56 Y115.747 E.03218
G1 X142.003 Y116.609 E.03218
G1 X141.403 Y117.442 E.03219
G1 X140.762 Y118.245 E.03218
G1 X140.083 Y119.014 E.03218
G1 X139.365 Y119.748 E.03218
G1 X138.612 Y120.446 E.03218
G1 X137.826 Y121.105 E.03218
G1 X137.007 Y121.725 E.03219
G1 X136.158 Y122.302 E.03218
G1 X135.282 Y122.837 E.03219
G1 X134.38 Y123.327 E.03219
G1 X133.455 Y123.772 E.03218
G1 X132.509 Y124.17 E.03219
G1 X131.544 Y124.521 E.03218
G1 X130.563 Y124.823 E.03218
G1 X129.568 Y125.075 E.03218
G1 X128.561 Y125.278 E.03218
G1 X127.546 Y125.43 E.03219
G1 X126.525 Y125.532 E.03218
G1 X125.499 Y125.582 E.03218
G1 X124.473 Y125.581 E.03218
G1 X123.447 Y125.53 E.03218
G1 X122.426 Y125.427 E.03219
G1 X121.411 Y125.273 E.03218
G1 X120.405 Y125.069 E.03218
G1 X119.41 Y124.815 E.03218
G1 X118.43 Y124.512 E.03218
G1 X117.465 Y124.16 E.03218
G1 X116.519 Y123.76 E.03219
G1 X115.595 Y123.314 E.03218
G1 X114.694 Y122.823 E.03219
G1 X113.818 Y122.287 E.03219
G1 X112.97 Y121.708 E.03218
G1 X112.152 Y121.088 E.03219
G1 X111.367 Y120.427 E.03218
G1 X110.614 Y119.729 E.03218
G1 X109.898 Y118.993 E.03218
G1 X109.258 Y118.267 E.03036
M204 S1000
G1 X109.355 Y117.846 F10800
;WIPE_START
G1 F8640
G1 X108.58 Y117.42 E-.25047
G1 X107.981 Y116.586 E-.23704
G1 X107.425 Y115.723 E-.23704
G1 X107.348 Y115.59 E-.03545
;WIPE_END
G1 E-.04 F2100
G1 Z.6 F720
G1 X133.317 Y123.421 F10800
G1 Z.2 F720
G1 E.8 F2100
M204 S800
;WIDTH:0.419973
G1 F1200
G1 X132.388 Y123.812 E.0316
G1 X131.441 Y124.157 E.0316
M73 Q5 S8
G1 X130.479 Y124.455 E.0316
G1 X129.502 Y124.703 E.0316
G1 X128.514 Y124.903 E.0316
G1 X127.518 Y125.054 E.0316
G1 X126.515 Y125.154 E.03159
G1 X125.509 Y125.205 E.0316
M73 P5 R8
G1 X124.501 Y125.205 E.0316
G1 X123.494 Y125.155 E.0316
G1 X122.492 Y125.055 E.0316
G1 X121.495 Y124.905 E.0316
G1 X120.507 Y124.706 E.0316
G1 X119.53 Y124.457 E.0316
G1 X118.567 Y124.16 E.0316
G1 X117.62 Y123.816 E.0316
G1 X116.692 Y123.425 E.0316
G1 X115.784 Y122.988 E.03159
G1 X114.898 Y122.506 E.0316
G1 X114.038 Y121.981 E.0316
G1 X113.206 Y121.413 E.03159
G1 X112.402 Y120.805 E.0316
G1 X111.63 Y120.157 E.0316
G1 X110.891 Y119.472 E.0316
G1 X110.187 Y118.751 E.0316
G1 X109.52 Y117.995 E.0316
G1 X108.892 Y117.207 E.03159
G1 X108.303 Y116.389 E.0316
G1 X107.756 Y115.543 E.0316
G1 X107.252 Y114.67 E.0316
G1 X106.792 Y113.774 E.03159
G1 X106.378 Y112.855 E.0316
G1 X106.009 Y111.917 E.0316
G1 X105.688 Y110.962 E.03159
G1 X105.415 Y109.992 E.0316
G1 X105.19 Y109.009 E.03159
G1 X105.015 Y108.017 E.0316
G1 X104.889 Y107.007 E.03191
;WIDTH:0.421221
G1 X104.815 Y106.003 E.03167
G1 X104.789 Y105.005 E.03142
;WIDTH:0.419975
G1 X104.814 Y103.997 E.0316
G1 X104.889 Y102.992 E.0316
G1 X105.014 Y101.992 E.0316
G1 X105.189 Y101 E.0316
G1 X105.413 Y100.017 E.03159
G1 X105.685 Y99.047 E.0316
G1 X106.006 Y98.092 E.03159
G1 X106.374 Y97.154 E.0316
G1 X106.788 Y96.235 E.0316
G1 X107.248 Y95.338 E.03159
G1 X107.751 Y94.465 E.0316
G1 X108.298 Y93.618 E.0316
G1 X108.886 Y92.8 E.0316
G1 X109.514 Y92.012 E.03159
G1 X110.181 Y91.256 E.0316
G1 X110.884 Y90.535 E.0316
G1 X111.623 Y89.849 E.0316
G1 X112.395 Y89.201 E.0316
G1 X113.198 Y88.592 E.0316
G1 X114.03 Y88.025 E.03159
G1 X114.89 Y87.499 E.0316
G1 X115.775 Y87.017 E.0316
G1 X116.683 Y86.579 E.03159
G1 X117.612 Y86.188 E.0316
G1 X118.559 Y85.843 E.0316
G1 X119.521 Y85.545 E.0316
G1 X120.498 Y85.297 E.0316
G1 X121.486 Y85.097 E.0316
G1 X122.482 Y84.946 E.0316
G1 X123.485 Y84.846 E.03159
G1 X124.491 Y84.795 E.0316
G1 X125.499 Y84.795 E.0316
G1 X126.506 Y84.845 E.0316
G1 X127.508 Y84.945 E.03159
G1 X128.505 Y85.095 E.0316
G1 X129.493 Y85.294 E.0316
G1 X130.47 Y85.543 E.0316
G1 X131.433 Y85.84 E.0316
G1 X132.38 Y86.184 E.0316
G1 X133.308 Y86.575 E.0316
G1 X134.216 Y87.012 E.03159
G1 X135.102 Y87.494 E.0316
G1 X135.962 Y88.019 E.0316
G1 X136.794 Y88.587 E.03159
G1 X137.598 Y89.195 E.0316
G1 X138.37 Y89.843 E.0316
G1 X139.109 Y90.528 E.0316
G1 X139.813 Y91.249 E.0316
G1 X140.48 Y92.005 E.0316
G1 X141.108 Y92.793 E.03159
G1 X141.697 Y93.611 E.0316
G1 X142.244 Y94.457 E.0316
G1 X142.748 Y95.33 E.0316
G1 X143.208 Y96.226 E.03159
G1 X143.622 Y97.145 E.0316
G1 X143.991 Y98.083 E.0316
G1 X144.312 Y99.038 E.03159
G1 X144.585 Y100.008 E.0316
G1 X144.81 Y100.991 E.03159
G1 X144.985 Y101.983 E.0316
G1 X145.111 Y102.993 E.03191
;WIDTH:0.421219
G1 X145.185 Y103.997 E.03167
G1 X145.211 Y104.995 E.03142
;WIDTH:0.419973
G1 X145.186 Y106.003 E.0316
G1 X145.111 Y107.008 E.0316
G1 X144.986 Y108.008 E.0316
G1 X144.811 Y109 E.0316
G1 X144.587 Y109.983 E.03159
G1 X144.315 Y110.953 E.0316
M73 Q6 S8
G1 X143.994 Y111.908 E.03159
G1 X143.626 Y112.846 E.0316
G1 X143.212 Y113.765 E.0316
G1 X142.752 Y114.662 E.03159
G1 X142.249 Y115.535 E.0316
M73 P6 R8
G1 X141.702 Y116.382 E.0316
G1 X141.114 Y117.2 E.0316
G1 X140.486 Y117.988 E.0316
G1 X139.819 Y118.744 E.0316
G1 X139.116 Y119.465 E.0316
G1 X138.377 Y120.151 E.0316
G1 X137.605 Y120.799 E.0316
G1 X136.802 Y121.408 E.0316
G1 X135.97 Y121.975 E.03159
G1 X135.11 Y122.501 E.0316
G1 X134.225 Y122.983 E.0316
G1 X133.371 Y123.395 E.02971
M204 S1000
G1 X133.277 Y123.819 F10800
; stop printing object positioning ring-Body.stl id:0 copy 0
; printing object inner id:1 copy 0
;WIPE_START
G1 F8640
G1 X132.388 Y123.812 E-.24654
G1 X131.441 Y124.157 E-.23269
G1 X130.479 Y124.455 E-.2327
G1 X130.277 Y124.506 E-.04808
;WIPE_END
G1 E-.04 F2100
G1 Z.6 F720
G1 X153.971 Y114.415 F10800
G1 Z.2 F720
G1 E.8 F2100
M204 S800
;TYPE:Perimeter
;WIDTH:0.419999
G1 F1200
G1 X153.243 Y113.452 E.03784
G1 X152.578 Y112.446 E.03784
G1 X151.975 Y111.395 E.03798
G1 X151.446 Y110.321 E.03755
G1 X150.98 Y109.203 E.03798
G1 X150.586 Y108.057 E.03798
G1 X150.268 Y106.903 E.03754
G1 X150.02 Y105.713 E.03811
G1 X149.922 Y105.09 E.01976
G1 X149.793 Y103.922 E.03686
G1 X149.736 Y102.711 E.03799
G1 X149.736 Y102.117 E.01863
G1 X149.793 Y100.907 E.03798
G1 X149.927 Y99.703 E.03798
G1 X150.02 Y99.116 E.01863
G1 X150.267 Y97.931 E.03798
G1 X150.588 Y96.763 E.03798
G1 X150.978 Y95.63 E.03755
G1 X151.444 Y94.512 E.03798
G1 X151.979 Y93.425 E.03798
G1 X152.575 Y92.387 E.03754
G1 X153.243 Y91.376 E.03798
G1 X153.974 Y90.41 E.03798
G1 X154.354 Y89.953 E.01863
G1 X155.176 Y89.057 E.03812
G1 X155.601 Y88.635 E.01877
G1 X156.039 Y88.227 E.01878
G1 X156.963 Y87.445 E.03798
G1 X157.936 Y86.722 E.03798
G1 X158.429 Y86.39 E.01863
G1 X159.469 Y85.76 E.03813
G1 X159.991 Y85.477 E.01863
G1 X161.086 Y84.948 E.03813
G1 X161.637 Y84.713 E.01877
G1 X162.195 Y84.496 E.01878
G1 X163.343 Y84.111 E.03798
G1 X164.514 Y83.799 E.03798
G1 X165.099 Y83.673 E.01876
G1 X165.723 Y83.559 E.0199
G1 X166.888 Y83.402 E.03687
G1 X168.096 Y83.316 E.03797
G1 X168.726 Y83.302 E.01976
G1 X169.902 Y83.331 E.03686
G1 X171.109 Y83.436 E.03799
G1 X171.697 Y83.515 E.01863
G1 X172.893 Y83.735 E.03811
G1 X173.506 Y83.879 E.01976
G1 X174.637 Y84.2 E.03686
G1 X175.78 Y84.603 E.03799
G1 X176.334 Y84.829 E.01878
G1 X176.881 Y85.073 E.01877
G1 X177.964 Y85.617 E.03798
G1 X179.01 Y86.228 E.03798
G1 X179.508 Y86.552 E.01863
G1 X180.495 Y87.262 E.03813
G1 X180.96 Y87.631 E.01863
G1 X181.876 Y88.431 E.03813
G1 X182.304 Y88.843 E.01863
G1 X183.14 Y89.726 E.03813
G1 X183.531 Y90.18 E.01878
G1 X183.907 Y90.646 E.01877
G1 X184.624 Y91.627 E.03811
G1 X184.971 Y92.154 E.01976
G1 X185.571 Y93.164 E.03686
G1 X186.122 Y94.238 E.03784
G1 X186.605 Y95.349 E.03798
G1 X186.816 Y95.904 E.01863
G1 X187.192 Y97.056 E.03798
G1 X187.495 Y98.229 E.03798
G1 X187.617 Y98.815 E.01878
G1 X187.721 Y99.405 E.01878
G1 X187.874 Y100.611 E.03811
G1 X187.922 Y101.239 E.01976
G1 X187.959 Y102.414 E.03687
G1 X187.922 Y103.59 E.03687
G1 X187.874 Y104.218 E.01976
G1 X187.721 Y105.424 E.03811
G1 X187.617 Y106.013 E.01876
M73 Q7 S8
G1 X187.487 Y106.634 E.0199
G1 X187.192 Y107.772 E.03687
G1 X186.816 Y108.924 E.03799
G1 X186.605 Y109.48 E.01863
G1 X186.12 Y110.595 E.03813
G1 X185.857 Y111.127 E.01863
M73 P7 R8
G1 X185.271 Y112.188 E.03798
G1 X184.639 Y113.179 E.03686
G1 X184.276 Y113.694 E.01976
G1 X183.528 Y114.652 E.03811
G1 X183.14 Y115.102 E.01863
G1 X182.304 Y115.986 E.03813
G1 X181.876 Y116.397 E.01863
G1 X180.96 Y117.198 E.03813
G1 X180.495 Y117.567 E.01863
G1 X179.508 Y118.277 E.03813
G1 X179.01 Y118.601 E.01863
G1 X177.964 Y119.212 E.03798
G1 X176.886 Y119.754 E.03784
G1 X175.804 Y120.215 E.03687
G1 X175.214 Y120.435 E.01976
G1 X174.06 Y120.802 E.03796
G1 X172.884 Y121.096 E.03798
G1 X172.297 Y121.213 E.01877
G1 X171.707 Y121.312 E.01878
G1 X170.504 Y121.455 E.03798
G1 X169.294 Y121.522 E.03798
G1 X168.7 Y121.526 E.01863
G1 X167.49 Y121.479 E.03798
G1 X166.285 Y121.355 E.03796
G1 X165.662 Y121.259 E.01976
G1 X164.505 Y121.027 E.03701
G1 X163.928 Y120.883 E.01864
G1 X162.764 Y120.533 E.03813
G1 X162.204 Y120.336 E.01863
G1 X161.082 Y119.879 E.03798
G1 X159.991 Y119.352 E.03798
G1 X159.469 Y119.068 E.01863
G1 X158.429 Y118.438 E.03813
G1 X157.936 Y118.107 E.01863
G1 X156.96 Y117.381 E.03812
G1 X156.046 Y116.607 E.03755
G1 X155.169 Y115.765 E.03813
G1 X154.761 Y115.333 E.01863
G1 X154.01 Y114.46 E.0361
M204 S1000
G1 X153.677 Y114.652 F10800
M204 S800
;TYPE:External perimeter
G1 F1200
G1 X152.935 Y113.67 E.03858
