; generated by PrusaSlicer 2.5.0+linux-x64-GTK3 on 2022-12-15 at 16:39:52 UTC


;
;
; 

; external perimeters extrusion width = 0.45mm
; perimeters extrusion width = 0.45mm
; infill extrusion width = 0.45mm
; solid infill extrusion width = 0.45mm
; top infill extrusion width = 0.40mm
; first layer extrusion width = 0.42mm

; external perimeters extrusion width = 0.45mm
; perimeters extrusion width = 0.45mm
; infill extrusion width = 0.45mm
; solid infill extrusion width = 0.45mm
; top infill extrusion width = 0.40mm
; first layer extrusion width = 0.42mm

; external perimeters extrusion width = 0.45mm
; perimeters extrusion width = 0.45mm
; infill extrusion width = 0.45mm
; solid infill extrusion width = 0.45mm
; top infill extrusion width = 0.40mm
; first layer extrusion width = 0.42mm

; external perimeters extrusion width = 0.45mm
; perimeters extrusion width = 0.45mm
; infill extrusion width = 0.45mm
; solid infill extrusion width = 0.45mm
; top infill extrusion width = 0.40mm
; first layer extrusion width = 0.42mm

M73 P0 R41
M73 Q0 S41
M201 X1000 Y1000 Z200 E5000 ; sets maximum accelerations, mm/sec^2
M203 X200 Y200 Z12 E120 ; sets maximum feedrates, mm / sec
M204 P1250 R1250 T1250 ; sets acceleration (P, T) and retract acceleration (R), mm/sec^2
M205 X8.00 Y8.00 Z0.40 E4.50 ; sets the jerk limits, mm/sec
M205 S0 T0 ; sets the minimum extruding and travel feed rate, mm/sec
M107
;TYPE:Custom
M862.3 P "MK3S" ; printer model check
M862.1 P0.4 ; nozzle diameter check
M115 U3.11.0 ; tell printer latest fw version
G90 ; use absolute coordinates
M83 ; extruder relative mode
M104 S215 ; set extruder temp
M140 S60 ; set bed temp
M190 S60 ; wait for bed temp
M109 S215 ; wait for extruder temp
G28 W ; home all without mesh bed level
G80 ; mesh bed leveling

G1 Z0.2 F720
G1 Y-3 F1000 ; go outside print area
G92 E0
G1 X60 E9 F1000 ; intro line
G1 X100 E12.5 F1000 ; intro line

G92 E0
M221 S95

; Don't change E values below. Excessive value can damage the printer.
M907 E430 ; set extruder motor current
G21 ; set units to millimeters
G90 ; use absolute coordinates
M83 ; use relative distances for extrusion
M900 K0.05 ; Filament gcode LA 1.5
M900 K30 ; Filament gcode LA 1.0
M107
;LAYER_CHANGE
;Z:0.2
;HEIGHT:0.2
;BEFORE_LAYER_CHANGE
G92 E0.0
;0.2


G1 E-.8 F2100
G1 Z.4 F720
;AFTER_LAYER_CHANGE
;0.2
G1 X92.682 Y68.199 F10800
G1 Z.2 F720
G1 E.8 F2100
M204 S800
;TYPE:Skirt/Brim
;WIDTH:0.42
G1 F1200
G1 X93.612 Y67.046 E.04645
G1 X95.011 Y65.569 E.06379
G1 X96.11 Y64.576 E.04645
G1 X97.724 Y63.337 E.06379
G1 X98.966 Y62.53 E.04645
G1 X100.754 Y61.559 E.06379
G1 X102.108 Y60.957 E.04645
G1 X104.026 Y60.28 E.06379
G1 X105.457 Y59.898 E.04645
G1 X107.458 Y59.531 E.06378
G1 X108.932 Y59.379 E.04645
G1 X110.966 Y59.331 E.06378
G1 X155.296 Y62.367 E1.39319
G1 X157.67 Y62.668 E.07505
G1 X159.817 Y63.158 E.06904
G1 X162.019 Y63.891 E.07276
G1 X164.136 Y64.84 E.07276
G1 X166.149 Y65.995 E.07276
G1 X168.036 Y67.345 E.07276
G1 X169.016 Y68.167 E.0401
G1 X170.673 Y69.792 E.07276
G1 X172.16 Y71.573 E.07276
G1 X173.463 Y73.494 E.07276
G1 X174.567 Y75.534 E.07276
G1 X175.463 Y77.675 E.07276
G1 X176.141 Y79.894 E.07276
G1 X176.578 Y82.053 E.06904
G1 X182.919 Y118.601 E1.16308
G1 X182.954 Y151.554 E1.0332
G1 X182.563 Y152.861 E.04278
G1 X181.916 Y153.518 E.0289
G1 X180.189 Y154.695 E.06554
G1 X179.548 Y155.003 E.02229
G1 X160.761 Y160.77 E.61619
G1 X158.361 Y161.36 E.07747
M73 P0 R40
G1 X155.891 Y161.724 E.0783
G1 X154.254 Y161.837 E.05144
G1 X151.754 Y161.816 E.07838
G1 X100.181 Y157.987 E1.62149
G1 X96.978 Y157.551 E.10136
G1 X94.323 Y156.877 E.08588
G1 X91.974 Y156.025 E.07835
G1 X90.01 Y155.11 E.06794
G1 X87.899 Y153.891 E.07642
G1 X86.125 Y152.649 E.06791
G1 X84.258 Y151.082 E.07643
G1 X82.726 Y149.55 E.0679
G1 X81.122 Y147.633 E.07839
G1 X79.58 Y145.368 E.08592
G1 X78.385 Y143.171 E.0784
G1 X77.516 Y141.168 E.06846
G1 X76.733 Y138.812 E.07786
G1 X76.242 Y136.75 E.06647
G1 X75.824 Y133.659 E.09779
G1 X75.754 Y131.177 E.07785
G1 X75.886 Y128.997 E.06847
G1 X76.242 Y126.603 E.07589
G1 X76.558 Y125.193 E.04532
G1 X88.826 Y76.355 E1.57885
G1 X89.4 Y74.387 E.06427
G1 X89.926 Y73.002 E.04645
G1 X90.796 Y71.164 E.06379
G1 X91.534 Y69.879 E.04645
G1 X92.648 Y68.249 E.0619
M204 S1000
; printing object outer id:1 copy 0
;WIPE_START
M73 P1 R40
G1 F8640
G1 X93.612 Y67.046 E-.35589
G1 X94.815 Y65.775 E-.40411
;WIPE_END
M73 Q1 S41
G1 E-.04 F2100
G1 Z.6 F720
G1 X79.748 Y127.739 F10800
G1 Z.2 F720
G1 E.8 F2100
M204 S800
;TYPE:Perimeter
;WIDTH:0.419999
G1 F1200
G1 X79.768 Y127.34 E.01253
G1 X79.613 Y126.882 E.01514
G1 X79.465 Y126.675 E.00798
G1 X79.628 Y125.962 E.02292
G1 X79.786 Y125.373 E.01913
G1 X80.002 Y124.674 E.02295
G1 X80.218 Y124.579 E.00741
G1 X80.504 Y124.363 E.01123
G1 X80.753 Y123.987 E.01415
G1 X80.859 Y123.524 E.01491
G1 X80.825 Y123.203 E.01012
G1 X80.677 Y122.818 E.01292
G1 X80.961 Y122.143 E.02297
G1 X81.219 Y121.589 E.01914
G1 X81.554 Y120.937 E.02297
G1 X81.784 Y120.882 E.00742
G1 X82.189 Y120.647 E.01467
G1 X82.465 Y120.316 E.01353
G1 X82.598 Y119.953 E.01212
G1 X82.61 Y119.471 E.01513
G1 X82.542 Y119.226 E.00796
G1 X82.939 Y118.611 E.02296
G1 X83.289 Y118.111 E.01914
G1 X83.731 Y117.528 E.02295
G1 X83.968 Y117.513 E.00743
G1 X84.238 Y117.434 E.00884
G1 X84.434 Y117.332 E.00692
G1 X84.732 Y117.08 E.01222
G1 X84.932 Y116.739 E.01239
G1 X85.027 Y116.267 E.01512
G1 X85.002 Y116.013 E.00799
G1 X85.279 Y115.715 E.01276
G1 X85.638 Y115.342 E.01621
G1 X86.46 Y114.547 E.03588
G1 X86.703 Y114.574 E.00766
G1 X87.104 Y114.516 E.01271
G1 X87.459 Y114.331 E.01255
G1 X87.786 Y113.98 E.01505
G1 X87.949 Y113.574 E.01369
G1 X87.982 Y113.277 E.00938
G1 X88.582 Y112.823 E.0236
G1 X89.673 Y112.086 E.04127
G1 X89.908 Y112.155 E.00767
G1 X90.408 Y112.144 E.01568
G1 X90.786 Y112.002 E.01266
G1 X91.176 Y111.644 E.0166
G1 X91.329 Y111.345 E.01054
G1 X91.392 Y111.099 E.00796
G1 X92.043 Y110.765 E.02295
G1 X92.597 Y110.507 E.01914
G1 X93.271 Y110.223 E.02294
G1 X93.484 Y110.329 E.00744
G1 X93.818 Y110.407 E.01076
G1 X94.274 Y110.36 E.01439
G1 X94.689 Y110.151 E.01455
G1 X94.92 Y109.921 E.01021
G1 X95.13 Y109.547 E.01347
G1 X95.829 Y109.331 E.02293
G1 X96.418 Y109.173 E.01913
G1 X97.131 Y109.01 E.02293
G1 X97.321 Y109.151 E.00741
G1 X97.754 Y109.31 E.01446
G1 X98.192 Y109.309 E.01373
G1 X98.557 Y109.178 E.01214
G1 X98.933 Y108.877 E.01512
G1 X99.077 Y108.667 E.00797
G1 X99.803 Y108.576 E.02296
G1 X100.412 Y108.523 E.01914
G1 X101.143 Y108.487 E.02296
G1 X101.306 Y108.658 E.00743
G1 X101.539 Y108.814 E.00878
G1 X101.745 Y108.899 E.00698
G1 X102.22 Y108.958 E.01503
G1 X102.693 Y108.833 E.01532
G1 X102.941 Y108.668 E.00935
G1 X103.126 Y108.481 E.00823
G1 X104.463 Y108.576 E.04203
G1 X105.185 Y108.667 E.02281
G1 X105.316 Y108.865 E.00744
G1 X105.706 Y109.179 E.0157
G1 X106.025 Y109.3 E.01072
G1 X106.468 Y109.313 E.0139
G1 X106.846 Y109.194 E.01243
G1 X107.133 Y109.011 E.01067
G1 X107.846 Y109.173 E.02292
G1 X108.435 Y109.331 E.01913
G1 X109.135 Y109.547 E.02295
G1 X109.229 Y109.764 E.00741
G1 X109.558 Y110.14 E.01565
G1 X109.894 Y110.332 E.01216
G1 X110.411 Y110.409 E.01637
G1 X110.76 Y110.332 E.01123
G1 X110.99 Y110.223 E.00799
G1 X111.666 Y110.507 E.02297
G1 X112.219 Y110.765 E.01914
G1 X112.871 Y111.099 E.02297
G1 X112.927 Y111.33 E.00742
G1 X113.077 Y111.628 E.01047
G1 X113.419 Y111.961 E.01497
G1 X113.855 Y112.144 E.01483
G1 X114.192 Y112.165 E.01058
G1 X114.582 Y112.087 E.01247
G1 X115.214 Y112.497 E.02362
G1 X116.28 Y113.269 E.04126
G1 X116.296 Y113.513 E.00767
G1 X116.443 Y113.934 E.01396
G1 X116.73 Y114.278 E.01406
G1 X117.126 Y114.504 E.01429
G1 X117.543 Y114.572 E.01325
G1 X117.795 Y114.548 E.00796
G1 X118.346 Y115.06 E.0236
G1 X119.261 Y116.006 E.04126
G1 X119.24 Y116.088 E.00267
G1 X119.268 Y116.548 E.01445
G1 X119.467 Y116.986 E.0151
G1 X119.607 Y117.154 E.00683
G1 X119.986 Y117.421 E.01455
G1 X120.278 Y117.508 E.00954
G1 X120.532 Y117.527 E.00799
G1 X120.971 Y118.108 E.02283
G1 X121.723 Y119.219 E.04205
G1 X121.654 Y119.453 E.00767
G1 X121.664 Y119.953 E.01568
G1 X121.77 Y120.26 E.01018
G1 X122.056 Y120.628 E.01461
G1 X122.46 Y120.873 E.01482
G1 X122.708 Y120.938 E.00803
G1 X123.069 Y121.644 E.02486
G1 X123.585 Y122.817 E.04017
G1 X123.48 Y123.029 E.00744
G1 X123.403 Y123.524 E.01569
G1 X123.478 Y123.923 E.01273
G1 X123.74 Y124.345 E.01558
G1 X124.03 Y124.57 E.0115
G1 X124.262 Y124.675 E.00799
G1 X124.478 Y125.374 E.02293
G1 X124.635 Y125.963 E.01913
G1 X124.798 Y126.677 E.02293
G1 X124.657 Y126.867 E.00741
G1 X124.496 Y127.34 E.01568
G1 X124.497 Y127.722 E.01197
G1 X124.63 Y128.102 E.01263
G1 X124.932 Y128.479 E.01512
G1 X125.141 Y128.622 E.00796
G1 X125.232 Y129.349 E.02296
G1 X125.286 Y129.957 E.01914
G1 X125.322 Y130.689 E.02296
G1 X125.15 Y130.852 E.00743
G1 X124.931 Y131.211 E.0132
G1 X124.843 Y131.668 E.01459
G1 X124.932 Y132.146 E.01523
G1 X125.139 Y132.486 E.01249
G1 X125.327 Y132.671 E.00827
G1 X125.232 Y134.008 E.04203
G1 X125.141 Y134.73 E.02281
G1 X124.943 Y134.861 E.00744
G1 X124.63 Y135.251 E.0157
G1 X124.496 Y135.632 E.01265
G1 X124.495 Y136.014 E.01198
G1 X124.649 Y136.472 E.01514
G1 X124.798 Y136.679 E.00798
G1 X124.635 Y137.391 E.02292
G1 X124.477 Y137.981 E.01913
G1 X124.261 Y138.68 E.02295
G1 X124.045 Y138.775 E.00741
G1 X123.759 Y138.991 E.01123
G1 X123.505 Y139.375 E.01446
G1 X123.404 Y139.83 E.01461
G1 X123.438 Y140.151 E.01012
G1 X123.586 Y140.536 E.01292
G1 X123.302 Y141.211 E.02297
G1 X123.043 Y141.765 E.01915
G1 X122.709 Y142.417 E.02297
G1 X122.479 Y142.472 E.00742
G1 X122.074 Y142.707 E.01467
G1 X121.798 Y143.038 E.01353
G1 X121.665 Y143.401 E.01211
G1 X121.653 Y143.883 E.01512
G1 X121.721 Y144.128 E.00796
G1 X121.312 Y144.76 E.02361
G1 X120.539 Y145.825 E.04127
G1 X120.454 Y145.818 E.00267
G1 X120.024 Y145.92 E.01385
G1 X119.829 Y146.022 E.00692
G1 X119.531 Y146.274 E.01222
G1 X119.331 Y146.615 E.01239
G1 X119.236 Y147.087 E.01512
G1 X119.261 Y147.341 E.00799
G1 X118.625 Y148.012 E.02897
G1 X117.803 Y148.807 E.03588
G1 X117.56 Y148.78 E.00766
G1 X117.159 Y148.838 E.01271
G1 X116.726 Y149.079 E.01553
G1 X116.477 Y149.374 E.01212
G1 X116.314 Y149.78 E.01369
G1 X116.281 Y150.077 E.00938
G1 X115.68 Y150.531 E.02361
G1 X114.59 Y151.268 E.04127
G1 X114.355 Y151.199 E.00767
G1 X113.855 Y151.21 E.01568
G1 X113.477 Y151.352 E.01266
G1 X113.087 Y151.71 E.0166
G1 X112.934 Y152.009 E.01054
G1 X112.871 Y152.255 E.00796
G1 X112.219 Y152.589 E.02295
G1 X111.666 Y152.847 E.01914
G1 X110.992 Y153.131 E.02294
G1 X110.779 Y153.025 E.00744
G1 X110.411 Y152.943 E.01184
G1 X109.894 Y153.021 E.01638
G1 X109.574 Y153.203 E.01155
G1 X109.343 Y153.433 E.01021
G1 X109.133 Y153.807 E.01347
G1 X108.434 Y154.023 E.02293
G1 X107.845 Y154.181 E.01913
G1 X107.132 Y154.343 E.02293
G1 X106.942 Y154.203 E.00741
G1 X106.509 Y154.044 E.01446
G1 X106.071 Y154.045 E.01373
G1 X105.706 Y154.176 E.01214
G1 X105.33 Y154.477 E.01512
G1 X105.186 Y154.687 E.00797
G1 X104.459 Y154.778 E.02296
G1 X103.851 Y154.831 E.01914
G1 X103.12 Y154.867 E.02296
G1 X102.957 Y154.696 E.00743
G1 X102.724 Y154.54 E.00878
G1 X102.518 Y154.455 E.00698
G1 X102.042 Y154.396 E.01504
G1 X101.57 Y154.521 E.01532
G1 X101.322 Y154.686 E.00935
G1 X101.137 Y154.873 E.00823
G1 X99.8 Y154.778 E.04204
G1 X99.078 Y154.687 E.02281
G1 X98.947 Y154.489 E.00744
G1 X98.557 Y154.175 E.0157
G1 X98.263 Y154.062 E.00986
G1 X97.794 Y154.041 E.01472
G1 X97.416 Y154.16 E.01243
G1 X97.13 Y154.343 E.01067
G1 X96.417 Y154.181 E.02292
G1 X95.827 Y154.023 E.01913
G1 X95.128 Y153.807 E.02295
G1 X95.034 Y153.59 E.00741
G1 X94.705 Y153.214 E.01565
G1 X94.368 Y153.022 E.01216
G1 X93.852 Y152.945 E.01637
G1 X93.503 Y153.022 E.01123
G1 X93.272 Y153.131 E.00799
G1 X92.597 Y152.847 E.02297
G1 X92.044 Y152.589 E.01915
G1 X91.392 Y152.255 E.02297
G1 X91.336 Y152.025 E.00742
G1 X91.185 Y151.725 E.01053
G1 X90.846 Y151.395 E.01485
G1 X90.408 Y151.21 E.0149
G1 X90.071 Y151.189 E.01058
G1 X89.681 Y151.267 E.01247
G1 X89.049 Y150.857 E.02362
G1 X87.983 Y150.085 E.04126
G1 X87.967 Y149.841 E.00767
G1 X87.82 Y149.42 E.01396
G1 X87.533 Y149.076 E.01406
G1 X87.137 Y148.85 E.01429
G1 X86.72 Y148.782 E.01325
G1 X86.468 Y148.806 E.00796
G1 X85.917 Y148.294 E.0236
G1 X85.002 Y147.348 E.04126
G1 X85.023 Y147.266 E.00267
G1 X84.995 Y146.806 E.01445
G1 X84.796 Y146.368 E.0151
G1 X84.654 Y146.199 E.00692
G1 X84.277 Y145.933 E.01445
G1 X83.985 Y145.846 E.00954
G1 X83.731 Y145.827 E.00799
G1 X83.291 Y145.246 E.02283
G1 X82.54 Y144.135 E.04205
G1 X82.609 Y143.901 E.00767
G1 X82.599 Y143.401 E.01568
G1 X82.496 Y143.103 E.00988
G1 X82.207 Y142.725 E.0149
G1 X81.8 Y142.48 E.0149
G1 X81.554 Y142.416 E.00799
G1 X81.219 Y141.765 E.02295
G1 X80.962 Y141.212 E.01914
G1 X80.678 Y140.537 E.02294
G1 X80.783 Y140.325 E.00744
G1 X80.86 Y139.83 E.01569
G1 X80.785 Y139.431 E.01273
G1 X80.523 Y139.009 E.01558
G1 X80.233 Y138.784 E.0115
G1 X80.001 Y138.679 E.00799
G1 X79.785 Y137.98 E.02293
G1 X79.627 Y137.391 E.01913
G1 X79.465 Y136.677 E.02293
G1 X79.605 Y136.487 E.00741
G1 X79.767 Y136.014 E.01568
G1 X79.766 Y135.632 E.01197
G1 X79.632 Y135.252 E.01263
G1 X79.331 Y134.875 E.01512
G1 X79.122 Y134.732 E.00796
G1 X79.03 Y134.005 E.02296
G1 X78.977 Y133.397 E.01914
G1 X78.941 Y132.665 E.02296
G1 X79.113 Y132.502 E.00743
G1 X79.332 Y132.143 E.0132
G1 X79.42 Y131.686 E.01459
G1 X79.331 Y131.208 E.01523
G1 X79.123 Y130.868 E.01249
G1 X78.936 Y130.683 E.00827
G1 X79.031 Y129.346 E.04204
G1 X79.122 Y128.624 E.02281
G1 X79.319 Y128.493 E.00744
G1 X79.518 Y128.286 E.00899
G1 X79.745 Y127.799 E.01683
M204 S1000
G1 X79.384 Y127.703 F10800
M204 S800
;TYPE:External perimeter
G1 F1200
G1 X79.391 Y127.348 E.01112
G1 X79.268 Y127.034 E.01057
G1 X79.048 Y126.81 E.00987
G1 X79.262 Y125.872 E.03016
G1 X79.423 Y125.269 E.01958
G1 X79.707 Y124.349 E.03017
G1 X79.919 Y124.308 E.00677
G1 X80.222 Y124.109 E.01138
G1 X80.418 Y123.814 E.0111
G1 X80.486 Y123.466 E.0111
G1 X80.42 Y123.136 E.01055
G1 X80.243 Y122.877 E.00984
G1 X80.617 Y121.99 E.0302
G1 X80.881 Y121.423 E.01959
G1 X81.32 Y120.567 E.0302
G1 X81.537 Y120.563 E.00678
G1 X81.87 Y120.419 E.01138
G1 X82.114 Y120.162 E.0111
G1 X82.241 Y119.832 E.0111
G1 X82.234 Y119.496 E.01055
G1 X82.104 Y119.21 E.00984
G1 X82.626 Y118.401 E.03019
G1 X82.984 Y117.889 E.01959
G1 X83.566 Y117.122 E.03018
G1 X83.78 Y117.156 E.00679
G1 X84.133 Y117.072 E.01139
G1 X84.396 Y116.879 E.01022
G1 X84.58 Y116.597 E.01056
G1 X84.652 Y116.226 E.01186
G1 X84.574 Y115.921 E.00987
G1 X85.227 Y115.216 E.03013
G1 X86.373 Y114.118 E.04976
G1 X86.58 Y114.19 E.00685
G1 X86.942 Y114.168 E.01139
G1 X87.259 Y114.011 E.01111
G1 X87.492 Y113.744 E.01111
G1 X87.6 Y113.424 E.01057
G1 X87.576 Y113.111 E.00983
G1 X88.342 Y112.531 E.03014
G1 X89.662 Y111.648 E.04978
G1 X89.853 Y111.755 E.00686
G1 X90.186 Y111.795 E.01053
G1 X90.553 Y111.696 E.01192
G1 X90.829 Y111.474 E.01111
G1 X90.991 Y111.178 E.01057
G1 X91.021 Y110.866 E.00985
G1 X91.878 Y110.426 E.03018
G1 X92.444 Y110.162 E.01958
G1 X93.331 Y109.789 E.03018
G1 X93.499 Y109.926 E.0068
G1 X93.847 Y110.03 E.01139
G1 X94.199 Y109.99 E.01112
G1 X94.493 Y109.828 E.0105
G1 X94.721 Y109.555 E.01116
G1 X94.805 Y109.252 E.00984
G1 X95.724 Y108.968 E.03017
G1 X96.327 Y108.807 E.01958
G1 X97.265 Y108.593 E.03016
G1 X97.407 Y108.757 E.00678
G1 X97.731 Y108.919 E.01139
G1 X98.085 Y108.942 E.01111
G1 X98.42 Y108.827 E.01111
G1 X98.672 Y108.605 E.01054
G1 X98.808 Y108.321 E.00986
G1 X99.764 Y108.201 E.03019
G1 X100.386 Y108.147 E.01959
G1 X101.348 Y108.099 E.03019
G1 X101.459 Y108.285 E.00679
G1 X101.749 Y108.5 E.01133
G1 X102.095 Y108.584 E.01117
G1 X102.445 Y108.529 E.01111
G1 X102.732 Y108.355 E.01054
G1 X102.916 Y108.097 E.00994
G1 X104.5 Y108.201 E.04977
G1 X105.454 Y108.321 E.03013
G1 X105.531 Y108.524 E.0068
G1 X105.78 Y108.788 E.0114
G1 X106.106 Y108.93 E.01112
G1 X106.46 Y108.936 E.01112
G1 X106.759 Y108.82 E.01005
G1 X106.999 Y108.593 E.01035
G1 X107.937 Y108.807 E.03016
G1 X108.54 Y108.969 E.01958
G1 X109.459 Y109.253 E.03017
G1 X109.5 Y109.465 E.00677
G1 X109.7 Y109.768 E.01138
G1 X109.995 Y109.964 E.0111
G1 X110.342 Y110.032 E.0111
G1 X110.671 Y109.966 E.01051
G1 X110.931 Y109.788 E.00987
