; generated by PrusaSlicer 2.5.0+linux-x64-GTK3 on 2022-12-27 at 15:58:32 UTC


;
;
; 

; external perimeters extrusion width = 0.45mm
; perimeters extrusion width = 0.45mm
; infill extrusion width = 0.45mm
; solid infill extrusion width = 0.45mm
; top infill extrusion width = 0.40mm
; first layer extrusion width = 0.42mm

; external perimeters extrusion width = 0.45mm
; perimeters extrusion width = 0.45mm
; infill extrusion width = 0.45mm
; solid infill extrusion width = 0.45mm
; top infill extrusion width = 0.40mm
; first layer extrusion width = 0.42mm

; external perimeters extrusion width = 0.45mm
; perimeters extrusion width = 0.45mm
; infill extrusion width = 0.45mm
; solid infill extrusion width = 0.45mm
; top infill extrusion width = 0.40mm
; first layer extrusion width = 0.42mm

; external perimeters extrusion width = 0.45mm
; perimeters extrusion width = 0.45mm
; infill extrusion width = 0.45mm
; solid infill extrusion width = 0.45mm
; top infill extrusion width = 0.40mm
; first layer extrusion width = 0.42mm

M73 P0 R40
M73 Q0 S41
M201 X1000 Y1000 Z200 E5000 ; sets maximum accelerations, mm/sec^2
M203 X200 Y200 Z12 E120 ; sets maximum feedrates, mm / sec
M204 P1250 R1250 T1250 ; sets acceleration (P, T) and retract acceleration (R), mm/sec^2
M205 X8.00 Y8.00 Z0.40 E4.50 ; sets the jerk limits, mm/sec
M205 S0 T0 ; sets the minimum extruding and travel feed rate, mm/sec
M107
;TYPE:Custom
M862.3 P "MK3S" ; printer model check
M862.1 P0.4 ; nozzle diameter check
M115 U3.11.0 ; tell printer latest fw version
G90 ; use absolute coordinates
M83 ; extruder relative mode
M104 S215 ; set extruder temp
M140 S60 ; set bed temp
M190 S60 ; wait for bed temp
M109 S215 ; wait for extruder temp
G28 W ; home all without mesh bed level
G80 ; mesh bed leveling

G1 Z0.2 F720
G1 Y-3 F1000 ; go outside print area
G92 E0
G1 X60 E9 F1000 ; intro line
G1 X100 E12.5 F1000 ; intro line

G92 E0
M221 S95

; Don't change E values below. Excessive value can damage the printer.
M907 E430 ; set extruder motor current
G21 ; set units to millimeters
G90 ; use absolute coordinates
M83 ; use relative distances for extrusion
M900 K0.05 ; Filament gcode LA 1.5
M900 K30 ; Filament gcode LA 1.0
M107
;LAYER_CHANGE
;Z:0.2
;HEIGHT:0.2
;BEFORE_LAYER_CHANGE
G92 E0.0
;0.2


G1 E-.8 F2100
G1 Z.4 F720
;AFTER_LAYER_CHANGE
;0.2
G1 X72.581 Y35.889 F10800
G1 Z.2 F720
G1 E.8 F2100
M204 S800
;TYPE:Skirt/Brim
;WIDTH:0.42
G1 F1200
G1 X73.339 Y34.707 E.04405
G1 X74.327 Y33.875 E.04049
G1 X75.122 Y33.432 E.02853
G1 X93.656 Y27.435 E.61078
G1 X96.546 Y26.849 E.09247
G1 X98.796 Y26.614 E.07092
G1 X100.302 Y26.566 E.04725
G1 X102.892 Y26.683 E.08131
G1 X105.479 Y27.055 E.08195
G1 X108.06 Y27.694 E.08337
G1 X110.47 Y28.548 E.08016
G1 X124.913 Y35.421 E.50151
G1 X126.093 Y36.682 E.05414
G1 X149.589 Y95.439 E1.98414
G1 X150.182 Y97.133 E.05626
G1 X150.874 Y99.848 E.08785
G1 X151.246 Y102.319 E.07837
G1 X151.377 Y104.5 E.06849
G1 X151.252 Y107.617 E.09781
G1 X150.889 Y110.074 E.07787
G1 X150.381 Y112.197 E.06845
G1 X149.587 Y114.566 E.07834
G1 X148.433 Y117.121 E.08792
G1 X147.18 Y119.285 E.07839
G1 X145.527 Y121.572 E.08846
G1 X143.879 Y123.428 E.07784
G1 X141.572 Y125.527 E.0978
G1 X139.818 Y126.828 E.06847
G1 X137.684 Y128.133 E.07841
G1 X135.217 Y129.323 E.0859
G1 X132.867 Y130.182 E.07843
G1 X130.776 Y130.742 E.06788
G1 X128.314 Y131.173 E.07836
G1 X125.581 Y131.376 E.08594
G1 X123.082 Y131.312 E.0784
G1 X75.172 Y126.522 E1.50967
G1 X73.907 Y126.331 E.0401
G1 X71.76 Y125.841 E.06904
G1 X69.448 Y125.065 E.07647
G1 X68.38 Y124.611 E.03639
G1 X66.42 Y123.607 E.06904
G1 X64.372 Y122.283 E.07647
G1 X63.448 Y121.58 E.03639
G1 X61.797 Y120.123 E.06905
G1 X60.139 Y118.335 E.07647
G1 X59.417 Y117.426 E.03639
G1 X58.177 Y115.607 E.06904
G1 X57.01 Y113.465 E.07647
G1 X56.383 Y112.018 E.04945
G1 X55.783 Y110.336 E.05598
G1 X55.108 Y107.563 E.08951
G1 X54.853 Y105.796 E.05598
G1 X54.757 Y104.52 E.0401
G1 X54.752 Y102.526 E.06251
G1 X54.841 Y101.16 E.04292
G1 X55.204 Y98.749 E.07647
G1 X72.565 Y35.947 E2.04295
M204 S1000
; printing object case-Body.stl id:3 copy 0
;WIPE_START
G1 F8640
G1 X73.339 Y34.707 E-.33764
G1 X74.327 Y33.875 E-.29821
G1 X74.797 Y33.613 E-.12415
;WIPE_END
G1 E-.04 F2100
G1 Z.6 F720
G1 X76.556 Y40.59 F10800
G1 Z.2 F720
G1 E.8 F2100
M204 S800
;TYPE:Perimeter
;WIDTH:0.419999
G1 F1200
G1 X76.478 Y40.468 E.00454
G1 X76.181 Y40.347 E.01004
G1 X76.179 Y36.49 E.12092
G1 X76.206 Y36.444 E.00168
G1 X84.952 Y35.416 E.27611
G1 X85.24 Y35.296 E.00978
G1 X86.211 Y34.518 E.03902
G1 X87.152 Y33.837 E.03641
G1 X88.126 Y33.204 E.03641
G1 X89.13 Y32.62 E.03642
G1 X90.161 Y32.086 E.03641
M73 P1 R40
G1 X91.218 Y31.604 E.03642
G1 X92.297 Y31.176 E.03641
G1 X93.396 Y30.801 E.03641
G1 X94.513 Y30.481 E.03642
G1 X95.642 Y30.218 E.03635
M73 Q1 S41
G1 X96.782 Y30.01 E.03633
G1 X97.931 Y29.86 E.03633
G1 X99.086 Y29.766 E.03633
G1 X100.243 Y29.73 E.03632
G1 X101.441 Y29.753 E.03756
G1 X102.597 Y29.833 E.03632
G1 X103.747 Y29.97 E.03633
G1 X104.851 Y30.157 E.03509
G1 X106.015 Y30.413 E.03737
G1 X107.134 Y30.719 E.03638
G1 X108.238 Y31.081 E.03641
G1 X109.322 Y31.497 E.0364
G1 X110.384 Y31.966 E.03641
G1 X111.422 Y32.487 E.0364
G1 X112.432 Y33.059 E.0364
G1 X113.413 Y33.68 E.03642
G1 X114.362 Y34.349 E.0364
G1 X115.277 Y35.065 E.0364
G1 X116.205 Y35.868 E.03848
G1 X116.409 Y35.981 E.00734
G1 X122.581 Y37.867 E.20233
G1 X122.578 Y40.358 E.07809
G1 X122.214 Y40.548 E.01288
G1 X122.162 Y40.642 E.00337
G1 X122.113 Y40.871 E.00733
G1 X122.113 Y48.87 E.2508
;WIDTH:0.463206
G1 X122.092 Y49.127 E.00904
;WIDTH:0.506413
G1 X122.07 Y49.385 E.00997
;WIDTH:0.54962
G1 X122.048 Y49.643 E.01089
;WIDTH:0.592826
G1 X122.029 Y49.946 E.01392
;WIDTH:0.589368
G1 X122.045 Y50.462 E.02343
;WIDTH:0.557202
G1 X122.061 Y50.977 E.02205
;WIDTH:0.525036
G1 X122.062 Y51.02 E.00172
;WIDTH:0.5229
G1 X122.081 Y52.051 E.04114
;WIDTH:0.484335
G1 X122.082 Y52.091 E.0015
;WIDTH:0.483318
G1 X122.088 Y53.122 E.03774
;WIDTH:0.470467
G1 X122.088 Y53.162 E.00143
;WIDTH:0.483318
G1 X122.082 Y54.193 E.03774
;WIDTH:0.484335
G1 X122.081 Y54.234 E.0015
;WIDTH:0.5229
G1 X122.062 Y55.264 E.04114
;WIDTH:0.525036
G1 X122.061 Y55.307 E.00172
;WIDTH:0.557202
G1 X122.045 Y55.823 E.02205
;WIDTH:0.589368
G1 X122.029 Y56.338 E.02343
;WIDTH:0.5924
G1 X122.049 Y56.642 E.01391
;WIDTH:0.5493
G1 X122.07 Y56.899 E.01089
;WIDTH:0.5062
G1 X122.092 Y57.157 E.00996
;WIDTH:0.4631
G1 X122.113 Y57.415 E.00903
;WIDTH:0.419999
G1 X122.113 Y65.165 E.24299
G1 X122.144 Y65.599 E.01365
G1 X122.214 Y65.736 E.00482
G1 X122.578 Y65.926 E.01288
G1 X122.581 Y68.417 E.07809
G1 X116.432 Y70.296 E.20159
G1 X116.207 Y70.415 E.00798
G1 X115.262 Y71.232 E.03916
G1 X114.349 Y71.945 E.03632
G1 X113.4 Y72.613 E.03639
G1 X112.419 Y73.233 E.03638
G1 X111.409 Y73.804 E.03638
G1 X110.372 Y74.324 E.03638
G1 X109.31 Y74.793 E.03639
G1 X108.264 Y75.193 E.0351
G1 X107.129 Y75.566 E.03746
G1 X106.01 Y75.872 E.0364
G1 X104.877 Y76.122 E.03637
G1 X103.692 Y76.321 E.03767
G1 X102.581 Y76.453 E.03508
G1 X101.423 Y76.532 E.03639
G1 X100.263 Y76.554 E.03638
G1 X99.103 Y76.519 E.03638
G1 X97.946 Y76.426 E.03638
G1 X96.797 Y76.276 E.03635
G1 X95.647 Y76.068 E.03663
G1 X94.518 Y75.804 E.03637
G1 X93.402 Y75.485 E.03639
G1 X92.276 Y75.1 E.03732
G1 X91.2 Y74.672 E.0363
G1 X90.144 Y74.19 E.03639
G1 X89.114 Y73.656 E.03639
G1 X88.147 Y73.093 E.03508
G1 X87.139 Y72.438 E.03769
G1 X86.232 Y71.782 E.03507
G1 X85.241 Y70.988 E.03983
G1 X84.953 Y70.868 E.00978
G1 X76.222 Y69.842 E.27565
G1 X76.179 Y69.816 E.00157
G1 X76.181 Y65.938 E.12159
G1 X76.478 Y65.816 E.01004
G1 X76.572 Y65.693 E.00486
G1 X76.646 Y65.414 E.00906
G1 X76.646 Y40.871 E.76952
G1 X76.611 Y40.675 E.00622
M73 Q1 S40
G1 X76.589 Y40.64 E.0013
M204 S1000
G1 X76.244 Y40.777 F10800
M204 S800
;TYPE:External perimeter
G1 F1200
G1 X76.08 Y40.682 E.00595
G1 X75.805 Y40.682 E.00865
G1 X75.802 Y36.303 E.13731
G1 X76.042 Y36.083 E.01018
G1 X84.908 Y35.042 E.27992
G1 X85.004 Y35.002 E.00326
G1 X85.982 Y34.218 E.03931
G1 X86.939 Y33.526 E.037
G1 X87.928 Y32.883 E.037
G1 X88.948 Y32.289 E.037
G1 X89.996 Y31.747 E.03699
G1 X91.07 Y31.258 E.037
G1 X92.166 Y30.822 E.037
G1 X93.283 Y30.441 E.037
G1 X94.418 Y30.116 E.03701
G1 X95.565 Y29.848 E.03694
G1 X96.724 Y29.638 E.03691
G1 X97.891 Y29.485 E.03691
G1 X99.064 Y29.39 E.03691
G1 X100.241 Y29.353 E.03691
G1 X101.458 Y29.376 E.03816
G1 X102.632 Y29.458 E.03691
G1 X103.801 Y29.597 E.03691
G1 X104.923 Y29.787 E.03567
G1 X106.105 Y30.047 E.03796
G1 X107.243 Y30.358 E.03698
G1 X108.364 Y30.725 E.03699
G1 X109.466 Y31.148 E.03699
G1 X110.545 Y31.625 E.03699
G1 X111.599 Y32.154 E.03699
G1 X112.626 Y32.735 E.03699
G1 X113.623 Y33.367 E.03701
G1 X114.587 Y34.047 E.03699
G1 X115.516 Y34.773 E.03699
G1 X116.52 Y35.621 E.04117
G1 X122.744 Y37.523 E.20406
G1 X122.958 Y37.613 E.00729
G1 X122.955 Y40.682 E.09624
G1 X122.679 Y40.682 E.00865
G1 X122.524 Y40.763 E.00548
G1 X122.49 Y40.871 E.00353
G1 X122.49 Y65.165 E.76172
G1 X122.501 Y65.475 E.00974
G1 X122.679 Y65.602 E.00686
G1 X122.955 Y65.602 E.00865
G1 X122.958 Y68.671 E.09624
G1 X122.759 Y68.757 E.00677
G1 X116.542 Y70.657 E.20384
G1 X116.453 Y70.701 E.0031
G1 X115.501 Y71.523 E.03945
G1 X114.573 Y72.248 E.03691
G1 X113.609 Y72.927 E.03697
G1 X112.613 Y73.557 E.03697
G1 X111.586 Y74.137 E.03697
G1 X110.532 Y74.666 E.03697
G1 X109.453 Y75.141 E.03697
G1 X108.391 Y75.549 E.03568
G1 X107.238 Y75.928 E.03805
G1 X106.1 Y76.239 E.03699
G1 X104.949 Y76.493 E.03696
G1 X103.746 Y76.694 E.03825
G1 X102.616 Y76.828 E.03566
G1 X101.44 Y76.909 E.03697
G1 X100.261 Y76.932 E.03697
G1 X99.082 Y76.896 E.03697
G1 X97.907 Y76.801 E.03697
G1 X96.739 Y76.649 E.03694
G1 X95.571 Y76.437 E.03722
G1 X94.423 Y76.169 E.03696
G1 X93.289 Y75.845 E.03698
G1 X92.145 Y75.454 E.03792
G1 X91.052 Y75.019 E.03689
G1 X89.979 Y74.529 E.03697
G1 X88.932 Y73.986 E.03697
G1 X87.949 Y73.414 E.03566
G1 X86.925 Y72.749 E.03828
G1 X86.004 Y72.083 E.03566
G1 X85.005 Y71.283 E.04012
G1 X84.909 Y71.242 E.00326
G1 X76.042 Y70.201 E.27995
G1 X75.802 Y69.981 E.01018
G1 X75.805 Y65.602 E.13731
G1 X76.08 Y65.602 E.00865
G1 X76.213 Y65.548 E.00449
G1 X76.269 Y65.414 E.00456
G1 X76.269 Y41.604 E.74652
G1 X76.246 Y40.837 E.02405
M204 S1000
G1 X76.309 Y40.599 F10800
;WIPE_START
G1 F8640
G1 X76.08 Y40.682 E-.05245
G1 X75.805 Y40.682 E-.06368
G1 X75.803 Y37.894 E-.64388
;WIPE_END
G1 E-.04 F2100
G1 Z.6 F720
G1 X94.04 Y73.398 F10800
G1 Z.2 F720
G1 E.8 F2100
M204 S800
;TYPE:Perimeter
G1 F1200
G1 X93.027 Y73.052 E.03357
G1 X92.052 Y72.664 E.03289
G1 X91.095 Y72.226 E.03299
G1 X90.161 Y71.742 E.033
G1 X89.287 Y71.233 E.0317
G1 X88.37 Y70.637 E.03429
G1 X87.146 Y69.737 E.04764
G1 X86.357 Y69.075 E.03232
G1 X85.58 Y68.355 E.0332
G1 X84.84 Y67.597 E.0332
G1 X84.139 Y66.804 E.0332
G1 X83.461 Y65.954 E.03409
G1 X82.859 Y65.117 E.03232
G1 X82.284 Y64.228 E.0332
G1 X81.741 Y63.286 E.03408
G1 X81.271 Y62.369 E.03232
G1 X80.834 Y61.404 E.0332
G1 X80.437 Y60.392 E.03409
G1 X80.109 Y59.415 E.03232
G1 X79.822 Y58.396 E.0332
G1 X79.585 Y57.364 E.0332
G1 X79.401 Y56.321 E.03322
G1 X79.266 Y55.243 E.03407
G1 X79.187 Y54.187 E.0332
G1 X79.161 Y53.156 E.03232
G1 X79.187 Y52.098 E.0332
G1 X79.266 Y51.042 E.0332
G1 X79.401 Y49.963 E.03409
G1 X79.585 Y48.92 E.0332
G1 X79.822 Y47.888 E.0332
G1 X80.109 Y46.869 E.0332
G1 X80.447 Y45.865 E.0332
G1 X80.824 Y44.906 E.03232
G1 X81.258 Y43.94 E.0332
G1 X81.741 Y42.998 E.0332
G1 X82.121 Y42.338 E.02389
G1 X82.859 Y41.167 E.04339
G1 X83.461 Y40.33 E.03232
G1 X84.121 Y39.502 E.0332
G1 X84.821 Y38.708 E.0332
G1 X85.56 Y37.949 E.0332
G1 X85.953 Y37.584 E.01683
G1 X86.336 Y37.228 E.01638
G1 X87.146 Y36.547 E.0332
G1 X87.99 Y35.907 E.0332
G1 X88.864 Y35.31 E.0332
G1 X89.768 Y34.757 E.0332
G1 X90.697 Y34.25 E.0332
G1 X91.651 Y33.79 E.0332
G1 X92.626 Y33.378 E.0332
G1 X93.621 Y33.016 E.0332
G1 X94.633 Y32.703 E.0332
G1 X95.659 Y32.441 E.0332
G1 X96.697 Y32.23 E.0332
G1 X97.744 Y32.072 E.0332
G1 X98.797 Y31.966 E.0332
G1 X99.855 Y31.912 E.0332
G1 X100.914 Y31.911 E.0332
G1 X101.971 Y31.963 E.0332
G1 X103.025 Y32.068 E.0332
G1 X104.072 Y32.225 E.0332
G1 X105.11 Y32.434 E.0332
G1 X106.137 Y32.695 E.0332
G1 X107.149 Y33.007 E.0332
G1 X108.144 Y33.368 E.0332
G1 X109.12 Y33.779 E.0332
G1 X110.074 Y34.238 E.0332
G1 X111.005 Y34.743 E.0332
G1 X111.909 Y35.295 E.0332
G1 X112.784 Y35.891 E.0332
G1 X113.628 Y36.53 E.0332
G1 X114.44 Y37.21 E.0332
G1 X115.237 Y37.949 E.03409
G1 X115.976 Y38.708 E.0332
G1 X116.658 Y39.48 E.03232
G1 X117.319 Y40.308 E.0332
G1 X117.88 Y41.087 E.0301
G1 X118.527 Y42.08 E.03718
G1 X119.056 Y42.998 E.0332
G1 X119.526 Y43.915 E.03232
G1 X119.962 Y44.88 E.0332
G1 X120.35 Y45.865 E.0332
G1 X120.688 Y46.869 E.0332
G1 X120.975 Y47.888 E.0332
G1 X121.217 Y48.948 E.03408
;WIDTH:0.463206
G1 X121.283 Y49.198 E.00904
;WIDTH:0.506413
G1 X121.349 Y49.448 E.00997
;WIDTH:0.54962
G1 X121.415 Y49.698 E.01089
;WIDTH:0.592826
G1 X121.484 Y49.98 E.01329
;WIDTH:0.589368
G1 X121.532 Y50.494 E.02343
;WIDTH:0.557202
G1 X121.581 Y51.007 E.02205
;WIDTH:0.525036
G1 X121.583 Y51.038 E.00124
;WIDTH:0.5229
G1 X121.64 Y52.067 E.04114
;WIDTH:0.484335
G1 X121.641 Y52.097 E.00109
;WIDTH:0.483318
G1 X121.661 Y53.127 E.03774
;WIDTH:0.470467
G1 X121.661 Y53.157 E.00105
;WIDTH:0.483318
G1 X121.641 Y54.187 E.03774
;WIDTH:0.484335
G1 X121.64 Y54.217 E.00109
;WIDTH:0.5229
G1 X121.583 Y55.246 E.04114
;WIDTH:0.525036
G1 X121.581 Y55.277 E.00124
;WIDTH:0.557202
G1 X121.532 Y55.791 E.02205
;WIDTH:0.589368
G1 X121.484 Y56.304 E.02343
;WIDTH:0.5924
G1 X121.415 Y56.586 E.01328
;WIDTH:0.5493
G1 X121.349 Y56.836 E.01089
;WIDTH:0.5062
G1 X121.283 Y57.086 E.00996
;WIDTH:0.4631
G1 X121.217 Y57.336 E.00903
;WIDTH:0.419999
G1 X120.982 Y58.369 E.0332
G1 X120.696 Y59.388 E.0332
G1 X120.359 Y60.392 E.0332
G1 X119.973 Y61.378 E.0332
G1 X119.538 Y62.344 E.0332
G1 X119.056 Y63.286 E.0332
G1 X118.527 Y64.204 E.0332
G1 X117.953 Y65.094 E.0332
G1 X117.336 Y65.954 E.0332
G1 X116.676 Y66.782 E.0332
G1 X115.976 Y67.577 E.0332
G1 X115.237 Y68.335 E.0332
G1 X114.75 Y68.788 E.02084
G1 X113.869 Y69.554 E.03662
G1 X113.041 Y70.2 E.03293
G1 X112.18 Y70.805 E.03299
G1 X111.291 Y71.367 E.03299
G1 X110.375 Y71.884 E.03298
G1 X109.434 Y72.355 E.03298
G1 X108.471 Y72.779 E.033
G1 X107.526 Y73.141 E.03172
G1 X106.494 Y73.48 E.03406
G1 X105.479 Y73.757 E.03298
G1 X104.453 Y73.983 E.03294
G1 X103.375 Y74.164 E.03427
G1 X102.371 Y74.282 E.03171
G1 X101.321 Y74.353 E.03299
G1 X100.269 Y74.373 E.03298
G1 X99.218 Y74.34 E.03298
G1 X98.169 Y74.256 E.03298
G1 X97.127 Y74.12 E.03295
G1 X96.085 Y73.93 E.03322
G1 X95.061 Y73.691 E.03296
G1 X94.098 Y73.415 E.03142
M204 S1000
G1 X94.573 Y73.159 F10800
M204 S800
;TYPE:External perimeter
G1 F1200
G1 X94.161 Y73.041 E.01344
G1 X93.156 Y72.698 E.03331
G1 X92.199 Y72.316 E.0323
G1 X91.259 Y71.887 E.0324
G1 X90.341 Y71.411 E.03241
G1 X89.484 Y70.912 E.03111
G1 X88.583 Y70.326 E.0337
G1 X87.779 Y69.744 E.03108
G1 X86.868 Y69.011 E.03669
G1 X85.836 Y68.078 E.04359
G1 X85.11 Y67.334 E.03261
G1 X84.422 Y66.554 E.03261
G1 X83.773 Y65.741 E.03261
G1 X83.166 Y64.897 E.03261
G1 X82.601 Y64.023 E.03261
G1 X82.076 Y63.114 E.03291
G1 X81.602 Y62.189 E.03261
G1 X81.175 Y61.241 E.03261
G1 X80.798 Y60.281 E.03232
G1 X80.466 Y59.295 E.03261
G1 X80.185 Y58.294 E.03261
G1 X79.953 Y57.28 E.03261
G1 X79.772 Y56.256 E.03262
G1 X79.642 Y55.224 E.03261
G1 X79.565 Y54.187 E.03261
M73 P2 R40
G1 X79.538 Y53.147 E.03261
G1 X79.564 Y52.107 E.03261
G1 X79.642 Y51.07 E.03261
G1 X79.771 Y50.038 E.03261
G1 X79.951 Y49.013 E.03261
G1 X80.182 Y47.999 E.03261
G1 X80.464 Y46.998 E.03261
G1 X80.795 Y46.012 E.03261
G1 X81.175 Y45.044 E.03261
G1 X81.602 Y44.096 E.03261
G1 X82.076 Y43.17 E.03261
G1 X82.448 Y42.526 E.0233
M73 Q2 S40
G1 X83.166 Y41.387 E.04221
G1 X83.767 Y40.551 E.03232
G1 X84.416 Y39.737 E.03261
G1 X85.104 Y38.957 E.03261
G1 X85.83 Y38.212 E.03261
G1 X86.592 Y37.505 E.03261
G1 X87.389 Y36.836 E.03261
G1 X88.218 Y36.208 E.03261
G1 X89.077 Y35.622 E.03261
G1 X89.964 Y35.079 E.03261
G1 X90.878 Y34.582 E.03261
G1 X91.815 Y34.13 E.03261
G1 X92.773 Y33.726 E.03261
G1 X93.75 Y33.37 E.03261
G1 X94.744 Y33.063 E.03261
G1 X95.752 Y32.806 E.03261
