; generated by PrusaSlicer 2.5.0+linux-x64-GTK3 on 2022-12-16 at 19:47:54 UTC


;
;
; 

; external perimeters extrusion width = 0.45mm
; perimeters extrusion width = 0.45mm
; infill extrusion width = 0.45mm
; solid infill extrusion width = 0.45mm
; top infill extrusion width = 0.40mm
; first layer extrusion width = 0.42mm

; external perimeters extrusion width = 0.45mm
; perimeters extrusion width = 0.45mm
; infill extrusion width = 0.45mm
; solid infill extrusion width = 0.45mm
; top infill extrusion width = 0.40mm
; first layer extrusion width = 0.42mm

; external perimeters extrusion width = 0.45mm
; perimeters extrusion width = 0.45mm
; infill extrusion width = 0.45mm
; solid infill extrusion width = 0.45mm
; top infill extrusion width = 0.40mm
; first layer extrusion width = 0.42mm

; external perimeters extrusion width = 0.45mm
; perimeters extrusion width = 0.45mm
; infill extrusion width = 0.45mm
; solid infill extrusion width = 0.45mm
; top infill extrusion width = 0.40mm
; first layer extrusion width = 0.42mm

; external perimeters extrusion width = 0.45mm
; perimeters extrusion width = 0.45mm
; infill extrusion width = 0.45mm
; solid infill extrusion width = 0.45mm
; top infill extrusion width = 0.40mm
; first layer extrusion width = 0.42mm

M73 P0 R55
M73 Q0 S56
M201 X1000 Y1000 Z200 E5000 ; sets maximum accelerations, mm/sec^2
M203 X200 Y200 Z12 E120 ; sets maximum feedrates, mm / sec
M204 P1250 R1250 T1250 ; sets acceleration (P, T) and retract acceleration (R), mm/sec^2
M205 X8.00 Y8.00 Z0.40 E4.50 ; sets the jerk limits, mm/sec
M205 S0 T0 ; sets the minimum extruding and travel feed rate, mm/sec
M107
;TYPE:Custom
M862.3 P "MK3S" ; printer model check
M862.1 P0.4 ; nozzle diameter check
M115 U3.11.0 ; tell printer latest fw version
G90 ; use absolute coordinates
M83 ; extruder relative mode
M104 S215 ; set extruder temp
M140 S60 ; set bed temp
M190 S60 ; wait for bed temp
M109 S215 ; wait for extruder temp
G28 W ; home all without mesh bed level
G80 ; mesh bed leveling

G1 Z0.2 F720
G1 Y-3 F1000 ; go outside print area
G92 E0
G1 X60 E9 F1000 ; intro line
G1 X100 E12.5 F1000 ; intro line

G92 E0
M221 S95

; Don't change E values below. Excessive value can damage the printer.
M907 E430 ; set extruder motor current
G21 ; set units to millimeters
G90 ; use absolute coordinates
M83 ; use relative distances for extrusion
M900 K0.05 ; Filament gcode LA 1.5
M900 K30 ; Filament gcode LA 1.0
M107
;LAYER_CHANGE
;Z:0.2
;HEIGHT:0.2
;BEFORE_LAYER_CHANGE
G92 E0.0
;0.2


G1 E-.8 F2100
G1 Z.4 F720
;AFTER_LAYER_CHANGE
;0.2
G1 X49.698 Y49.045 F10800
G1 Z.2 F720
G1 E.8 F2100
M204 S800
;TYPE:Skirt/Brim
;WIDTH:0.42
G1 F1200
G1 X50.678 Y48.198 E.0406
G1 X66.699 Y40.742 E.55406
G1 X69.142 Y39.845 E.08159
G1 X71.713 Y39.182 E.08326
G1 X74.31 Y38.781 E.08239
G1 X77.004 Y38.639 E.08458
G1 X78.3 Y38.668 E.04063
G1 X133.173 Y42.14 E1.72396
G1 X136.402 Y42.578 E.10217
M73 Q0 S55
G1 X139.057 Y43.252 E.08588
G1 X141.465 Y44.129 E.08034
G1 X143.933 Y45.32 E.08594
G1 X146.118 Y46.66 E.08037
G1 X147.82 Y47.925 E.0665
G1 X150.128 Y50.024 E.09781
G1 X151.827 Y51.943 E.08036
G1 X153.428 Y54.167 E.08592
G1 X154.381 Y55.768 E.05843
G1 X155.292 Y57.593 E.06394
G1 X155.864 Y58.961 E.0465
G1 X156.63 Y61.257 E.07588
G1 X157.123 Y63.3 E.06591
G1 X157.414 Y65.075 E.05641
G1 X157.6 Y67.17 E.06595
G1 X157.626 Y68.952 E.05588
G1 X157.557 Y70.422 E.04614
G1 X153.326 Y121.65 E1.61168
G1 X152.975 Y123.944 E.07276
G1 X152.396 Y126.191 E.07276
G1 X151.719 Y128.066 E.06251
G1 X151.169 Y129.319 E.04292
G1 X150.064 Y131.36 E.07276
G1 X148.762 Y133.281 E.07276
G1 X147.194 Y135.149 E.07647
G1 X145.618 Y136.686 E.06904
G1 X144.73 Y137.435 E.03639
G1 X142.85 Y138.794 E.07276
G1 X140.843 Y139.959 E.07276
G1 X138.62 Y140.962 E.07647
G1 X137.529 Y141.357 E.03639
G1 X135.409 Y141.953 E.06904
G1 X133.125 Y142.362 E.07276
G1 X81.678 Y147.674 E1.62166
G1 X78.642 Y147.792 E.09524
G1 X76.287 Y147.645 E.07398
G1 X73.979 Y147.293 E.0732
G1 X71.128 Y146.565 E.09227
G1 X68.911 Y145.756 E.07398
G1 X66.836 Y144.785 E.07185
G1 X55.896 Y138.812 E.39083
G1 X54.936 Y137.841 E.04278
G1 X54.669 Y136.949 E.0292
G1 X49.317 Y80.302 E1.78403
G1 X49.306 Y50.351 E.93909
G1 X49.681 Y49.102 E.0409
M204 S1000
; printing object case-Body.stl id:0 copy 0
;WIPE_START
G1 F8640
G1 X50.678 Y48.198 E-.31074
G1 X52.442 Y47.377 E-.44926
;WIPE_END
G1 E-.04 F2100
G1 Z.6 F720
G1 X81.789 Y44.512 F10800
G1 Z.2 F720
G1 E.8 F2100
M204 S800
;TYPE:Perimeter
;WIDTH:0.419999
G1 F1200
G1 X82.798 Y44.769 E.03264
G1 X83.81 Y45.08 E.0332
G1 X84.805 Y45.442 E.0332
G1 X85.781 Y45.852 E.0332
G1 X86.735 Y46.311 E.0332
G1 X87.666 Y46.817 E.0332
G1 X88.57 Y47.368 E.0332
G1 X89.445 Y47.964 E.0332
G1 X90.29 Y48.603 E.0332
G1 X91.175 Y49.351 E.03634
G1 X91.878 Y50.003 E.03006
G1 X92.537 Y50.678 E.02957
G1 X93.319 Y51.554 E.03683
G1 X93.997 Y52.404 E.03409
G1 X94.598 Y53.241 E.03232
G1 X94.962 Y53.802 E.02096
G1 X95.704 Y55.047 E.04543
G1 X96.199 Y56.014 E.03409
G1 X96.623 Y56.953 E.03232
G1 X97.011 Y57.939 E.0332
G1 X97.357 Y58.969 E.03408
G1 X97.643 Y59.989 E.0332
G1 X97.873 Y60.994 E.03232
G1 X98.057 Y62.037 E.0332
G1 X98.19 Y63.087 E.0332
G1 X98.271 Y64.171 E.03408
G1 X98.296 Y65.202 E.03232
G1 X98.271 Y66.26 E.0332
G1 X98.19 Y67.344 E.03408
G1 X98.057 Y68.395 E.0332
G1 X97.878 Y69.41 E.03232
G1 X97.643 Y70.442 E.0332
G1 X97.357 Y71.462 E.0332
G1 X97.011 Y72.492 E.03408
G1 X96.634 Y73.452 E.03232
G1 X96.199 Y74.417 E.0332
G1 X95.717 Y75.36 E.0332
G1 X94.962 Y76.629 E.04632
G1 X94.598 Y77.191 E.02096
G1 X93.997 Y78.027 E.03232
G1 X93.171 Y79.045 E.04109
G1 X92.637 Y79.65 E.02531
G1 X92.014 Y80.289 E.02798
G1 X91.324 Y80.942 E.02977
G1 X90.838 Y81.369 E.02028
G1 X90.312 Y81.811 E.02156
G1 X89.697 Y82.277 E.02418
G1 X88.839 Y82.88 E.03291
G1 X87.951 Y83.441 E.03291
G1 X87.037 Y83.957 E.03292
G1 X86.087 Y84.433 E.03332
G1 X85.138 Y84.85 E.03252
G1 X84.157 Y85.226 E.03292
G1 X83.159 Y85.552 E.03291
G1 X82.147 Y85.828 E.03291
G1 X81.13 Y86.053 E.03265
G1 X80.097 Y86.228 E.03285
G1 X79.058 Y86.352 E.03282
G1 X77.974 Y86.427 E.03405
G1 X76.927 Y86.446 E.03284
G1 X75.919 Y86.416 E.03162
G1 X74.836 Y86.33 E.03408
G1 X73.798 Y86.195 E.03282
G1 X72.767 Y86.008 E.03284
G1 X71.747 Y85.771 E.03284
G1 X70.75 Y85.487 E.03251
G1 X69.742 Y85.146 E.03335
G1 X68.766 Y84.76 E.03291
G1 X67.81 Y84.326 E.03292
G1 X67.358 Y84.107 E.01573
G1 X66.453 Y83.614 E.03232
G1 X65.537 Y83.055 E.03366
G1 X64.662 Y82.459 E.03319
G1 X64.231 Y82.132 E.01697
G1 X63.807 Y81.811 E.01667
G1 X63.018 Y81.148 E.03232
G1 X62.241 Y80.428 E.0332
G1 X61.556 Y79.727 E.03075
G1 X60.8 Y78.877 E.03565
G1 X60.139 Y78.05 E.0332
G1 X59.578 Y77.271 E.0301
G1 X59.013 Y76.406 E.03241
G1 X58.416 Y75.385 E.03708
G1 X57.92 Y74.417 E.03409
G1 X57.485 Y73.452 E.0332
G1 X57.108 Y72.492 E.03232
G1 X56.77 Y71.489 E.0332
G1 X56.476 Y70.442 E.03409
G1 X56.246 Y69.438 E.03232
G1 X56.139 Y68.833 E.01925
;WIDTH:0.462342
G1 X56.098 Y68.719 E.00423
;WIDTH:0.504684
G1 X56.056 Y68.605 E.00465
;WIDTH:0.547026
G1 X56.015 Y68.491 E.00508
;WIDTH:0.589368
G1 X55.974 Y68.377 E.00551
G1 X55.926 Y67.864 E.02343
;WIDTH:0.557203
G1 X55.877 Y67.351 E.02205
;WIDTH:0.525037
G1 X55.875 Y67.32 E.00124
;WIDTH:0.5229
G1 X55.818 Y66.291 E.04114
;WIDTH:0.484335
G1 X55.817 Y66.261 E.00109
;WIDTH:0.483318
G1 X55.797 Y65.23 E.03774
;WIDTH:0.470468
G1 X55.797 Y65.201 E.00105
;WIDTH:0.483317
G1 X55.817 Y64.17 E.03774
;WIDTH:0.484335
G1 X55.818 Y64.141 E.00109
;WIDTH:0.5229
G1 X55.875 Y63.111 E.04114
;WIDTH:0.525037
G1 X55.877 Y63.081 E.00124
;WIDTH:0.557203
G1 X55.926 Y62.567 E.02205
;WIDTH:0.589368
G1 X55.974 Y62.054 E.02343
;WIDTH:0.596898
G1 X55.983 Y61.975 E.00364
G1 X56.022 Y61.881 E.0047
;WIDTH:0.552674
G1 X56.061 Y61.787 E.00433
;WIDTH:0.508449
G1 X56.1 Y61.693 E.00395
;WIDTH:0.464224
G1 X56.139 Y61.598 E.00357
;WIDTH:0.419999
G1 X56.246 Y60.994 E.01925
G1 X56.476 Y59.989 E.03232
G1 X56.762 Y58.969 E.0332
G1 X57.098 Y57.965 E.0332
G1 X57.485 Y56.979 E.0332
G1 X57.92 Y56.014 E.0332
G1 X58.402 Y55.071 E.0332
G1 X58.931 Y54.154 E.0332
G1 X59.505 Y53.264 E.0332
G1 X60.122 Y52.404 E.0332
G1 X60.782 Y51.576 E.0332
G1 X61.482 Y50.781 E.0332
G1 X62.041 Y50.207 E.02512
G1 X63.018 Y49.283 E.04217
G1 X63.807 Y48.621 E.03231
G1 X64.651 Y47.981 E.0332
G1 X65.526 Y47.384 E.0332
G1 X66.429 Y46.831 E.0332
G1 X67.358 Y46.324 E.0332
G1 X68.312 Y45.864 E.0332
G1 X69.288 Y45.452 E.0332
G1 X70.282 Y45.089 E.0332
G1 X71.294 Y44.776 E.0332
G1 X72.32 Y44.514 E.0332
G1 X73.358 Y44.304 E.0332
G1 X74.405 Y44.145 E.0332
G1 X75.458 Y44.039 E.0332
G1 X76.516 Y43.986 E.0332
G1 X77.575 Y43.985 E.0332
G1 X78.632 Y44.037 E.0332
G1 X79.686 Y44.142 E.0332
G1 X80.733 Y44.299 E.0332
G1 X81.73 Y44.5 E.03188
M204 S1000
G1 X81.541 Y44.846 F10800
M204 S800
;TYPE:External perimeter
G1 F1200
G1 X82.705 Y45.134 E.03758
G1 X83.699 Y45.44 E.03261
G1 X84.676 Y45.796 E.03261
M73 P1 R55
G1 X85.635 Y46.2 E.03261
G1 X86.572 Y46.651 E.03261
G1 X87.485 Y47.148 E.03261
M73 Q1 S55
G1 X88.373 Y47.69 E.03261
G1 X89.233 Y48.276 E.03261
G1 X90.062 Y48.904 E.03261
G1 X90.919 Y49.627 E.03516
G1 X91.621 Y50.279 E.03006
G1 X92.267 Y50.941 E.02898
G1 X93.036 Y51.804 E.03624
G1 X93.691 Y52.624 E.03291
G1 X94.292 Y53.461 E.03232
G1 X94.645 Y54.007 E.02037
G1 X95.377 Y55.235 E.04484
G1 X95.852 Y56.161 E.03261
G1 X96.28 Y57.109 E.03261
G1 X96.66 Y58.077 E.03261
G1 X96.991 Y59.063 E.03261
G1 X97.273 Y60.064 E.03261
G1 X97.505 Y61.078 E.03261
G1 X97.686 Y62.102 E.03261
G1 X97.815 Y63.134 E.03261
G1 X97.894 Y64.181 E.03291
G1 X97.92 Y65.22 E.03261
G1 X97.893 Y66.26 E.03261
G1 X97.815 Y67.297 E.03261
G1 X97.686 Y68.329 E.03261
G1 X97.505 Y69.354 E.03261
G1 X97.273 Y70.368 E.03261
G1 X96.994 Y71.36 E.03232
G1 X96.663 Y72.346 E.03261
G1 X96.283 Y73.314 E.03261
G1 X95.856 Y74.262 E.03261
G1 X95.381 Y75.188 E.03261
G1 X95.06 Y75.746 E.0202
G1 X94.298 Y76.963 E.04501
G1 X93.691 Y77.807 E.03261
G1 X92.888 Y78.795 E.03991
G1 X92.354 Y79.401 E.02531
G1 X91.744 Y80.026 E.02739
G1 X91.068 Y80.665 E.02918
G1 X90.069 Y81.522 E.04125
G1 X89.47 Y81.976 E.02359
G1 X88.626 Y82.569 E.03232
G1 X87.755 Y83.119 E.03232
G1 X86.857 Y83.626 E.03233
G1 X85.923 Y84.093 E.03273
G1 X84.991 Y84.503 E.03193
G1 X84.028 Y84.871 E.03233
G1 X83.048 Y85.192 E.03232
G1 X82.054 Y85.463 E.03232
G1 X81.055 Y85.683 E.03206
G1 X80.041 Y85.855 E.03226
G1 X79.02 Y85.977 E.03223
G1 X77.956 Y86.051 E.03346
G1 X76.927 Y86.069 E.03225
G1 X75.938 Y86.039 E.03103
G1 X74.873 Y85.955 E.03349
G1 X73.854 Y85.822 E.03223
G1 X72.842 Y85.639 E.03225
G1 X71.84 Y85.406 E.03225
G1 X70.861 Y85.127 E.03192
G1 X69.871 Y84.791 E.03276
G1 X68.913 Y84.412 E.03232
G1 X67.974 Y83.986 E.03233
G1 X67.057 Y83.514 E.03233
G1 X65.738 Y82.736 E.04801
G1 X64.886 Y82.155 E.03232
G1 X64.057 Y81.528 E.03261
G1 X63.26 Y80.859 E.03261
G1 X62.498 Y80.152 E.03261
G1 X61.765 Y79.401 E.03291
G1 X61.083 Y78.628 E.03232
G1 X60.434 Y77.815 E.03261
G1 X59.884 Y77.051 E.02951
G1 X59.257 Y76.089 E.036
G1 X58.742 Y75.196 E.03232
G1 X58.267 Y74.271 E.03261
G1 X57.839 Y73.323 E.03261
G1 X57.459 Y72.355 E.03261
G1 X57.128 Y71.369 E.03261
G1 X56.846 Y70.368 E.03261
G1 X56.614 Y69.354 E.03261
G1 X56.432 Y68.32 E.03291
G1 X56.304 Y67.297 E.03232
G1 X56.226 Y66.26 E.03261
M73 P1 R54
G1 X56.2 Y65.22 E.03261
G1 X56.225 Y64.181 E.03261
G1 X56.303 Y63.143 E.03261
G1 X56.432 Y62.111 E.03261
G1 X56.614 Y61.078 E.03291
G1 X56.843 Y60.073 E.03232
G1 X57.125 Y59.072 E.03261
G1 X57.456 Y58.086 E.03261
G1 X57.836 Y57.117 E.03261
G1 X58.263 Y56.169 E.03261
G1 X58.738 Y55.243 E.03261
G1 X59.257 Y54.343 E.03261
G1 X59.822 Y53.469 E.03261
G1 X60.428 Y52.624 E.03261
G1 X61.077 Y51.811 E.03261
G1 X61.765 Y51.031 E.03261
G1 X62.311 Y50.47 E.02453
G1 X63.261 Y49.572 E.04099
G1 X64.05 Y48.91 E.03231
G1 X64.879 Y48.281 E.03261
G1 X65.738 Y47.695 E.03261
G1 X66.625 Y47.153 E.03261
G1 X67.539 Y46.655 E.03261
G1 X68.476 Y46.204 E.03261
G1 X69.434 Y45.799 E.03261
G1 X70.411 Y45.443 E.03261
G1 X71.405 Y45.137 E.03261
G1 X72.413 Y44.88 E.03261
G1 X73.433 Y44.673 E.03261
G1 X74.461 Y44.518 E.03261
G1 X75.496 Y44.414 E.03261
G1 X76.535 Y44.362 E.03261
G1 X77.575 Y44.362 E.03261
G1 X78.614 Y44.414 E.03261
G1 X79.649 Y44.517 E.03261
G1 X80.677 Y44.672 E.03261
G1 X81.482 Y44.834 E.02575
M204 S1000
G1 X81.812 Y44.552 F10800
;WIPE_START
G1 F8640
G1 X82.705 Y45.134 E-.29062
G1 X83.699 Y45.44 E-.24016
G1 X84.632 Y45.78 E-.22922
;WIPE_END
G1 E-.04 F2100
G1 Z.6 F720
G1 X55.324 Y52.902 F10800
G1 Z.2 F720
G1 E.8 F2100
M204 S800
;TYPE:Perimeter
G1 F1200
G1 X55.313 Y52.759 E.0045
G1 X55.179 Y52.544 E.00794
G1 X54.953 Y52.406 E.0083
G1 X54.779 Y52.379 E.00553
G1 X53.427 Y52.379 E.04239
G1 X53.428 Y50.623 E.05506
G1 X54.182 Y50.298 E.02573
G1 X54.859 Y49.947 E.0239
G1 X59.944 Y48.392 E.16672
G1 X60.806 Y48.051 E.02909
G1 X61.628 Y47.574 E.02979
G1 X62.935 Y46.544 E.05218
G1 X63.842 Y45.891 E.03503
G1 X64.849 Y45.24 E.0376
G1 X65.851 Y44.661 E.03628
G1 X66.881 Y44.132 E.03629
G1 X67.935 Y43.654 E.0363
G1 X68.971 Y43.245 E.03491
G1 X70.096 Y42.862 E.03727
G1 X71.21 Y42.546 E.03629
G1 X72.337 Y42.284 E.03628
G1 X73.483 Y42.078 E.03651
G1 X74.63 Y41.929 E.03627
G1 X75.784 Y41.838 E.03629
G1 X76.941 Y41.803 E.03629
G1 X78.098 Y41.826 E.0363
G1 X79.253 Y41.906 E.03629
G1 X80.402 Y42.043 E.03629
G1 X81.543 Y42.236 E.03627
G1 X82.673 Y42.486 E.03629
G1 X83.79 Y42.791 E.03631
G1 X84.922 Y43.163 E.03737
G1 X85.965 Y43.563 E.03501
G1 X87.024 Y44.029 E.03629
G1 X88.095 Y44.568 E.0376
G1 X89.067 Y45.117 E.03499
G1 X90.046 Y45.735 E.0363
G1 X90.993 Y46.4 E.03629
G1 X92.158 Y47.308 E.04633
G1 X92.631 Y47.621 E.01777
G1 X93.372 Y47.993 E.02599
G1 X94.145 Y48.253 E.02557
G1 X94.923 Y48.387 E.02476
G1 X95.483 Y48.436 E.01762
G1 X101.621 Y48.547 E.19249
G1 X102.051 Y48.991 E.01938
G1 X103.078 Y49.837 E.04172
G1 X103.533 Y50.134 E.01704
G1 X103.533 Y52.379 E.07037
G1 X102.061 Y52.379 E.04614
G1 X101.532 Y52.421 E.01664
G1 X101.401 Y52.497 E.00476
G1 X101.236 Y52.699 E.00818
G1 X101.181 Y52.944 E.00787
G1 X101.188 Y77.575 E.77228
G1 X101.303 Y77.838 E.009
G1 X101.535 Y78.012 E.00909
G1 X101.746 Y78.053 E.00675
G1 X103.533 Y78.053 E.05602
G1 X103.533 Y80.297 E.07037
G1 X102.97 Y80.678 E.02133
G1 X102.34 Y81.177 E.02517
G1 X101.63 Y81.885 E.03144
G1 X95.443 Y81.998 E.19403
G1 X94.634 Y82.075 E.02547
G1 X94.08 Y82.197 E.01778
G1 X93.297 Y82.47 E.02599
G1 X92.573 Y82.845 E.02557
G1 X92.126 Y83.147 E.01691
G1 X91.005 Y84.022 E.04458
G1 X90.058 Y84.688 E.03631
G1 X89.08 Y85.307 E.03631
G1 X88.071 Y85.877 E.03632
G1 X87.024 Y86.402 E.03671
G1 X85.976 Y86.864 E.03591
G1 X84.895 Y87.278 E.03631
G1 X83.795 Y87.639 E.03631
G1 X82.678 Y87.944 E.0363
G1 X81.556 Y88.193 E.03604
G1 X80.416 Y88.386 E.03624
G1 X79.269 Y88.524 E.03623
G1 X78.077 Y88.606 E.03747
G1 X76.921 Y88.628 E.03624
G1 X75.805 Y88.594 E.035
G1 X74.614 Y88.5 E.03748
G1 X73.468 Y88.351 E.03623
G1 X72.331 Y88.146 E.03624
G1 X71.205 Y87.884 E.03624
G1 X70.104 Y87.571 E.0359
G1 X68.993 Y87.195 E.03675
G1 X67.916 Y86.769 E.03631
G1 X66.862 Y86.291 E.03632
G1 X65.832 Y85.76 E.03632
G1 X64.829 Y85.18 E.03632
G1 X63.857 Y84.551 E.03632
G1 X62.915 Y83.873 E.03637
G1 X61.628 Y82.858 E.0514
G1 X60.671 Y82.311 E.03455
G1 X59.986 Y82.052 E.02298
G1 X55.907 Y80.805 E.13375
G1 X54.752 Y80.429 E.03807
G1 X54.056 Y80.076 E.02446
G1 X53.428 Y79.809 E.0214
G1 X53.427 Y78.053 E.05506
G1 X54.485 Y78.053 E.03316
G1 X54.953 Y78.025 E.01471
G1 X55.179 Y77.887 E.0083
G1 X55.296 Y77.716 E.00651
G1 X55.345 Y77.487 E.00733
G1 X55.345 Y68.903 E.26916
;WIDTH:0.462342
G1 X55.366 Y68.78 E.00435
;WIDTH:0.504684
G1 X55.387 Y68.657 E.00478
;WIDTH:0.547026
G1 X55.408 Y68.534 E.00522
;WIDTH:0.589368
G1 X55.429 Y68.411 E.00566
G1 X55.413 Y67.896 E.02343
;WIDTH:0.557203
G1 X55.397 Y67.381 E.02205
;WIDTH:0.525037
G1 X55.396 Y67.338 E.00172
;WIDTH:0.5229
G1 X55.377 Y66.307 E.04114
;WIDTH:0.484335
G1 X55.376 Y66.266 E.0015
;WIDTH:0.483318
G1 X55.37 Y65.236 E.03774
;WIDTH:0.470468
G1 X55.37 Y65.196 E.00143
;WIDTH:0.483317
G1 X55.376 Y64.165 E.03774
;WIDTH:0.484335
G1 X55.377 Y64.124 E.0015
;WIDTH:0.5229
G1 X55.396 Y63.093 E.04114
;WIDTH:0.525037
G1 X55.397 Y63.051 E.00172
;WIDTH:0.557203
