; generated by PrusaSlicer 2.5.0+linux-x64-GTK3 on 2022-12-14 at 17:28:18 UTC


;
;
; 

; external perimeters extrusion width = 0.45mm
; perimeters extrusion width = 0.45mm
; infill extrusion width = 0.45mm
; solid infill extrusion width = 0.45mm
; top infill extrusion width = 0.40mm
; first layer extrusion width = 0.42mm

; external perimeters extrusion width = 0.45mm
; perimeters extrusion width = 0.45mm
; infill extrusion width = 0.45mm
; solid infill extrusion width = 0.45mm
; top infill extrusion width = 0.40mm
; first layer extrusion width = 0.42mm

; external perimeters extrusion width = 0.45mm
; perimeters extrusion width = 0.45mm
; infill extrusion width = 0.45mm
; solid infill extrusion width = 0.45mm
; top infill extrusion width = 0.40mm
; first layer extrusion width = 0.42mm

; external perimeters extrusion width = 0.45mm
; perimeters extrusion width = 0.45mm
; infill extrusion width = 0.45mm
; solid infill extrusion width = 0.45mm
; top infill extrusion width = 0.40mm
; first layer extrusion width = 0.42mm

M73 P0 R42
M73 Q0 S42
M201 X1000 Y1000 Z200 E5000 ; sets maximum accelerations, mm/sec^2
M203 X200 Y200 Z12 E120 ; sets maximum feedrates, mm / sec
M204 P1250 R1250 T1250 ; sets acceleration (P, T) and retract acceleration (R), mm/sec^2
M205 X8.00 Y8.00 Z0.40 E4.50 ; sets the jerk limits, mm/sec
M205 S0 T0 ; sets the minimum extruding and travel feed rate, mm/sec
M107
;TYPE:Custom
M862.3 P "MK3S" ; printer model check
M862.1 P0.4 ; nozzle diameter check
M115 U3.11.0 ; tell printer latest fw version
G90 ; use absolute coordinates
M83 ; extruder relative mode
M104 S215 ; set extruder temp
M140 S60 ; set bed temp
M190 S60 ; wait for bed temp
M109 S215 ; wait for extruder temp
G28 W ; home all without mesh bed level
G80 ; mesh bed leveling

G1 Z0.2 F720
G1 Y-3 F1000 ; go outside print area
G92 E0
G1 X60 E9 F1000 ; intro line
G1 X100 E12.5 F1000 ; intro line

G92 E0
M221 S95

; Don't change E values below. Excessive value can damage the printer.
M907 E430 ; set extruder motor current
G21 ; set units to millimeters
G90 ; use absolute coordinates
M83 ; use relative distances for extrusion
M900 K0.05 ; Filament gcode LA 1.5
M900 K30 ; Filament gcode LA 1.0
M107
;LAYER_CHANGE
;Z:0.2
;HEIGHT:0.2
;BEFORE_LAYER_CHANGE
G92 E0.0
;0.2


M73 P0 R41
G1 E-.8 F2100
G1 Z.4 F720
;AFTER_LAYER_CHANGE
;0.2
G1 X46.195 Y35.418 F10800
G1 Z.2 F720
G1 E.8 F2100
M204 S800
;TYPE:Skirt/Brim
;WIDTH:0.42
G1 F1200
G1 X47.27 Y34.53 E.0437
G1 X66.142 Y26.728 E.64029
G1 X68.641 Y25.956 E.08203
G1 X71.205 Y25.433 E.08203
G1 X73.807 Y25.165 E.08203
G1 X76.332 Y25.152 E.07916
G1 X130.953 Y28.574 E1.71595
G1 X133.83 Y28.933 E.09092
G1 X135.922 Y29.429 E.06741
G1 X138.556 Y30.357 E.08757
G1 X140.561 Y31.317 E.0697
G1 X142.836 Y32.719 E.08379
G1 X144.634 Y34.107 E.07119
G1 X146.253 Y35.629 E.06971
G1 X147.675 Y37.243 E.06741
G1 X149.288 Y39.522 E.08756
G1 X150.679 Y42.111 E.09215
G1 X151.459 Y44.036 E.06512
G1 X151.915 Y45.472 E.04724
G1 X152.391 Y47.494 E.06512
G1 X152.613 Y48.91 E.04495
G1 X152.794 Y51.843 E.09215
G1 X152.697 Y53.928 E.06544
G1 X148.513 Y104.657 E1.59597
G1 X148.008 Y107.155 E.07991
G1 X147.286 Y109.476 E.07619
G1 X146.337 Y111.713 E.0762
G1 X144.931 Y114.213 E.08992
G1 X143.112 Y116.706 E.09679
G1 X141.463 Y118.492 E.0762
G1 X139.645 Y120.104 E.07619
G1 X137.576 Y121.592 E.07991
G1 X135.468 Y122.802 E.07619
G1 X133.251 Y123.796 E.07619
G1 X131.269 Y124.467 E.06561
G1 X129.882 Y124.835 E.04498
G1 X127.49 Y125.263 E.0762
G1 X74.246 Y130.097 E1.67629
G1 X71.046 Y130.144 E.10036
G1 X68.176 Y129.853 E.09043
G1 X66.425 Y129.518 E.0559
G1 X64.456 Y128.99 E.06393
G1 X61.463 Y127.859 E.10031
G1 X58.643 Y126.383 E.0998
G1 X56.258 Y124.761 E.09043
G1 X53.881 Y122.713 E.09838
G1 X51.737 Y120.362 E.09977
G1 X50.05 Y118.022 E.09043
G1 X49.132 Y116.474 E.05645
G1 X48.221 Y114.649 E.06394
G1 X47.083 Y111.657 E.10038
G1 X46.375 Y108.862 E.09039
G1 X46.091 Y107.104 E.05584
G1 X45.913 Y105.072 E.06397
G1 X45.804 Y36.725 E2.14295
G1 X46.178 Y35.476 E.0409
M204 S1000
; printing object case-Body.stl id:0 copy 0
;WIPE_START
M73 P1 R41
M73 Q1 S42
G1 F8640
G1 X47.27 Y34.53 E-.33346
G1 X48.977 Y33.824 E-.42654
;WIPE_END
G1 E-.04 F2100
G1 Z.6 F720
G1 X100.542 Y38.882 F10800
G1 Z.2 F720
G1 E.8 F2100
M204 S800
;TYPE:Perimeter
;WIDTH:0.419999
G1 F1200
G1 X100.389 Y38.913 E.0049
G1 X100.239 Y39.008 E.00554
G1 X100.078 Y39.251 E.00915
G1 X100.048 Y39.432 E.00576
G1 X100.048 Y63.975 E.76952
G1 X100.136 Y64.279 E.00992
G1 X100.386 Y64.493 E.01033
G1 X100.613 Y64.541 E.00727
G1 X102.021 Y64.541 E.04414
G1 X102.025 Y66.92 E.0746
G1 X101.487 Y67.349 E.02156
G1 X101.072 Y67.725 E.01756
G1 X100.478 Y68.373 E.02756
G1 X93.655 Y68.486 E.21395
G1 X92.804 Y68.565 E.0268
G1 X92.249 Y68.686 E.01782
G1 X91.465 Y68.959 E.02604
G1 X90.731 Y69.339 E.02591
G1 X90.291 Y69.637 E.01666
G1 X89.174 Y70.509 E.04443
G1 X88.231 Y71.173 E.03614
G1 X87.257 Y71.789 E.03614
G1 X86.254 Y72.357 E.03614
G1 X85.224 Y72.875 E.03614
G1 X84.17 Y73.341 E.03615
G1 X83.094 Y73.755 E.03614
G1 X81.999 Y74.116 E.03614
G1 X80.888 Y74.422 E.03614
G1 X79.763 Y74.673 E.03614
G1 X78.627 Y74.868 E.03614
G1 X77.482 Y75.008 E.03614
G1 X76.333 Y75.09 E.03615
G1 X75.18 Y75.116 E.03614
G1 X74.028 Y75.086 E.03614
G1 X72.878 Y74.998 E.03614
G1 X71.735 Y74.855 E.03614
G1 X70.599 Y74.655 E.03615
G1 X69.475 Y74.399 E.03614
G1 X68.365 Y74.089 E.03614
G1 X67.272 Y73.724 E.03614
G1 X66.197 Y73.305 E.03614
G1 X65.145 Y72.835 E.03614
G1 X64.117 Y72.313 E.03614
G1 X63.116 Y71.741 E.03614
G1 X62.145 Y71.121 E.03614
G1 X61.203 Y70.452 E.0362
G1 X59.767 Y69.358 E.05661
G1 X58.865 Y68.873 E.03212
G1 X57.909 Y68.56 E.03153
G1 X51.062 Y66.989 E.22027
G1 X50.816 Y66.899 E.0082
G1 X50.266 Y66.619 E.01937
G1 X50.268 Y64.541 E.06516
G1 X50.877 Y64.541 E.01911
G1 X51.094 Y64.498 E.00693
G1 X51.258 Y64.394 E.00608
G1 X51.362 Y64.266 E.00516
G1 X51.443 Y63.975 E.00947
G1 X51.443 Y39.878 E.75555
G1 X51.423 Y39.285 E.01862
G1 X51.258 Y39.014 E.00995
G1 X51.094 Y38.91 E.00608
G1 X50.877 Y38.867 E.00693
G1 X50.268 Y38.867 E.01911
G1 X50.265 Y36.776 E.06556
G1 X50.927 Y36.449 E.02313
G1 X57.84 Y34.864 E.22239
G1 X58.973 Y34.489 E.03739
G1 X59.897 Y33.97 E.03322
G1 X61.203 Y32.955 E.05188
G1 X62.145 Y32.287 E.0362
G1 X63.116 Y31.666 E.03614
G1 X64.117 Y31.095 E.03614
G1 X65.145 Y30.573 E.03614
G1 X66.197 Y30.102 E.03614
G1 X67.272 Y29.684 E.03614
G1 X68.365 Y29.319 E.03614
G1 X69.475 Y29.009 E.03614
G1 X70.599 Y28.753 E.03614
G1 X71.735 Y28.553 E.03615
G1 X72.878 Y28.409 E.03614
G1 X74.028 Y28.322 E.03614
G1 X75.18 Y28.291 E.03614
G1 X76.333 Y28.317 E.03614
G1 X77.482 Y28.4 E.03615
G1 X78.627 Y28.539 E.03614
G1 X79.763 Y28.735 E.03614
G1 X80.888 Y28.986 E.03614
G1 X81.999 Y29.292 E.03614
G1 X83.094 Y29.653 E.03614
G1 X84.17 Y30.067 E.03614
G1 X85.224 Y30.533 E.03614
G1 X86.254 Y31.051 E.03614
G1 X87.257 Y31.619 E.03614
G1 X88.231 Y32.235 E.03614
G1 X89.174 Y32.899 E.03614
G1 X90.323 Y33.795 E.04569
G1 X90.797 Y34.108 E.0178
G1 X91.569 Y34.491 E.02704
G1 X92.061 Y34.668 E.01638
G1 X92.857 Y34.852 E.02561
G1 X93.408 Y34.911 E.01737
G1 X100.47 Y35.035 E.22145
G1 X100.805 Y35.414 E.01588
G1 X101.59 Y36.151 E.03374
G1 X102.025 Y36.487 E.01724
G1 X102.021 Y38.867 E.0746
G1 X100.6 Y38.869 E.04456
M204 S1000
G1 X100.613 Y39.244 F10800
M204 S800
;TYPE:External perimeter
G1 F1200
G1 X100.489 Y39.291 E.00418
G1 X100.425 Y39.432 E.00487
G1 X100.425 Y63.975 E.76952
G1 X100.488 Y64.116 E.00485
G1 X100.613 Y64.164 E.00419
G1 X102.398 Y64.164 E.05595
G1 X102.402 Y67.106 E.09225
G1 X101.739 Y67.63 E.02649
G1 X101.35 Y67.98 E.01642
G1 X100.646 Y68.747 E.03264
G1 X93.661 Y68.863 E.21903
G1 X92.882 Y68.934 E.02453
G1 X92.37 Y69.043 E.0164
G1 X91.636 Y69.295 E.02435
G1 X90.941 Y69.652 E.02449
G1 X90.523 Y69.934 E.01581
G1 X89.398 Y70.812 E.04472
G1 X88.441 Y71.486 E.03672
G1 X87.451 Y72.113 E.03673
G1 X86.432 Y72.69 E.03673
G1 X85.385 Y73.216 E.03673
G1 X84.314 Y73.69 E.03673
G1 X83.221 Y74.11 E.03673
G1 X82.108 Y74.477 E.03673
G1 X80.979 Y74.788 E.03673
G1 X79.836 Y75.043 E.03673
G1 X78.681 Y75.242 E.03673
G1 X77.519 Y75.383 E.03672
G1 X76.35 Y75.467 E.03673
G1 X75.179 Y75.494 E.03673
G1 X74.008 Y75.463 E.03673
G1 X72.84 Y75.374 E.03673
G1 X71.678 Y75.228 E.03672
G1 X70.525 Y75.024 E.03673
G1 X69.383 Y74.765 E.03673
G1 X68.255 Y74.449 E.03673
G1 X67.143 Y74.078 E.03673
G1 X66.052 Y73.653 E.03673
G1 X64.983 Y73.175 E.03673
G1 X63.938 Y72.645 E.03673
G1 X62.921 Y72.064 E.03673
G1 X61.934 Y71.434 E.03673
G1 X60.978 Y70.755 E.03675
G1 X59.585 Y69.688 E.05503
G1 X58.747 Y69.231 E.02993
M73 Q1 S41
G1 X57.822 Y68.927 E.03051
G1 X50.977 Y67.357 E.22019
G1 X50.642 Y67.233 E.01121
G1 X49.888 Y66.862 E.02635
G1 X49.891 Y64.164 E.08459
G1 X50.877 Y64.164 E.03092
G1 X51.004 Y64.115 E.00426
G1 X51.066 Y63.975 E.00478
G1 X51.066 Y39.432 E.76952
G1 X51.004 Y39.293 E.00478
G1 X50.877 Y39.244 E.00426
G1 X49.891 Y39.244 E.03092
G1 X49.888 Y36.542 E.08472
G1 X50.8 Y36.091 E.03187
G1 X57.838 Y34.477 E.22642
G1 X58.79 Y34.159 E.03147
G1 X59.665 Y33.672 E.03139
G1 X60.978 Y32.653 E.05213
G1 X61.934 Y31.974 E.03675
G1 X62.921 Y31.344 E.03673
G1 X63.938 Y30.763 E.03673
G1 X64.983 Y30.232 E.03673
G1 X66.052 Y29.754 E.03673
G1 X67.143 Y29.329 E.03673
G1 X68.255 Y28.959 E.03673
G1 X69.383 Y28.643 E.03673
G1 X70.525 Y28.383 E.03672
G1 X71.678 Y28.18 E.03673
G1 X72.84 Y28.034 E.03672
G1 X74.008 Y27.945 E.03673
G1 X75.179 Y27.914 E.03673
G1 X76.35 Y27.941 E.03672
G1 X77.519 Y28.025 E.03673
G1 X78.681 Y28.166 E.03672
G1 X79.836 Y28.365 E.03673
G1 X80.979 Y28.62 E.03673
G1 X82.108 Y28.931 E.03673
G1 X83.221 Y29.297 E.03673
G1 X84.314 Y29.718 E.03673
G1 X85.385 Y30.192 E.03673
G1 X86.432 Y30.718 E.03673
G1 X87.451 Y31.295 E.03673
G1 X88.441 Y31.922 E.03673
G1 X89.398 Y32.596 E.03672
G1 X90.534 Y33.482 E.04514
G1 X90.968 Y33.772 E.01639
G1 X91.656 Y34.122 E.0242
G1 X92.148 Y34.301 E.0164
G1 X92.899 Y34.477 E.0242
G1 X93.414 Y34.534 E.01625
G1 X100.643 Y34.661 E.22669
G1 X101.23 Y35.295 E.02709
G1 X101.862 Y35.888 E.02719
G1 X102.402 Y36.302 E.02131
G1 X102.398 Y39.244 E.09225
G1 X100.673 Y39.244 E.05407
M204 S1000
G1 X100.494 Y39.184 F10800
;WIPE_START
G1 F8640
G1 X100.489 Y39.291 E-.044
G1 X100.425 Y39.432 E-.03583
G1 X100.425 Y42.378 E-.68016
;WIPE_END
G1 E-.04 F2100
G1 Z.6 F720
G1 X72.439 Y73.916 F10800
G1 Z.2 F720
G1 E.8 F2100
M204 S800
;TYPE:Perimeter
G1 F1200
G1 X71.353 Y73.753 E.03443
G1 X70.259 Y73.533 E.035
G1 X69.177 Y73.258 E.035
G1 X68.11 Y72.93 E.035
G1 X67.061 Y72.548 E.035
G1 X66.032 Y72.116 E.035
G1 X65.026 Y71.632 E.035
G1 X64.045 Y71.099 E.035
G1 X63.092 Y70.517 E.035
G1 X62.17 Y69.889 E.035
G1 X61.279 Y69.215 E.035
G1 X60.561 Y68.614 E.02937
G1 X59.737 Y67.862 E.03497
G1 X58.806 Y66.921 E.04153
G1 X58.068 Y66.083 E.035
G1 X57.39 Y65.232 E.03411
G1 X56.737 Y64.327 E.035
G1 X56.192 Y63.483 E.03149
G1 X55.559 Y62.398 E.03939
G1 X55.063 Y61.43 E.03412
G1 X54.603 Y60.413 E.035
G1 X54.194 Y59.374 E.035
G1 X53.838 Y58.316 E.035
G1 X53.535 Y57.242 E.035
G1 X53.281 Y56.126 E.03588
G1 X53.087 Y55.027 E.035
G1 X52.949 Y53.919 E.035
G1 X52.867 Y52.806 E.035
G1 X52.84 Y51.69 E.035
G1 X52.868 Y50.574 E.035
G1 X52.952 Y49.461 E.035
G1 X53.092 Y48.353 E.035
G1 X53.286 Y47.254 E.035
G1 X53.528 Y46.193 E.03411
G1 X53.83 Y45.119 E.035
G1 X54.185 Y44.06 E.035
G1 X54.592 Y43.021 E.035
G1 X55.05 Y42.003 E.035
G1 X55.559 Y41.01 E.035
G1 X56.117 Y40.043 E.035
G1 X56.722 Y39.104 E.035
G1 X57.373 Y38.198 E.035
G1 X58.068 Y37.325 E.035
G1 X58.806 Y36.487 E.035
G1 X59.585 Y35.688 E.035
G1 X60.403 Y34.928 E.035
G1 X61.257 Y34.21 E.035
G1 X61.822 Y33.781 E.02224
G1 X62.724 Y33.141 E.03465
G1 X63.652 Y32.548 E.03454
G1 X64.609 Y32.002 E.03454
G1 X65.591 Y31.504 E.03454
G1 X67.061 Y30.859 E.05031
G1 X68.083 Y30.487 E.03412
G1 X69.15 Y30.157 E.035
G1 X70.231 Y29.881 E.035
G1 X71.325 Y29.659 E.035
G1 X72.429 Y29.492 E.035
G1 X73.539 Y29.381 E.035
G1 X74.654 Y29.324 E.035
G1 X75.771 Y29.323 E.035
G1 X76.885 Y29.378 E.035
G1 X77.996 Y29.489 E.035
G1 X79.1 Y29.655 E.035
G1 X80.194 Y29.875 E.035
G1 X81.276 Y30.15 E.035
G1 X82.343 Y30.478 E.035
G1 X83.392 Y30.859 E.035
G1 X84.421 Y31.292 E.035
G1 X85.427 Y31.776 E.035
G1 X86.408 Y32.309 E.035
G1 X87.361 Y32.891 E.035
G1 X88.283 Y33.519 E.035
G1 X89.174 Y34.192 E.035
G1 X90.029 Y34.909 E.035
G1 X90.705 Y35.535 E.02888
G1 X91.628 Y36.467 E.04111
G1 X92.385 Y37.325 E.03588
G1 X93.08 Y38.198 E.035
G1 X93.731 Y39.104 E.035
G1 X94.322 Y40.018 E.03412
G1 X94.894 Y41.01 E.03588
G1 X95.403 Y42.003 E.035
G1 X95.861 Y43.021 E.035
G1 X96.268 Y44.06 E.035
G1 X96.623 Y45.119 E.035
G1 X96.925 Y46.193 E.035
G1 X97.172 Y47.282 E.035
G1 X97.366 Y48.381 E.035
G1 X97.504 Y49.489 E.035
G1 X97.586 Y50.602 E.035
G1 X97.613 Y51.718 E.035
G1 X97.585 Y52.834 E.035
G1 X97.501 Y53.947 E.035
G1 X97.361 Y55.054 E.035
G1 X97.172 Y56.126 E.03412
G1 X96.925 Y57.214 E.035
M73 P2 R41
G1 X96.623 Y58.289 E.035
G1 X96.166 Y59.608 E.04377
G1 X95.861 Y60.387 E.02622
G1 X95.403 Y61.404 E.035
G1 X94.894 Y62.398 E.035
G1 X94.336 Y63.365 E.035
G1 X93.731 Y64.303 E.035
G1 X93.08 Y65.21 E.035
M73 Q2 S41
G1 X92.385 Y66.083 E.035
G1 X91.459 Y67.114 E.04345
G1 X90.868 Y67.72 E.02654
G1 X90.156 Y68.382 E.03049
G1 X89.196 Y69.198 E.0395
G1 X88.555 Y69.684 E.0252
G1 X87.654 Y70.318 E.03454
G1 X86.723 Y70.907 E.03454
G1 X85.764 Y71.449 E.03454
G1 X84.78 Y71.943 E.03454
G1 X83.772 Y72.389 E.03454
G1 X82.744 Y72.784 E.03454
G1 X81.698 Y73.129 E.03454
G1 X80.636 Y73.421 E.03454
G1 X79.56 Y73.661 E.03454
G1 X78.475 Y73.847 E.03454
G1 X77.381 Y73.98 E.03454
G1 X75.771 Y74.084 E.05061
G1 X74.682 Y74.084 E.03412
G1 X73.568 Y74.029 E.035
G1 X72.499 Y73.923 E.03368
M204 S1000
G1 X72.494 Y73.544 F10800
M204 S800
;TYPE:External perimeter
G1 F1200
G1 X71.409 Y73.38 E.03441
G1 X70.333 Y73.163 E.03441
G1 X69.27 Y72.892 E.03441
G1 X68.221 Y72.569 E.03441
G1 X67.19 Y72.194 E.03441
G1 X66.178 Y71.768 E.03441
G1 X65.189 Y71.292 E.03441
G1 X64.226 Y70.767 E.03441
G1 X63.289 Y70.195 E.03441
G1 X62.382 Y69.577 E.03441
G1 X61.507 Y68.915 E.03441
G1 X60.804 Y68.325 E.02878
G1 X59.994 Y67.586 E.03438
G1 X59.187 Y66.772 E.03594
G1 X58.363 Y65.848 E.03881
G1 X57.684 Y64.997 E.03411
G1 X57.044 Y64.106 E.03441
G1 X56.509 Y63.279 E.0309
G1 X55.895 Y62.226 E.03821
G1 X55.394 Y61.249 E.03441
G1 X54.943 Y60.249 E.03441
G1 X54.542 Y59.227 E.03441
G1 X54.193 Y58.187 E.03441
G1 X53.896 Y57.13 E.03441
G1 X53.652 Y56.06 E.03441
G1 X53.463 Y54.989 E.03412
G1 X53.325 Y53.891 E.0347
G1 X53.244 Y52.796 E.03441
G1 X53.216 Y51.699 E.03441
G1 X53.244 Y50.602 E.03441
G1 X53.326 Y49.508 E.03441
G1 X53.463 Y48.419 E.03441
G1 X53.654 Y47.338 E.03441
G1 X53.896 Y46.277 E.03411
G1 X54.193 Y45.221 E.03441
G1 X54.542 Y44.18 E.03441
G1 X54.943 Y43.159 E.03441
G1 X55.394 Y42.158 E.03441
G1 X55.895 Y41.182 E.03441
G1 X56.443 Y40.231 E.03441
G1 X57.038 Y39.309 E.03441
G1 X57.679 Y38.418 E.03441
G1 X58.363 Y37.56 E.03441
G1 X59.089 Y36.737 E.03441
G1 X59.855 Y35.951 E.03441
G1 X60.659 Y35.204 E.03441
G1 X61.5 Y34.499 E.03441
G1 X62.05 Y34.081 E.02165
G1 X62.936 Y33.453 E.03406
G1 X63.849 Y32.87 E.03395
G1 X64.789 Y32.333 E.03395
G1 X65.755 Y31.843 E.03395
G1 X66.743 Y31.401 E.03395
G1 X67.752 Y31.009 E.03395
G1 X69.261 Y30.518 E.04973
G1 X70.324 Y30.247 E.03441
G1 X71.4 Y30.029 E.03441
G1 X72.485 Y29.865 E.03441
G1 X73.577 Y29.756 E.03441
G1 X74.673 Y29.701 E.03441
G1 X75.771 Y29.701 E.03441
G1 X76.867 Y29.755 E.03441
G1 X77.959 Y29.864 E.03441
G1 X79.044 Y30.027 E.03441
G1 X80.12 Y30.245 E.03441
G1 X81.183 Y30.515 E.03441
G1 X82.232 Y30.838 E.03441
G1 X83.263 Y31.214 E.03441
G1 X84.275 Y31.64 E.03441
G1 X85.264 Y32.116 E.03441
G1 X86.227 Y32.64 E.03441
G1 X87.164 Y33.212 E.03441
G1 X88.071 Y33.83 E.03441
G1 X88.946 Y34.493 E.03441
G1 X89.787 Y35.198 E.03441
G1 X90.448 Y35.812 E.02829
G1 X91.358 Y36.73 E.04052
G1 X92.09 Y37.56 E.0347
G1 X92.774 Y38.418 E.03441
G1 X93.415 Y39.309 E.03441
G1 X94.005 Y40.223 E.03412
G1 X94.558 Y41.182 E.0347
G1 X95.059 Y42.158 E.03441
G1 X95.51 Y43.159 E.03441
G1 X95.911 Y44.18 E.03441
G1 X96.26 Y45.221 E.03441
G1 X96.557 Y46.277 E.03441
G1 X96.801 Y47.347 E.03441
G1 X96.991 Y48.428 E.03441
