; generated by PrusaSlicer 2.5.0+linux-x64-GTK3 on 2022-12-29 at 18:07:24 UTC


;
;
; 

; external perimeters extrusion width = 0.45mm
; perimeters extrusion width = 0.45mm
; infill extrusion width = 0.45mm
; solid infill extrusion width = 0.45mm
; top infill extrusion width = 0.40mm
; support material extrusion width = 0.35mm
; first layer extrusion width = 0.42mm

; external perimeters extrusion width = 0.45mm
; perimeters extrusion width = 0.45mm
; infill extrusion width = 0.45mm
; solid infill extrusion width = 0.45mm
; top infill extrusion width = 0.40mm
; support material extrusion width = 0.35mm
; first layer extrusion width = 0.42mm

M73 P0 R62
M73 Q0 S64
M201 X1000 Y1000 Z200 E5000 ; sets maximum accelerations, mm/sec^2
M203 X200 Y200 Z12 E120 ; sets maximum feedrates, mm / sec
M204 P1250 R1250 T1250 ; sets acceleration (P, T) and retract acceleration (R), mm/sec^2
M205 X8.00 Y8.00 Z0.40 E4.50 ; sets the jerk limits, mm/sec
M205 S0 T0 ; sets the minimum extruding and travel feed rate, mm/sec
M107
;TYPE:Custom
M862.3 P "MK3S" ; printer model check
M862.1 P0.4 ; nozzle diameter check
M115 U3.11.0 ; tell printer latest fw version
G90 ; use absolute coordinates
M83 ; extruder relative mode
M104 S215 ; set extruder temp
M140 S60 ; set bed temp
M190 S60 ; wait for bed temp
M109 S215 ; wait for extruder temp
G28 W ; home all without mesh bed level
G80 ; mesh bed leveling

G1 Z0.2 F720
G1 Y-3 F1000 ; go outside print area
G92 E0
G1 X60 E9 F1000 ; intro line
G1 X100 E12.5 F1000 ; intro line

G92 E0
M221 S95

; Don't change E values below. Excessive value can damage the printer.
M907 E430 ; set extruder motor current
G21 ; set units to millimeters
G90 ; use absolute coordinates
M83 ; use relative distances for extrusion
M900 K0.05 ; Filament gcode LA 1.5
M900 K30 ; Filament gcode LA 1.0
M107
;LAYER_CHANGE
;Z:0.2
;HEIGHT:0.2
;BEFORE_LAYER_CHANGE
G92 E0.0
;0.2


M73 Q0 S63
G1 E-.8 F2100
G1 Z.4 F720
;AFTER_LAYER_CHANGE
;0.2
G1 X84.789 Y32.761 F10800
G1 Z.2 F720
G1 E.8 F2100
M204 S800
;TYPE:Skirt/Brim
;WIDTH:0.42
G1 F1200
G1 X87.743 Y28.401 E.16513
G1 X90.399 Y25.714 E.11845
G1 X90.903 Y25.335 E.01978
G1 X96.881 Y21.968 E.21514
G1 X97.689 Y21.689 E.02677
G1 X110.534 Y19.727 E.40742
G1 X112.76 Y19.506 E.07015
G1 X114.428 Y19.457 E.05233
G1 X117.064 Y19.601 E.08276
G1 X130.028 Y21.051 E.40903
G1 X130.564 Y21.175 E.01723
G1 X141.739 Y25.167 E.37207
G1 X142.838 Y25.976 E.04278
G1 X143.311 Y27.253 E.04271
G1 X148.246 Y103.805 E2.40523
G1 X148.244 Y106.219 E.07569
G1 X148.008 Y108.528 E.07276
G1 X147.571 Y110.686 E.06904
G1 X147.225 Y111.917 E.04011
G1 X146.472 Y113.987 E.06904
G1 X145.47 Y116.08 E.07276
G1 X144.548 Y117.625 E.05643
G1 X143.519 Y119.102 E.05643
G1 X142.103 Y120.788 E.06904
G1 X141.21 Y121.704 E.0401
G1 X139.559 Y123.161 E.06905
G1 X138.281 Y124.11 E.0499
G1 X136.587 Y125.188 E.06296
G1 X134.627 Y126.192 E.06904
G1 X133.449 Y126.689 E.0401
G1 X131.361 Y127.39 E.06905
G1 X130.122 Y127.706 E.0401
G1 X127.835 Y128.103 E.07276
G1 X125.848 Y128.257 E.06251
G1 X124.479 Y128.271 E.04292
G1 X123.201 Y128.207 E.0401
G1 X121.016 Y127.933 E.06905
G1 X119.763 Y127.68 E.0401
G1 X117.643 Y127.083 E.06905
G1 X115.373 Y126.192 E.07647
G1 X113.413 Y125.188 E.06904
G1 X112.421 Y124.585 E.03639
G1 X111.364 Y123.864 E.04011
G1 X109.643 Y122.491 E.06904
G1 X108.705 Y121.621 E.0401
G1 X107.207 Y120.007 E.06904
G1 X106.41 Y119.007 E.04011
G1 X105.169 Y117.188 E.06904
G1 X104.054 Y115.153 E.07276
G1 X103.112 Y112.92 E.07597
G1 X84.509 Y58.746 E1.79596
G1 X84.38 Y57.974 E.02454
G1 X84.38 Y34.094 E.74873
G1 X84.771 Y32.818 E.04185
M204 S1000
; printing object positioning ring-Body.stl id:0 copy 0
;WIPE_START
G1 F8640
G1 X86.609 Y30.087 E-.76
;WIPE_END
G1 E-.04 F2100
G1 Z.6 F720
G1 X109.222 Y118.225 F10800
G1 Z.2 F720
G1 E.8 F2100
M204 S800
;TYPE:External perimeter
;WIDTH:0.419974
G1 F1200
G1 X108.58 Y117.42 E.03228
G1 X107.981 Y116.586 E.03219
G1 X107.425 Y115.723 E.03219
G1 X106.912 Y114.834 E.03218
G1 X106.445 Y113.92 E.03218
G1 X106.023 Y112.984 E.03219
G1 X105.649 Y112.028 E.03218
G1 X105.322 Y111.055 E.03218
G1 X105.045 Y110.067 E.03219
G1 X104.817 Y109.066 E.03218
G1 X104.64 Y108.055 E.03219
G1 X104.513 Y107.036 E.03219
;WIDTH:0.421221
G1 X104.435 Y105.96 E.03393
;WIDTH:0.420032
G1 X104.411 Y105 E.03011
;WIDTH:0.419973
G1 X104.438 Y103.96 E.03263
G1 X104.516 Y102.936 E.03218
G1 X104.644 Y101.918 E.03218
G1 X104.823 Y100.907 E.03219
G1 X105.052 Y99.906 E.03218
G1 X105.331 Y98.918 E.03219
G1 X105.658 Y97.945 E.03218
G1 X106.034 Y96.99 E.03218
G1 X106.457 Y96.054 E.03219
G1 X106.926 Y95.141 E.03218
G1 X107.44 Y94.253 E.03218
G1 X107.997 Y93.391 E.03218
G1 X108.597 Y92.557 E.03219
G1 X109.238 Y91.755 E.03218
G1 X109.917 Y90.986 E.03219
G1 X110.635 Y90.252 E.03218
G1 X111.388 Y89.554 E.03218
G1 X112.174 Y88.895 E.03218
G1 X112.993 Y88.275 E.03219
G1 X113.842 Y87.698 E.03218
G1 X114.718 Y87.163 E.03219
G1 X115.62 Y86.673 E.03219
G1 X116.545 Y86.228 E.03218
G1 X117.491 Y85.83 E.03218
G1 X118.456 Y85.479 E.03218
G1 X119.437 Y85.177 E.03218
G1 X120.432 Y84.925 E.03218
G1 X121.439 Y84.722 E.03218
G1 X122.454 Y84.57 E.03219
G1 X123.475 Y84.468 E.03218
G1 X124.501 Y84.418 E.03218
G1 X125.527 Y84.419 E.03218
G1 X126.553 Y84.47 E.03218
G1 X127.574 Y84.573 E.03218
G1 X128.589 Y84.727 E.03219
G1 X129.595 Y84.931 E.03218
G1 X130.59 Y85.185 E.03218
G1 X131.57 Y85.488 E.03218
G1 X132.535 Y85.84 E.03218
G1 X133.481 Y86.24 E.03218
G1 X134.405 Y86.686 E.03218
G1 X135.306 Y87.177 E.03219
G1 X136.182 Y87.713 E.03219
G1 X137.03 Y88.292 E.03218
G1 X137.848 Y88.912 E.03219
G1 X138.633 Y89.573 E.03218
G1 X139.386 Y90.271 E.03218
G1 X140.102 Y91.007 E.03218
G1 X140.781 Y91.777 E.03219
G1 X141.42 Y92.58 E.03218
G1 X142.019 Y93.414 E.03219
G1 X142.575 Y94.277 E.03218
G1 X143.088 Y95.166 E.03218
G1 X143.555 Y96.08 E.03218
G1 X143.977 Y97.016 E.03219
G1 X144.351 Y97.972 E.03219
G1 X144.678 Y98.945 E.03218
G1 X144.955 Y99.933 E.03219
G1 X145.183 Y100.934 E.03218
G1 X145.36 Y101.945 E.03219
G1 X145.487 Y102.964 E.03219
;WIDTH:0.421219
G1 X145.565 Y104.04 E.03393
;WIDTH:0.419974
G1 X145.588 Y105.014 E.03055
G1 X145.562 Y106.04 E.03218
G1 X145.484 Y107.064 E.03218
G1 X145.356 Y108.082 E.03218
G1 X145.177 Y109.093 E.03219
G1 X144.948 Y110.094 E.03218
G1 X144.669 Y111.082 E.03219
G1 X144.342 Y112.055 E.03218
G1 X143.966 Y113.01 E.03219
G1 X143.543 Y113.946 E.03219
G1 X143.074 Y114.859 E.03218
G1 X142.56 Y115.747 E.03218
G1 X142.003 Y116.609 E.03218
G1 X141.403 Y117.442 E.03219
G1 X140.762 Y118.245 E.03218
G1 X140.083 Y119.014 E.03218
G1 X139.365 Y119.748 E.03218
G1 X138.612 Y120.446 E.03218
G1 X137.826 Y121.105 E.03218
G1 X137.007 Y121.725 E.03219
G1 X136.158 Y122.302 E.03218
G1 X135.282 Y122.837 E.03219
G1 X134.38 Y123.327 E.03219
G1 X133.455 Y123.772 E.03218
G1 X132.509 Y124.17 E.03219
G1 X131.544 Y124.521 E.03218
G1 X130.563 Y124.823 E.03218
G1 X129.568 Y125.075 E.03218
G1 X128.561 Y125.278 E.03218
G1 X127.546 Y125.43 E.03219
G1 X126.525 Y125.532 E.03218
G1 X125.499 Y125.582 E.03218
G1 X124.473 Y125.581 E.03218
G1 X123.447 Y125.53 E.03218
G1 X122.426 Y125.427 E.03219
G1 X121.411 Y125.273 E.03218
G1 X120.405 Y125.069 E.03218
G1 X119.41 Y124.815 E.03218
G1 X118.43 Y124.512 E.03218
G1 X117.465 Y124.16 E.03218
G1 X116.519 Y123.76 E.03219
G1 X115.595 Y123.314 E.03218
G1 X114.694 Y122.823 E.03219
G1 X113.818 Y122.287 E.03219
G1 X112.97 Y121.708 E.03218
G1 X112.152 Y121.088 E.03219
G1 X111.367 Y120.427 E.03218
G1 X110.614 Y119.729 E.03218
G1 X109.898 Y118.993 E.03218
G1 X109.261 Y118.27 E.0302
M204 S1000
G1 X109.359 Y117.85 F10800
;WIPE_START
G1 F8640
G1 X108.58 Y117.42 E-.25161
G1 X107.981 Y116.586 E-.23704
G1 X107.425 Y115.723 E-.23704
G1 X107.351 Y115.595 E-.03431
;WIPE_END
G1 E-.04 F2100
G1 Z.6 F720
G1 X133.317 Y123.421 F10800
G1 Z.2 F720
G1 E.8 F2100
M204 S800
;WIDTH:0.419973
G1 F1200
G1 X132.388 Y123.812 E.0316
G1 X131.441 Y124.157 E.0316
G1 X130.479 Y124.455 E.0316
G1 X129.502 Y124.703 E.0316
G1 X128.514 Y124.903 E.0316
G1 X127.518 Y125.054 E.0316
G1 X126.515 Y125.154 E.03159
G1 X125.509 Y125.205 E.0316
G1 X124.501 Y125.205 E.0316
G1 X123.494 Y125.155 E.0316
G1 X122.492 Y125.055 E.0316
G1 X121.495 Y124.905 E.0316
G1 X120.507 Y124.706 E.0316
G1 X119.53 Y124.457 E.0316
G1 X118.567 Y124.16 E.0316
G1 X117.62 Y123.816 E.0316
G1 X116.692 Y123.425 E.0316
G1 X115.784 Y122.988 E.03159
G1 X114.898 Y122.506 E.0316
G1 X114.038 Y121.981 E.0316
G1 X113.206 Y121.413 E.03159
G1 X112.402 Y120.805 E.0316
G1 X111.63 Y120.157 E.0316
G1 X110.891 Y119.472 E.0316
G1 X110.187 Y118.751 E.0316
G1 X109.52 Y117.995 E.0316
G1 X108.892 Y117.207 E.03159
G1 X108.303 Y116.389 E.0316
G1 X107.756 Y115.543 E.0316
G1 X107.252 Y114.67 E.0316
G1 X106.792 Y113.774 E.03159
G1 X106.378 Y112.855 E.0316
G1 X106.009 Y111.917 E.0316
G1 X105.688 Y110.962 E.03159
G1 X105.415 Y109.992 E.0316
G1 X105.19 Y109.009 E.03159
G1 X105.015 Y108.017 E.0316
G1 X104.889 Y107.007 E.03191
;WIDTH:0.421221
G1 X104.815 Y106.003 E.03167
G1 X104.789 Y105.005 E.03142
;WIDTH:0.419975
G1 X104.814 Y103.997 E.0316
G1 X104.889 Y102.992 E.0316
G1 X105.014 Y101.992 E.0316
G1 X105.189 Y101 E.0316
G1 X105.413 Y100.017 E.03159
G1 X105.685 Y99.047 E.0316
G1 X106.006 Y98.092 E.03159
G1 X106.374 Y97.154 E.0316
G1 X106.788 Y96.235 E.0316
G1 X107.248 Y95.338 E.03159
G1 X107.751 Y94.465 E.0316
G1 X108.298 Y93.618 E.0316
G1 X108.886 Y92.8 E.0316
G1 X109.514 Y92.012 E.03159
G1 X110.181 Y91.256 E.0316
G1 X110.884 Y90.535 E.0316
G1 X111.623 Y89.849 E.0316
G1 X112.395 Y89.201 E.0316
G1 X113.198 Y88.592 E.0316
G1 X114.03 Y88.025 E.03159
G1 X114.89 Y87.499 E.0316
G1 X115.775 Y87.017 E.0316
G1 X116.683 Y86.579 E.03159
G1 X117.612 Y86.188 E.0316
G1 X118.559 Y85.843 E.0316
G1 X119.521 Y85.545 E.0316
G1 X120.498 Y85.297 E.0316
G1 X121.486 Y85.097 E.0316
G1 X122.482 Y84.946 E.0316
G1 X123.485 Y84.846 E.03159
G1 X124.491 Y84.795 E.0316
G1 X125.499 Y84.795 E.0316
G1 X126.506 Y84.845 E.0316
G1 X127.508 Y84.945 E.03159
G1 X128.505 Y85.095 E.0316
G1 X129.493 Y85.294 E.0316
G1 X130.47 Y85.543 E.0316
G1 X131.433 Y85.84 E.0316
G1 X132.38 Y86.184 E.0316
G1 X133.308 Y86.575 E.0316
G1 X134.216 Y87.012 E.03159
G1 X135.102 Y87.494 E.0316
G1 X135.962 Y88.019 E.0316
G1 X136.794 Y88.587 E.03159
G1 X137.598 Y89.195 E.0316
G1 X138.37 Y89.843 E.0316
G1 X139.109 Y90.528 E.0316
G1 X139.813 Y91.249 E.0316
G1 X140.48 Y92.005 E.0316
G1 X141.108 Y92.793 E.03159
G1 X141.697 Y93.611 E.0316
G1 X142.244 Y94.457 E.0316
G1 X142.748 Y95.33 E.0316
G1 X143.208 Y96.226 E.03159
G1 X143.622 Y97.145 E.0316
G1 X143.991 Y98.083 E.0316
G1 X144.312 Y99.038 E.03159
G1 X144.585 Y100.008 E.0316
G1 X144.81 Y100.991 E.03159
G1 X144.985 Y101.983 E.0316
G1 X145.111 Y102.993 E.03191
;WIDTH:0.421219
G1 X145.185 Y103.997 E.03167
G1 X145.211 Y104.995 E.03142
;WIDTH:0.419973
G1 X145.186 Y106.003 E.0316
G1 X145.111 Y107.008 E.0316
G1 X144.986 Y108.008 E.0316
G1 X144.811 Y109 E.0316
G1 X144.587 Y109.983 E.03159
G1 X144.315 Y110.953 E.0316
G1 X143.994 Y111.908 E.03159
G1 X143.626 Y112.846 E.0316
G1 X143.212 Y113.765 E.0316
G1 X142.752 Y114.662 E.03159
G1 X142.249 Y115.535 E.0316
G1 X141.702 Y116.382 E.0316
G1 X141.114 Y117.2 E.0316
G1 X140.486 Y117.988 E.0316
G1 X139.819 Y118.744 E.0316
G1 X139.116 Y119.465 E.0316
G1 X138.377 Y120.151 E.0316
G1 X137.605 Y120.799 E.0316
G1 X136.802 Y121.408 E.0316
G1 X135.97 Y121.975 E.03159
G1 X135.11 Y122.501 E.0316
G1 X134.225 Y122.983 E.0316
G1 X133.371 Y123.395 E.02971
M204 S1000
G1 X133.277 Y123.819 F10800
; stop printing object positioning ring-Body.stl id:0 copy 0
; printing object case-Body.stl id:1 copy 0
;WIPE_START
G1 F8640
G1 X132.388 Y123.812 E-.24654
G1 X131.441 Y124.157 E-.23269
G1 X130.479 Y124.455 E-.2327
G1 X130.277 Y124.506 E-.04808
;WIPE_END
G1 E-.04 F2100
G1 Z.6 F720
G1 X133.931 Y65.152 F10800
G1 Z.2 F720
G1 E.8 F2100
M204 S800
;TYPE:Support material
;WIDTH:0.42
G1 F1200
G1 X133.85 Y65.089 E.00323
G1 X132.956 Y66.105 E.04241
G1 X132.878 Y66.038 E.00324
G1 X131.934 Y67.007 E.04243
G1 X131.86 Y66.937 E.00322
G1 X130.87 Y67.858 E.0424
G1 X130.799 Y67.784 E.00323
G1 X129.764 Y68.655 E.0424
G1 X127.973 Y66.578 E.08599
G1 X129.229 Y65.691 E.04823
G1 X130.049 Y65.037 E.03288
G1 X134.023 Y65.037 E.12461
G1 X133.966 Y65.108 E.00286
M204 S1000
G1 X132.922 Y65.852 F10800
M204 S800
G1 F1200
G1 X132.922 Y65.376 E.01492
G1 X132.503 Y65.376 E.01314
G1 X132.503 Y65.936 E.01755
G1 X132.084 Y66.367 E.01884
G1 X132.084 Y65.376 E.03105
M73 P1 R62
G1 X131.665 Y65.376 E.01314
G1 X131.665 Y66.654 E.04007
G1 X131.246 Y67.044 E.01795
M73 Q1 S63
G1 X131.246 Y65.376 E.0523
G1 X130.827 Y65.376 E.01314
G1 X130.827 Y67.322 E.061
G1 X130.408 Y67.669 E.01706
G1 X130.408 Y65.376 E.07189
G1 X130.168 Y65.376 E.00754
G1 X129.989 Y65.519 E.00717
G1 X129.989 Y68.022 E.07847
G1 X129.802 Y68.179 E.00766
G1 X129.57 Y67.91 E.01114
G1 X129.57 Y65.854 E.06448
G1 X129.151 Y66.166 E.01639
G1 X129.151 Y67.425 E.03946
G1 X128.732 Y66.939 E.02011
G1 X128.732 Y66.259 E.02133
M204 S1000
;WIPE_START
G1 F8640
G1 X128.732 Y66.939 E-.15705
G1 X129.151 Y67.425 E-.14808
G1 X129.151 Y66.166 E-.29057
G1 X129.57 Y65.854 E-.12072
G1 X129.57 Y66.042 E-.04358
;WIPE_END
G1 E-.04 F2100
G1 Z.6 F720
G1 X130.488 Y64.662 F10800
G1 Z.2 F720
G1 E.8 F2100
M204 S800
;TYPE:Support material interface
;WIDTH:0.35
G1 F1200
G1 X130.417 Y64.662 E.00181
G1 X130.653 Y64.454 E.00803
G1 X130.653 Y64.662 E.00532
G1 X131.181 Y64.662 E.0135
G1 X131.181 Y63.978 E.01748
G1 X131.71 Y63.46 E.01888
G1 X131.71 Y64.662 E.03069
G1 X132.238 Y64.662 E.0135
G1 X132.238 Y62.916 E.0446
G1 X132.767 Y62.344 E.01988
G1 X132.767 Y64.662 E.05919
G1 X133.295 Y64.662 E.0135
G1 X133.295 Y61.716 E.07523
G1 X133.824 Y61.054 E.02163
G1 X133.824 Y64.662 E.09213
G1 X134.352 Y64.662 E.0135
G1 X134.352 Y60.351 E.1101
G1 X134.881 Y59.573 E.024
G1 X134.881 Y64.662 E.12994
G1 X135.409 Y64.662 E.0135
G1 X135.409 Y58.729 E.1515
G1 X135.66 Y58.317 E.01231
G1 X135.938 Y57.805 E.01488
G1 X135.938 Y64.662 E.17509
G1 X136.467 Y64.662 E.0135
G1 X136.467 Y56.777 E.20134
G1 X136.732 Y56.224 E.01567
M204 S1000
;WIPE_START
G1 F8640
G1 X136.467 Y56.777 E-.14168
G1 X136.467 Y59.455 E-.61832
;WIPE_END
G1 E-.04 F2100
G1 Z.6 F720
G1 X137.145 Y55.254 F10800
G1 Z.2 F720
G1 E.8 F2100
M204 S800
G1 F1200
G1 X136.995 Y55.61 E.00987
G1 X136.995 Y64.662 E.23113
G1 X137.524 Y64.662 E.0135
G1 X137.524 Y54.249 E.2659
G1 X137.789 Y53.455 E.02138
M204 S1000
;WIPE_START
G1 F8640
G1 X137.524 Y54.249 E-.19336
G1 X137.524 Y56.703 E-.56664
;WIPE_END
G1 E-.04 F2100
G1 Z.6 F720
G1 X138.223 Y51.907 F10800
G1 Z.2 F720
G1 E.8 F2100
M204 S800
G1 F1200
G1 X138.052 Y52.581 E.01776
G1 X138.052 Y64.662 E.30849
G1 X138.581 Y64.662 E.0135
G1 X138.581 Y50.218 E.36881
M73 P1 R61
G1 X138.749 Y49.098 E.02892
G1 X138.846 Y48.128 E.02489
M204 S1000
;WIPE_START
G1 F8640
G1 X138.749 Y49.098 E-.22511
G1 X138.581 Y50.218 E-.26155
G1 X138.581 Y51.402 E-.27334
;WIPE_END
G1 E-.04 F2100
G1 Z.6 F720
G1 X138.399 Y51.138 F10800
G1 Z.2 F720
G1 E.8 F2100
M204 S800
G1 F1200
G1 X138.318 Y51.535 E.01034
M204 S1000
;WIPE_START
G1 F8640
G1 X138.399 Y51.138 E-.09351
;WIPE_END
G1 E-.70649 F2100
G1 Z.6 F720
G1 X138.846 Y43.94 F10800
G1 Z.2 F720
G1 E.8 F2100
M204 S800
G1 F1200
G1 X138.749 Y42.97 E.02489
G1 X138.581 Y41.85 E.02892
G1 X138.581 Y27.406 E.36881
G1 X139.109 Y27.406 E.0135
G1 X139.109 Y64.662 E.9513
G1 X139.638 Y64.662 E.0135
G1 X139.638 Y27.406 E.9513
G1 X140.166 Y27.406 E.0135
G1 X140.166 Y64.662 E.9513
G1 X140.695 Y64.662 E.0135
G1 X140.695 Y27.406 E.9513
G1 X140.939 Y27.406 E.00623
G1 X140.939 Y27.867 E.01177
M204 S1000
;WIPE_START
G1 F8640
G1 X140.939 Y27.406 E-.10646
G1 X140.695 Y27.406 E-.05636
G1 X140.695 Y29.992 E-.59718
;WIPE_END
G1 E-.04 F2100
G1 Z.6 F720
G1 X136.302 Y27.406 F10800
G1 Z.2 F720
G1 E.8 F2100
M204 S800
G1 F1200
G1 X135.938 Y27.406 E.0093
G1 X135.938 Y34.263 E.17509
G1 X135.66 Y33.751 E.01488
G1 X135.409 Y33.339 E.0123
G1 X135.409 Y27.406 E.1515
G1 X134.881 Y27.406 E.0135
G1 X134.881 Y32.495 E.12994
G1 X134.352 Y31.718 E.024
G1 X134.352 Y27.406 E.1101
G1 X133.824 Y27.406 E.0135
G1 X133.824 Y31.014 E.09213
G1 X133.295 Y30.352 E.02163
G1 X133.295 Y27.406 E.07523
G1 X132.767 Y27.406 E.0135
