; generated by PrusaSlicer 2.5.0+linux-x64-GTK3 on 2022-12-22 at 18:33:44 UTC


;
;
; 

; external perimeters extrusion width = 0.45mm
; perimeters extrusion width = 0.45mm
; infill extrusion width = 0.45mm
; solid infill extrusion width = 0.45mm
; top infill extrusion width = 0.40mm
; first layer extrusion width = 0.42mm

; external perimeters extrusion width = 0.45mm
; perimeters extrusion width = 0.45mm
; infill extrusion width = 0.45mm
; solid infill extrusion width = 0.45mm
; top infill extrusion width = 0.40mm
; first layer extrusion width = 0.42mm

M73 P0 R24
M73 Q0 S25
M201 X1000 Y1000 Z200 E5000 ; sets maximum accelerations, mm/sec^2
M203 X200 Y200 Z12 E120 ; sets maximum feedrates, mm / sec
M204 P1250 R1250 T1250 ; sets acceleration (P, T) and retract acceleration (R), mm/sec^2
M205 X8.00 Y8.00 Z0.40 E4.50 ; sets the jerk limits, mm/sec
M205 S0 T0 ; sets the minimum extruding and travel feed rate, mm/sec
M107
;TYPE:Custom
M862.3 P "MK3S" ; printer model check
M862.1 P0.4 ; nozzle diameter check
M115 U3.11.0 ; tell printer latest fw version
G90 ; use absolute coordinates
M83 ; extruder relative mode
M104 S215 ; set extruder temp
M140 S60 ; set bed temp
M190 S60 ; wait for bed temp
M109 S215 ; wait for extruder temp
G28 W ; home all without mesh bed level
G80 ; mesh bed leveling

G1 Z0.2 F720
G1 Y-3 F1000 ; go outside print area
G92 E0
G1 X60 E9 F1000 ; intro line
G1 X100 E12.5 F1000 ; intro line

G92 E0
M221 S95

; Don't change E values below. Excessive value can damage the printer.
M907 E430 ; set extruder motor current
G21 ; set units to millimeters
G90 ; use absolute coordinates
M83 ; use relative distances for extrusion
M900 K0.05 ; Filament gcode LA 1.5
M900 K30 ; Filament gcode LA 1.0
M107
;LAYER_CHANGE
;Z:0.2
;HEIGHT:0.2
;BEFORE_LAYER_CHANGE
G92 E0.0
;0.2


G1 E-.8 F2100
M73 Q0 S24
G1 Z.4 F720
;AFTER_LAYER_CHANGE
;0.2
G1 X106.563 Y87.564 F10800
G1 Z.2 F720
G1 E.8 F2100
M204 S800
;TYPE:Skirt/Brim
;WIDTH:0.42
G1 F1200
G1 X107.664 Y86.759 E.04278
G1 X108.457 Y86.623 E.02523
G1 X136.384 Y86.623 E.87561
G1 X137.691 Y87.015 E.04278
G1 X138.362 Y87.683 E.02971
G1 X139.676 Y89.707 E.07565
G1 X140.849 Y91.879 E.07741
G1 X141.741 Y93.897 E.06916
G1 X142.54 Y96.171 E.07558
G1 X143.221 Y98.793 E.08496
G1 X143.646 Y101.284 E.07921
G1 X143.854 Y103.824 E.07992
G1 X143.851 Y106.292 E.07738
G1 X141.116 Y146.974 E1.27843
G1 X140.719 Y149.407 E.0773
G1 X140.123 Y151.799 E.0773
G1 X139.333 Y154.135 E.0773
G1 X138.353 Y156.397 E.0773
G1 X137.13 Y158.675 E.08106
G1 X135.774 Y160.761 E.07804
G1 X134.696 Y161.598 E.04278
G1 X133.838 Y161.759 E.02738
G1 X105.912 Y161.759 E.87561
G1 X104.605 Y161.367 E.04278
G1 X103.728 Y160.321 E.04278
G1 X103.535 Y159.382 E.03008
G1 X103.535 Y127.382 E1.00334
G1 X106.085 Y88.843 E1.211
M73 P1 R24
M73 Q1 S24
G1 X106.542 Y87.621 E.0409
M204 S1000
; printing object DDlock-Body.stl id:0 copy 0
;WIPE_START
G1 F8640
G1 X107.664 Y86.759 E-.32671
G1 X108.457 Y86.623 E-.18583
G1 X109.529 Y86.623 E-.24746
;WIPE_END
G1 E-.04 F2100
G1 Z.6 F720
G1 X120.765 Y117.765 F10800
G1 Z.2 F720
G1 E.8 F2100
M204 S800
;TYPE:Perimeter
;WIDTH:0.419999
G1 F1200
G1 X120.945 Y117.721 E.0058
G1 X121.131 Y117.561 E.00769
G1 X121.208 Y117.42 E.00503
G1 X121.244 Y117.221 E.00633
G1 X121.244 Y92.779 E.76639
G1 X121.208 Y92.58 E.00633
G1 X121.131 Y92.439 E.00503
G1 X120.945 Y92.279 E.00769
G1 X120.679 Y92.213 E.0086
G1 X112.236 Y92.213 E.26472
G1 X112.138 Y92.221 E.00308
G1 X111.836 Y92.379 E.01068
G1 X111.717 Y92.554 E.00665
G1 X111.67 Y92.779 E.00719
G1 X111.67 Y103.463 E.335
G1 X109.244 Y103.463 E.07606
G1 X109.244 Y89.787 E.4288
G1 X135.47 Y89.787 E.82227
G1 X136.075 Y90.688 E.03404
G1 X136.397 Y91.094 E.01625
G1 X136.658 Y91.513 E.01547
G1 X137.509 Y93.061 E.05539
G1 X137.691 Y93.427 E.0128
G1 X138.415 Y95.054 E.05585
G1 X139.19 Y97.238 E.07265
G1 X139.768 Y99.437 E.07131
G1 X140.146 Y101.632 E.06982
G1 X140.338 Y103.875 E.07058
G1 X140.34 Y106.088 E.06939
G1 X140.161 Y108.256 E.06821
G1 X139.859 Y110.071 E.05769
G1 X139.763 Y110.149 E.00385
G1 X139.667 Y110.35 E.007
G1 X139.414 Y111.352 E.0324
G1 X139.291 Y112.278 E.02928
G1 X139.196 Y112.365 E.00405
G1 X139.119 Y112.512 E.00522
G1 X138.792 Y113.47 E.03173
G1 X138.612 Y114.308 E.02687
G1 X138.452 Y114.425 E.00621
G1 X138.312 Y114.619 E.0075
G1 X138.061 Y115.191 E.0196
G1 X137.956 Y115.639 E.01442
G1 X137.686 Y116.559 E.03006
G1 X137.516 Y116.926 E.01267
G1 X136.717 Y118.38 E.05204
G1 X136.415 Y118.889 E.01855
G1 X135.53 Y120.213 E.04992
G1 X109.244 Y120.213 E.82417
G1 X109.244 Y106.537 E.4288
G1 X111.67 Y106.537 E.07606
G1 X111.67 Y117.221 E.335
G1 X111.679 Y117.319 E.00308
G1 X111.836 Y117.621 E.01068
G1 X112.011 Y117.741 E.00665
G1 X112.236 Y117.787 E.00719
G1 X120.707 Y117.78 E.26561
M204 S1000
G1 X120.679 Y117.41 F10800
M204 S800
;TYPE:External perimeter
G1 F1200
G1 X120.83 Y117.335 E.00529
G1 X120.867 Y117.221 E.00374
G1 X120.867 Y92.779 E.76639
G1 X120.83 Y92.665 E.00374
G1 X120.679 Y92.59 E.00529
G1 X112.236 Y92.59 E.26472
G1 X112.103 Y92.645 E.00452
G1 X112.047 Y92.779 E.00452
G1 X112.047 Y103.84 E.34682
G1 X108.867 Y103.84 E.09971
M73 P2 R24
M73 Q2 S24
G1 X108.867 Y89.41 E.45244
G1 X135.671 Y89.41 E.84041
G1 X136.371 Y90.454 E.03941
G1 X136.693 Y90.86 E.01625
G1 X136.985 Y91.324 E.0172
G1 X137.84 Y92.88 E.05565
G1 X138.032 Y93.266 E.01354
G1 X138.766 Y94.914 E.05656
G1 X139.551 Y97.126 E.0736
G1 X140.137 Y99.357 E.07232
G1 X140.521 Y101.584 E.07084
G1 X140.715 Y103.859 E.07159
G1 X140.717 Y106.104 E.07039
G1 X140.535 Y108.303 E.06919
G1 X140.205 Y110.285 E.063
G1 X140.135 Y110.318 E.00245
G1 X140.033 Y110.442 E.00504
G1 X139.78 Y111.444 E.0324
G1 X139.645 Y112.483 E.03283
G1 X139.56 Y112.532 E.0031
G1 X139.476 Y112.634 E.00414
G1 X139.148 Y113.592 E.03173
G1 X138.938 Y114.587 E.0319
G1 X138.751 Y114.674 E.00648
G1 X138.657 Y114.77 E.00419
G1 X138.407 Y115.342 E.0196
G1 X138.322 Y115.731 E.01247
G1 X138.048 Y116.665 E.03053
G1 X137.85 Y117.101 E.01499
G1 X136.996 Y118.655 E.05561
G1 X136.733 Y119.092 E.016
G1 X135.732 Y120.59 E.0565
G1 X108.867 Y120.59 E.84232
G1 X108.867 Y106.16 E.45244
G1 X112.047 Y106.16 E.09971
G1 X112.047 Y117.221 E.34682
G1 X112.103 Y117.355 E.00452
G1 X112.236 Y117.41 E.00452
G1 X120.619 Y117.41 E.26284
M204 S1000
G1 X120.803 Y117.524 F10800
;WIPE_START
G1 F8640
G1 X120.83 Y117.335 E-.0517
G1 X120.867 Y117.221 E-.02753
G1 X120.867 Y114.273 E-.68076
;WIPE_END
G1 E-.04 F2100
G1 Z.6 F720
G1 X123.695 Y117.331 F10800
G1 Z.2 F720
G1 E.8 F2100
M204 S800
;TYPE:Perimeter
G1 F1200
G1 X123.67 Y117.221 E.00351
G1 X123.67 Y92.779 E.76639
G1 X123.706 Y92.58 E.00633
G1 X123.783 Y92.439 E.00503
G1 X123.97 Y92.279 E.00769
G1 X124.236 Y92.213 E.0086
G1 X135.07 Y92.213 E.33971
G1 X135.357 Y92.291 E.0093
G1 X135.664 Y92.609 E.01387
G1 X136.418 Y94.064 E.05139
G1 X137.258 Y96.079 E.06845
G1 X137.404 Y96.159 E.00519
G1 X137.607 Y96.442 E.01094
G1 X137.836 Y97.159 E.02361
G1 X138.001 Y98.197 E.03295
G1 X138.09 Y98.271 E.00361
G1 X138.188 Y98.486 E.00741
G1 X138.429 Y99.56 E.03453
G1 X138.499 Y100.292 E.02304
G1 X138.578 Y100.356 E.0032
G1 X138.658 Y100.579 E.0074
G1 X138.806 Y101.697 E.03537
G1 X138.816 Y102.447 E.02351
G1 X138.846 Y102.693 E.00779
G1 X138.932 Y104.683 E.06246
G1 X138.829 Y107.098 E.07576
G1 X138.561 Y109.204 E.06658
G1 X138.114 Y111.28 E.06658
G1 X137.863 Y112.105 E.02702
G1 X137.493 Y113.311 E.03956
G1 X136.703 Y115.278 E.06646
G1 X136.341 Y116.016 E.02577
G1 X135.572 Y117.484 E.05196
G1 X135.482 Y117.61 E.00487
G1 X135.336 Y117.721 E.00575
G1 X135.071 Y117.787 E.00856
G1 X124.236 Y117.787 E.33973
G1 X123.97 Y117.721 E.0086
G1 X123.783 Y117.561 E.00769
G1 X123.717 Y117.387 E.00584
M204 S1000
G1 X124.047 Y117.221 F10800
M204 S800
;TYPE:External perimeter
G1 F1200
G1 X124.047 Y92.779 E.76639
G1 X124.085 Y92.665 E.00374
G1 X124.236 Y92.59 E.00529
G1 X135.07 Y92.59 E.33971
G1 X135.218 Y92.661 E.00513
G1 X135.336 Y92.794 E.00558
G1 X136.083 Y94.238 E.05095
G1 X136.967 Y96.361 E.07213
G1 X137.18 Y96.462 E.00739
G1 X137.248 Y96.557 E.00365
G1 X137.477 Y97.274 E.02361
G1 X137.655 Y98.408 E.036
G1 X137.787 Y98.497 E.005
G1 X137.82 Y98.568 E.00247
G1 X138.061 Y99.643 E.03453
G1 X138.134 Y100.439 E.02508
G1 X138.284 Y100.628 E.00756
G1 X138.433 Y101.747 E.03537
G1 X138.439 Y102.449 E.02202
G1 X138.469 Y102.71 E.00823
G1 X138.555 Y104.667 E.06144
G1 X138.452 Y107.082 E.07576
G1 X138.187 Y109.156 E.06558
G1 X137.746 Y111.201 E.06558
G1 X137.503 Y111.994 E.02602
G1 X137.132 Y113.2 E.03956
G1 X136.353 Y115.137 E.06546
G1 X136.007 Y115.841 E.02459
G1 X135.238 Y117.309 E.05196
G1 X135.159 Y117.388 E.0035
G1 X134.882 Y117.41 E.00873
G1 X124.236 Y117.41 E.3338
G1 X124.085 Y117.335 E.00529
M73 P3 R24
M73 Q3 S24
G1 X124.066 Y117.278 E.00186
M204 S1000
G1 X123.661 Y117.118 F10800
;WIPE_START
G1 F8640
G1 X124.064 Y113.987 E-.76
;WIPE_END
G1 E-.04 F2100
G1 Z.6 F720
G1 X134.634 Y89.9 F10800
G1 Z.2 F720
G1 E.8 F2100
M204 S800
;TYPE:Solid infill
;WIDTH:0.422185
G1 F1200
G1 X136.445 Y91.711 E.08078
G1 X137.099 Y92.902 E.04283
G1 X134.267 Y90.07 E.12629
G1 X133.731 Y90.07 E.01691
G1 X137.618 Y93.957 E.17336
G1 X138.047 Y94.923 E.03334
G1 X136.249 Y93.125 E.08021
G1 X135.908 Y92.466 E.02338
G1 X135.685 Y92.193 E.01112
G1 X135.499 Y92.045 E.0075
G1 X135.216 Y91.941 E.0095
G1 X135.061 Y91.937 E.00488
G1 X133.194 Y90.07 E.08327
G1 X132.658 Y90.07 E.01691
G1 X134.518 Y91.93 E.08296
G1 X133.982 Y91.93 E.01691
G1 X132.121 Y90.07 E.08296
G1 X131.585 Y90.07 E.01691
G1 X133.445 Y91.93 E.08296
G1 X132.909 Y91.93 E.01691
G1 X131.049 Y90.07 E.08296
G1 X130.512 Y90.07 E.01691
G1 X132.373 Y91.93 E.08296
G1 X131.836 Y91.93 E.01691
G1 X129.976 Y90.07 E.08296
G1 X129.44 Y90.07 E.01691
G1 X131.3 Y91.93 E.08296
G1 X130.763 Y91.93 E.01691
G1 X128.903 Y90.07 E.08296
G1 X128.367 Y90.07 E.01691
G1 X130.227 Y91.93 E.08296
G1 X129.691 Y91.93 E.01691
G1 X127.831 Y90.07 E.08296
G1 X127.294 Y90.07 E.01691
G1 X129.154 Y91.93 E.08296
G1 X128.618 Y91.93 E.01691
G1 X126.758 Y90.07 E.08296
G1 X126.221 Y90.07 E.01691
G1 X128.082 Y91.93 E.08296
G1 X127.545 Y91.93 E.01691
G1 X125.685 Y90.07 E.08296
G1 X125.149 Y90.07 E.01691
G1 X127.009 Y91.93 E.08296
G1 X126.473 Y91.93 E.01691
G1 X124.612 Y90.07 E.08296
G1 X124.076 Y90.07 E.01691
G1 X125.936 Y91.93 E.08296
G1 X125.4 Y91.93 E.01691
G1 X123.54 Y90.07 E.08296
G1 X123.003 Y90.07 E.01691
G1 X124.864 Y91.93 E.08296
G1 X124.327 Y91.93 E.01691
G1 X122.467 Y90.07 E.08296
G1 X121.931 Y90.07 E.01691
G1 X123.876 Y92.015 E.08676
G1 X123.833 Y92.03 E.00142
G1 X123.575 Y92.251 E.01071
G1 X121.394 Y90.07 E.09727
G1 X120.858 Y90.07 E.01691
G1 X123.414 Y92.626 E.11398
G1 X123.387 Y92.77 E.00463
G1 X123.387 Y93.136 E.01153
G1 X120.321 Y90.07 E.13674
G1 X119.785 Y90.07 E.01691
G1 X123.387 Y93.672 E.16066
G1 X123.387 Y94.209 E.01691
G1 X119.249 Y90.07 E.18458
G1 X118.712 Y90.07 E.01691
G1 X120.573 Y91.93 E.08296
G1 X120.69 Y91.93 E.00371
G1 X121.078 Y92.027 E.0126
G1 X121.356 Y92.266 E.01156
G1 X121.475 Y92.482 E.00777
G1 X121.527 Y92.77 E.00924
G1 X121.527 Y92.885 E.00361
G1 X123.387 Y94.745 E.08296
G1 X123.387 Y95.281 E.01691
G1 X121.527 Y93.421 E.08296
G1 X121.527 Y93.957 E.01691
G1 X123.387 Y95.818 E.08296
G1 X123.387 Y96.354 E.01691
G1 X121.527 Y94.494 E.08296
G1 X121.527 Y95.03 E.01691
G1 X123.387 Y96.89 E.08296
G1 X123.387 Y97.427 E.01691
G1 X121.527 Y95.566 E.08296
G1 X121.527 Y96.103 E.01691
G1 X123.387 Y97.963 E.08296
G1 X123.387 Y98.499 E.01691
G1 X121.527 Y96.639 E.08296
G1 X121.527 Y97.176 E.01691
G1 X123.387 Y99.036 E.08296
G1 X123.387 Y99.572 E.01691
G1 X121.527 Y97.712 E.08296
G1 X121.527 Y98.248 E.01691
G1 X123.387 Y100.109 E.08296
G1 X123.387 Y100.645 E.01691
G1 X121.527 Y98.785 E.08296
G1 X121.527 Y99.321 E.01691
G1 X123.387 Y101.181 E.08296
G1 X123.387 Y101.718 E.01691
G1 X121.527 Y99.857 E.08296
G1 X121.527 Y100.394 E.01691
G1 X123.387 Y102.254 E.08296
G1 X123.387 Y102.79 E.01691
G1 X121.527 Y100.93 E.08296
G1 X121.527 Y101.466 E.01691
G1 X123.387 Y103.327 E.08296
G1 X123.387 Y103.863 E.01691
G1 X121.527 Y102.003 E.08296
G1 X121.527 Y102.539 E.01691
G1 X123.387 Y104.399 E.08296
G1 X123.387 Y104.936 E.01691
G1 X121.527 Y103.076 E.08296
G1 X121.527 Y103.612 E.01691
G1 X123.387 Y105.472 E.08296
G1 X123.387 Y106.009 E.01691
G1 X121.527 Y104.148 E.08296
G1 X121.527 Y104.685 E.01691
G1 X123.387 Y106.545 E.08296
G1 X123.387 Y107.081 E.01691
G1 X121.527 Y105.221 E.08296
G1 X121.527 Y105.757 E.01691
G1 X123.387 Y107.618 E.08296
G1 X123.387 Y108.154 E.01691
G1 X121.527 Y106.294 E.08296
G1 X121.527 Y106.83 E.01691
G1 X123.387 Y108.69 E.08296
G1 X123.387 Y109.227 E.01691
G1 X121.527 Y107.366 E.08296
G1 X121.527 Y107.903 E.01691
G1 X123.387 Y109.763 E.08296
G1 X123.387 Y110.299 E.01691
G1 X121.527 Y108.439 E.08296
G1 X121.527 Y108.976 E.01691
G1 X123.387 Y110.836 E.08296
G1 X123.387 Y111.372 E.01691
G1 X121.527 Y109.512 E.08296
G1 X121.527 Y110.048 E.01691
G1 X123.387 Y111.908 E.08296
G1 X123.387 Y112.445 E.01691
G1 X121.527 Y110.585 E.08296
G1 X121.527 Y111.121 E.01691
G1 X123.387 Y112.981 E.08296
G1 X123.387 Y113.518 E.01691
G1 X121.527 Y111.657 E.08296
G1 X121.527 Y112.194 E.01691
G1 X123.387 Y114.054 E.08296
G1 X123.387 Y114.59 E.01691
M73 P3 R23
G1 X121.527 Y112.73 E.08296
G1 X121.527 Y113.266 E.01691
G1 X123.387 Y115.127 E.08296
G1 X123.387 Y115.663 E.01691
G1 X121.527 Y113.803 E.08296
G1 X121.527 Y114.339 E.01691
G1 X123.387 Y116.199 E.08296
G1 X123.387 Y116.736 E.01691
G1 X121.357 Y114.706 E.09053
M204 S1000
;WIPE_START
G1 F8640
G1 X123.387 Y116.736 E-.66287
G1 X123.387 Y116.315 E-.09713
;WIPE_END
G1 E-.04 F2100
G1 Z.6 F720
G1 X111.557 Y107.051 F10800
G1 Z.2 F720
G1 E.8 F2100
M204 S800
G1 F1200
M73 Q4 S24
G1 X111.326 Y106.82 E.0103
G1 X110.79 Y106.82 E.01691
G1 X111.387 Y107.418 E.02666
G1 X111.387 Y107.954 E.01691
G1 X110.253 Y106.82 E.05058
M73 P4 R23
G1 X109.717 Y106.82 E.01691
G1 X111.387 Y108.49 E.0745
G1 X111.387 Y109.027 E.01691
G1 X109.527 Y107.166 E.08296
G1 X109.527 Y107.703 E.01691
G1 X111.387 Y109.563 E.08296
G1 X111.387 Y110.099 E.01691
G1 X109.527 Y108.239 E.08296
G1 X109.527 Y108.775 E.01691
G1 X111.387 Y110.636 E.08296
G1 X111.387 Y111.172 E.01691
G1 X109.527 Y109.312 E.08296
G1 X109.527 Y109.848 E.01691
G1 X111.387 Y111.708 E.08296
G1 X111.387 Y112.245 E.01691
G1 X109.527 Y110.385 E.08296
G1 X109.527 Y110.921 E.01691
G1 X111.387 Y112.781 E.08296
G1 X111.387 Y113.318 E.01691
G1 X109.527 Y111.457 E.08296
G1 X109.527 Y111.994 E.01691
G1 X111.387 Y113.854 E.08296
G1 X111.387 Y114.39 E.01691
G1 X109.527 Y112.53 E.08296
G1 X109.527 Y113.066 E.01691
G1 X111.387 Y114.927 E.08296
G1 X111.387 Y115.463 E.01691
G1 X109.527 Y113.603 E.08296
G1 X109.527 Y114.139 E.01691
G1 X111.387 Y115.999 E.08296
G1 X111.387 Y116.536 E.01691
G1 X109.357 Y114.506 E.09053
M204 S1000
;WIPE_START
G1 F8640
G1 X111.387 Y116.536 E-.66287
G1 X111.387 Y116.115 E-.09714
;WIPE_END
G1 E-.04 F2100
G1 Z.6 F720
G1 X120.206 Y92.1 F10800
G1 Z.2 F720
G1 E.8 F2100
M204 S800
G1 F1200
G1 X118.176 Y90.07 E.09053
G1 X117.64 Y90.07 E.01691
G1 X119.5 Y91.93 E.08296
G1 X118.964 Y91.93 E.01691
G1 X117.103 Y90.07 E.08296
G1 X116.567 Y90.07 E.01691
G1 X118.427 Y91.93 E.08296
G1 X117.891 Y91.93 E.01691
M73 Q4 S23
G1 X116.031 Y90.07 E.08296
G1 X115.494 Y90.07 E.01691
G1 X117.354 Y91.93 E.08296
G1 X116.818 Y91.93 E.01691
G1 X114.958 Y90.07 E.08296
G1 X114.421 Y90.07 E.01691
G1 X116.282 Y91.93 E.08296
G1 X115.745 Y91.93 E.01691
G1 X113.885 Y90.07 E.08296
G1 X113.349 Y90.07 E.01691
G1 X115.209 Y91.93 E.08296
G1 X114.673 Y91.93 E.01691
G1 X112.812 Y90.07 E.08296
G1 X112.276 Y90.07 E.01691
G1 X114.136 Y91.93 E.08296
G1 X113.6 Y91.93 E.01691
G1 X111.74 Y90.07 E.08296
G1 X111.203 Y90.07 E.01691
G1 X113.064 Y91.93 E.08296
G1 X112.527 Y91.93 E.01691
G1 X110.667 Y90.07 E.08296
G1 X110.131 Y90.07 E.01691
G1 X112.023 Y91.962 E.08439
G1 X111.895 Y92 E.0042
G1 X111.675 Y92.15 E.00841
G1 X109.594 Y90.07 E.09278
G1 X109.527 Y90.07 E.00211
G1 X109.527 Y90.539 E.0148
G1 X111.451 Y92.463 E.08579
G1 X111.387 Y92.769 E.00986
G1 X111.387 Y92.936 E.00526
G1 X109.527 Y91.076 E.08296
G1 X109.527 Y91.612 E.01691
G1 X111.387 Y93.472 E.08296
G1 X111.387 Y94.009 E.01691
G1 X109.527 Y92.148 E.08296
