; generated by PrusaSlicer 2.5.0+linux-x64-GTK3 on 2022-12-22 at 16:56:42 UTC


;
;
; 

; external perimeters extrusion width = 0.45mm
; perimeters extrusion width = 0.45mm
; infill extrusion width = 0.45mm
; solid infill extrusion width = 0.45mm
; top infill extrusion width = 0.40mm
; first layer extrusion width = 0.42mm

; external perimeters extrusion width = 0.45mm
; perimeters extrusion width = 0.45mm
; infill extrusion width = 0.45mm
; solid infill extrusion width = 0.45mm
; top infill extrusion width = 0.40mm
; first layer extrusion width = 0.42mm

M73 P0 R20
M73 Q0 S20
M201 X1000 Y1000 Z200 E5000 ; sets maximum accelerations, mm/sec^2
M203 X200 Y200 Z12 E120 ; sets maximum feedrates, mm / sec
M204 P1250 R1250 T1250 ; sets acceleration (P, T) and retract acceleration (R), mm/sec^2
M205 X8.00 Y8.00 Z0.40 E4.50 ; sets the jerk limits, mm/sec
M205 S0 T0 ; sets the minimum extruding and travel feed rate, mm/sec
M107
;TYPE:Custom
M862.3 P "MK3S" ; printer model check
M862.1 P0.4 ; nozzle diameter check
M115 U3.11.0 ; tell printer latest fw version
G90 ; use absolute coordinates
M83 ; extruder relative mode
M104 S215 ; set extruder temp
M140 S60 ; set bed temp
M190 S60 ; wait for bed temp
M109 S215 ; wait for extruder temp
G28 W ; home all without mesh bed level
G80 ; mesh bed leveling

G1 Z0.2 F720
G1 Y-3 F1000 ; go outside print area
G92 E0
G1 X60 E9 F1000 ; intro line
G1 X100 E12.5 F1000 ; intro line

G92 E0
M221 S95

; Don't change E values below. Excessive value can damage the printer.
M907 E430 ; set extruder motor current
G21 ; set units to millimeters
G90 ; use absolute coordinates
M83 ; use relative distances for extrusion
M900 K0.05 ; Filament gcode LA 1.5
M900 K30 ; Filament gcode LA 1.0
M107
;LAYER_CHANGE
;Z:0.2
;HEIGHT:0.2
;BEFORE_LAYER_CHANGE
G92 E0.0
;0.2


G1 E-.8 F2100
G1 Z.4 F720
;AFTER_LAYER_CHANGE
;0.2
G1 X107.717 Y52.614 F10800
G1 Z.2 F720
G1 E.8 F2100
M204 S800
;TYPE:Skirt/Brim
;WIDTH:0.42
G1 F1200
G1 X108.763 Y51.738 E.04278
G1 X109.702 Y51.544 E.03008
G1 X132.702 Y51.544 E.72115
G1 X134.009 Y51.936 E.04278
G1 X134.607 Y52.499 E.02576
G1 X135.857 Y54.186 E.06581
G1 X136.967 Y55.967 E.06581
G1 X137.931 Y57.831 E.06581
G1 X138.743 Y59.767 E.06581
G1 X139.397 Y61.761 E.06581
G1 X139.889 Y63.801 E.06581
G1 X140.217 Y65.874 E.06581
G1 X140.376 Y67.891 E.06344
G1 X141.525 Y103.97 E1.1318
G1 X141.526 Y105.954 E.06221
G1 X141.366 Y108.047 E.06581
G1 X141.038 Y110.12 E.06581
G1 X140.546 Y112.16 E.06581
G1 X139.891 Y114.155 E.06581
G1 X138.998 Y116.262 E.07177
G1 X138.116 Y117.954 E.05984
G1 X137.005 Y119.735 E.06581
G1 X135.756 Y121.422 E.06581
G1 X134.66 Y122.235 E.04278
G1 X133.851 Y122.377 E.02576
G1 X110.851 Y122.377 E.72115
G1 X109.544 Y121.985 E.04278
M73 P1 R20
M73 Q1 S20
G1 X108.668 Y120.94 E.04278
G1 X108.475 Y120.076 E.02776
G1 X107.326 Y83.997 E1.1318
G1 X107.325 Y53.921 E.943
G1 X107.7 Y52.672 E.0409
M204 S1000
; printing object DDlock-Body.stl id:0 copy 0
;WIPE_START
G1 F8640
G1 X108.763 Y51.738 E-.32671
G1 X109.702 Y51.544 E-.22155
G1 X110.619 Y51.544 E-.21174
;WIPE_END
G1 E-.04 F2100
G1 Z.6 F720
G1 X122.159 Y117.765 F10800
G1 Z.2 F720
G1 E.8 F2100
M204 S800
;TYPE:Perimeter
;WIDTH:0.419999
G1 F1200
G1 X122.339 Y117.721 E.0058
G1 X122.525 Y117.561 E.00769
G1 X122.602 Y117.42 E.00503
G1 X122.638 Y117.221 E.00633
G1 X122.638 Y92.779 E.76639
G1 X122.602 Y92.58 E.00633
G1 X122.525 Y92.439 E.00503
G1 X122.339 Y92.279 E.00769
G1 X122.073 Y92.213 E.0086
G1 X113.63 Y92.213 E.26472
G1 X113.532 Y92.221 E.00308
G1 X113.23 Y92.379 E.01068
G1 X113.064 Y92.779 E.01357
G1 X113.064 Y103.463 E.335
G1 X111.638 Y103.463 E.04471
G1 X111.638 Y90.787 E.39744
G1 X133.456 Y90.787 E.6841
G1 X134.343 Y91.975 E.04647
G1 X135.325 Y93.537 E.05786
G1 X136.179 Y95.173 E.05786
G1 X136.899 Y96.873 E.05786
G1 X137.48 Y98.624 E.05786
G1 X137.92 Y100.416 E.05786
G1 X138.214 Y102.238 E.05786
G1 X138.362 Y104.077 E.05786
G1 X138.362 Y105.923 E.05786
G1 X138.214 Y107.762 E.05786
G1 X137.92 Y109.584 E.05786
G1 X137.48 Y111.376 E.05786
G1 X136.899 Y113.127 E.05786
G1 X136.179 Y114.827 E.05786
G1 X135.325 Y116.463 E.05786
G1 X134.343 Y118.025 E.05786
G1 X133.456 Y119.213 E.04647
G1 X111.638 Y119.213 E.6841
G1 X111.638 Y106.537 E.39744
M73 Q2 S20
G1 X113.064 Y106.537 E.04471
M73 P2 R19
G1 X113.064 Y117.221 E.335
G1 X113.072 Y117.319 E.00308
G1 X113.23 Y117.621 E.01068
G1 X113.63 Y117.787 E.01357
G1 X122.101 Y117.78 E.26561
M204 S1000
G1 X122.073 Y117.41 F10800
M204 S800
;TYPE:External perimeter
G1 F1200
G1 X122.223 Y117.335 E.00529
G1 X122.261 Y117.221 E.00374
G1 X122.261 Y92.779 E.76639
G1 X122.223 Y92.665 E.00374
G1 X122.073 Y92.59 E.00529
G1 X113.63 Y92.59 E.26472
G1 X113.496 Y92.645 E.00452
G1 X113.441 Y92.779 E.00452
G1 X113.441 Y103.84 E.34682
G1 X111.261 Y103.84 E.06835
G1 X111.261 Y90.41 E.42109
G1 X133.645 Y90.41 E.70185
G1 X134.654 Y91.761 E.05288
M73 Q2 S19
G1 X135.652 Y93.35 E.05881
G1 X136.52 Y95.012 E.05881
G1 X137.252 Y96.739 E.05881
G1 X137.843 Y98.519 E.05881
G1 X138.289 Y100.341 E.05881
G1 X138.589 Y102.193 E.05881
G1 X138.739 Y104.062 E.05881
G1 X138.739 Y105.938 E.05881
G1 X138.589 Y107.807 E.05881
G1 X138.289 Y109.659 E.05881
G1 X137.843 Y111.481 E.05881
G1 X137.252 Y113.261 E.05881
G1 X136.52 Y114.988 E.05881
G1 X135.652 Y116.65 E.05881
G1 X134.654 Y118.239 E.05881
G1 X133.645 Y119.59 E.05288
G1 X111.261 Y119.59 E.70185
G1 X111.261 Y106.16 E.42109
G1 X113.441 Y106.16 E.06835
G1 X113.441 Y117.221 E.34682
G1 X113.496 Y117.355 E.00452
G1 X113.63 Y117.41 E.00452
G1 X122.013 Y117.41 E.26284
M204 S1000
G1 X122.197 Y117.524 F10800
;WIPE_START
G1 F8640
G1 X122.223 Y117.335 E-.0517
G1 X122.261 Y117.221 E-.02753
G1 X122.261 Y114.273 E-.68076
;WIPE_END
G1 E-.04 F2100
G1 Z.6 F720
G1 X124.089 Y117.331 F10800
G1 Z.2 F720
G1 E.8 F2100
M204 S800
;TYPE:Perimeter
G1 F1200
G1 X124.064 Y117.221 E.00352
G1 X124.064 Y92.779 E.76639
G1 X124.1 Y92.58 E.00633
G1 X124.177 Y92.439 E.00503
G1 X124.363 Y92.279 E.00769
G1 X124.63 Y92.213 E.0086
G1 X131.97 Y92.213 E.23014
G1 X132.361 Y92.37 E.01321
M73 P3 R19
M73 Q3 S19
G1 X133.459 Y93.996 E.06151
G1 X134.316 Y95.551 E.05568
G1 X135.041 Y97.172 E.05568
G1 X135.159 Y97.504 E.01103
G1 X135.627 Y98.848 E.04465
G1 X136.071 Y100.568 E.05568
G1 X136.381 Y102.426 E.05904
G1 X136.521 Y104.09 E.05238
G1 X136.522 Y105.864 E.05562
G1 X136.376 Y107.634 E.05568
G1 X136.081 Y109.386 E.05568
G1 X135.627 Y111.152 E.05717
G1 X135.041 Y112.828 E.05568
G1 X134.316 Y114.449 E.05568
G1 X133.459 Y116.004 E.05568
G1 X132.441 Y117.535 E.05763
G1 X132.361 Y117.63 E.00391
G1 X132.067 Y117.779 E.0103
G1 X131.97 Y117.787 E.00308
G1 X124.63 Y117.787 E.23014
G1 X124.363 Y117.721 E.0086
G1 X124.177 Y117.561 E.00769
G1 X124.111 Y117.387 E.00584
M204 S1000
G1 X124.441 Y117.221 F10800
M204 S800
;TYPE:External perimeter
G1 F1200
G1 X124.441 Y92.779 E.76639
G1 X124.479 Y92.665 E.00374
G1 X124.63 Y92.59 E.00529
G1 X131.97 Y92.59 E.23014
G1 X132.127 Y92.674 E.00558
G1 X133.145 Y94.205 E.05763
G1 X133.986 Y95.733 E.05469
G1 X134.698 Y97.329 E.0548
G1 X134.803 Y97.628 E.00993
G1 X135.272 Y98.975 E.04474
G1 X135.707 Y100.664 E.05467
G1 X136.005 Y102.457 E.057
G1 X136.145 Y104.121 E.05234
G1 X136.145 Y105.867 E.05476
G1 X136 Y107.603 E.05461
G1 X135.709 Y109.323 E.05469
G1 X135.271 Y111.027 E.05519
G1 X134.697 Y112.674 E.05469
G1 X133.986 Y114.267 E.05469
G1 X133.145 Y115.795 E.05469
G1 X132.127 Y117.326 E.05763
G1 X131.97 Y117.41 E.00558
G1 X124.63 Y117.41 E.23014
G1 X124.479 Y117.335 E.00529
G1 X124.46 Y117.278 E.00186
M204 S1000
G1 X124.055 Y117.118 F10800
;WIPE_START
G1 F8640
G1 X124.457 Y113.987 E-.76
;WIPE_END
G1 E-.04 F2100
G1 Z.6 F720
G1 X132.623 Y90.9 F10800
G1 Z.2 F720
G1 E.8 F2100
M204 S800
;TYPE:Solid infill
;WIDTH:0.422431
G1 F1200
G1 X134.536 Y92.813 E.08537
G1 X135.079 Y93.678 E.03224
G1 X135.314 Y94.128 E.01602
G1 X132.256 Y91.07 E.1365
G1 X131.719 Y91.07 E.01694
G1 X135.9 Y95.251 E.18658
G1 X136.302 Y96.189 E.03222
G1 X133.182 Y93.069 E.13924
G1 X132.673 Y92.304 E.02899
G1 X132.548 Y92.155 E.00616
G1 X132.079 Y91.967 E.01594
G1 X131.182 Y91.07 E.04003
G1 X130.646 Y91.07 E.01694
G1 X131.506 Y91.93 E.03839
G1 X130.969 Y91.93 E.01694
G1 X130.109 Y91.07 E.03839
G1 X129.572 Y91.07 E.01694
G1 X130.433 Y91.93 E.03839
G1 X129.896 Y91.93 E.01694
G1 X129.036 Y91.07 E.03839
G1 X128.499 Y91.07 E.01694
G1 X129.359 Y91.93 E.03839
G1 X128.822 Y91.93 E.01694
G1 X127.962 Y91.07 E.03839
G1 X127.425 Y91.07 E.01694
G1 X128.286 Y91.93 E.03839
G1 X127.749 Y91.93 E.01694
G1 X126.889 Y91.07 E.03839
G1 X126.352 Y91.07 E.01694
G1 X127.212 Y91.93 E.03839
G1 X126.676 Y91.93 E.01694
G1 X125.815 Y91.07 E.03839
G1 X125.279 Y91.07 E.01694
G1 X126.139 Y91.93 E.03839
G1 X125.602 Y91.93 E.01694
G1 X124.742 Y91.07 E.03839
G1 X124.205 Y91.07 E.01694
G1 X125.065 Y91.93 E.03839
G1 X124.536 Y91.938 E.01669
G1 X123.668 Y91.07 E.03874
G1 X123.132 Y91.07 E.01694
G1 X124.154 Y92.092 E.04563
G1 X123.952 Y92.266 E.00841
G1 X123.895 Y92.37 E.00374
G1 X122.595 Y91.07 E.05801
G1 X122.058 Y91.07 E.01694
G1 X123.781 Y92.793 E.07689
G1 X123.781 Y93.329 E.01694
G1 X121.522 Y91.07 E.10084
G1 X120.985 Y91.07 E.01694
G1 X121.845 Y91.93 E.03839
G1 X121.308 Y91.93 E.01694
G1 X120.448 Y91.07 E.03839
G1 X119.912 Y91.07 E.01694
G1 X120.772 Y91.93 E.03839
G1 X120.235 Y91.93 E.01694
G1 X119.375 Y91.07 E.03839
G1 X118.838 Y91.07 E.01694
G1 X119.698 Y91.93 E.03839
G1 X119.162 Y91.93 E.01694
G1 X118.301 Y91.07 E.03839
G1 X117.765 Y91.07 E.01694
G1 X118.625 Y91.93 E.03839
G1 X118.088 Y91.93 E.01694
G1 X117.228 Y91.07 E.03839
G1 X116.691 Y91.07 E.01694
G1 X117.551 Y91.93 E.03839
G1 X117.015 Y91.93 E.01694
G1 X116.155 Y91.07 E.03839
G1 X115.618 Y91.07 E.01694
G1 X116.478 Y91.93 E.03839
G1 X115.941 Y91.93 E.01694
G1 X115.081 Y91.07 E.03839
G1 X114.544 Y91.07 E.01694
G1 X115.405 Y91.93 E.03839
G1 X114.868 Y91.93 E.01694
G1 X114.008 Y91.07 E.03839
G1 X113.471 Y91.07 E.01694
G1 X114.331 Y91.93 E.03839
G1 X113.795 Y91.93 E.01694
G1 X112.934 Y91.07 E.03839
G1 X112.398 Y91.07 E.01694
G1 X113.34 Y92.012 E.04206
G1 X113.022 Y92.177 E.0113
G1 X113.007 Y92.216 E.0013
G1 X111.921 Y91.13 E.04845
G1 X111.921 Y91.667 E.01694
G1 X112.849 Y92.595 E.04143
G1 X112.781 Y92.76 E.00562
G1 X112.781 Y93.064 E.00959
G1 X111.921 Y92.203 E.03839
G1 X111.921 Y92.74 E.01694
G1 X112.781 Y93.6 E.03839
G1 X112.781 Y94.137 E.01694
G1 X111.921 Y93.277 E.03839
G1 X111.921 Y93.813 E.01694
G1 X112.781 Y94.674 E.03839
G1 X112.781 Y95.21 E.01694
G1 X111.921 Y94.35 E.03839
G1 X111.921 Y94.887 E.01694
G1 X112.781 Y95.747 E.03839
G1 X112.781 Y96.284 E.01694
G1 X111.921 Y95.424 E.03839
G1 X111.921 Y95.96 E.01694
G1 X112.781 Y96.821 E.03839
G1 X112.781 Y97.357 E.01694
G1 X111.921 Y96.497 E.03839
G1 X111.921 Y97.034 E.01694
G1 X112.781 Y97.894 E.03839
G1 X112.781 Y98.431 E.01694
M73 Q4 S19
G1 X111.921 Y97.57 E.03839
G1 X111.921 Y98.107 E.01694
G1 X112.781 Y98.967 E.03839
G1 X112.781 Y99.504 E.01694
M73 P4 R19
G1 X111.921 Y98.644 E.03839
G1 X111.921 Y99.181 E.01694
G1 X112.781 Y100.041 E.03839
G1 X112.781 Y100.578 E.01694
G1 X111.921 Y99.717 E.03839
G1 X111.921 Y100.254 E.01694
G1 X112.781 Y101.114 E.03839
G1 X112.781 Y101.651 E.01694
G1 X111.921 Y100.791 E.03839
G1 X111.921 Y101.327 E.01694
G1 X112.781 Y102.188 E.03839
G1 X112.781 Y102.724 E.01694
G1 X111.921 Y101.864 E.03839
G1 X111.921 Y102.401 E.01694
G1 X112.7 Y103.18 E.03478
G1 X112.163 Y103.18 E.01694
G1 X111.751 Y102.768 E.0184
M204 S1000
;WIPE_START
G1 F8640
G1 X112.163 Y103.18 E-.13462
G1 X112.7 Y103.18 E-.12393
G1 X111.921 Y102.401 E-.25447
G1 X111.921 Y101.864 E-.12393
G1 X112.298 Y102.241 E-.12306
;WIPE_END
G1 E-.04 F2100
G1 Z.6 F720
G1 X112.413 Y106.65 F10800
G1 Z.2 F720
G1 E.8 F2100
M204 S800
G1 F1200
G1 X112.781 Y107.018 E.01642
G1 X112.781 Y107.555 E.01694
G1 X112.046 Y106.82 E.0328
G1 X111.921 Y106.82 E.00396
G1 X111.921 Y107.231 E.01298
G1 X112.781 Y108.091 E.03839
G1 X112.781 Y108.628 E.01694
G1 X111.921 Y107.768 E.03839
G1 X111.921 Y108.305 E.01694
G1 X112.781 Y109.165 E.03839
G1 X112.781 Y109.702 E.01694
G1 X111.921 Y108.841 E.03839
G1 X111.921 Y109.378 E.01694
G1 X112.781 Y110.238 E.03839
G1 X112.781 Y110.775 E.01694
G1 X111.921 Y109.915 E.03839
G1 X111.921 Y110.451 E.01694
G1 X112.781 Y111.312 E.03839
G1 X112.781 Y111.848 E.01694
G1 X111.921 Y110.988 E.03839
G1 X111.921 Y111.525 E.01694
G1 X112.781 Y112.385 E.03839
G1 X112.781 Y112.922 E.01694
G1 X111.921 Y112.062 E.03839
G1 X111.921 Y112.598 E.01694
G1 X112.781 Y113.459 E.03839
G1 X112.781 Y113.995 E.01694
G1 X111.921 Y113.135 E.03839
G1 X111.921 Y113.672 E.01694
G1 X112.781 Y114.532 E.03839
G1 X112.781 Y115.069 E.01694
G1 X111.921 Y114.208 E.03839
G1 X111.921 Y114.745 E.01694
G1 X112.781 Y115.605 E.03839
G1 X112.781 Y116.142 E.01694
G1 X111.921 Y115.282 E.03839
G1 X111.921 Y115.819 E.01694
G1 X112.951 Y116.849 E.04596
M204 S1000
;WIPE_START
G1 F8640
G1 X111.921 Y115.819 E-.33632
G1 X111.921 Y115.282 E-.12393
G1 X112.781 Y116.142 E-.28091
G1 X112.781 Y116.061 E-.01884
;WIPE_END
G1 E-.04 F2100
G1 Z.6 F720
G1 X123.951 Y94.036 F10800
G1 Z.2 F720
G1 E.8 F2100
M204 S800
G1 F1200
G1 X122.921 Y93.006 E.04596
G1 X122.921 Y93.543 E.01694
G1 X123.781 Y94.403 E.03839
G1 X123.781 Y94.94 E.01694
G1 X122.921 Y94.079 E.03839
G1 X122.921 Y94.616 E.01694
G1 X123.781 Y95.476 E.03839
G1 X123.781 Y96.013 E.01694
G1 X122.921 Y95.153 E.03839
G1 X122.921 Y95.689 E.01694
G1 X123.781 Y96.55 E.03839
G1 X123.781 Y97.086 E.01694
G1 X122.921 Y96.226 E.03839
G1 X122.921 Y96.763 E.01694
G1 X123.781 Y97.623 E.03839
G1 X123.781 Y98.16 E.01694
G1 X122.921 Y97.3 E.03839
G1 X122.921 Y97.836 E.01694
G1 X123.781 Y98.697 E.03839
G1 X123.781 Y99.233 E.01694
G1 X122.921 Y98.373 E.03839
G1 X122.921 Y98.91 E.01694
G1 X123.781 Y99.77 E.03839
G1 X123.781 Y100.307 E.01694
G1 X122.921 Y99.446 E.03839
G1 X122.921 Y99.983 E.01694
G1 X123.781 Y100.843 E.03839
G1 X123.781 Y101.38 E.01694
G1 X122.921 Y100.52 E.03839
G1 X122.921 Y101.057 E.01694
G1 X123.781 Y101.917 E.03839
G1 X123.781 Y102.453 E.01694
G1 X122.921 Y101.593 E.03839
G1 X122.921 Y102.13 E.01694
G1 X123.781 Y102.99 E.03839
G1 X123.781 Y103.527 E.01694
G1 X122.921 Y102.667 E.03839
G1 X122.921 Y103.203 E.01694
G1 X123.781 Y104.064 E.03839
G1 X123.781 Y104.6 E.01694
G1 X122.921 Y103.74 E.03839
G1 X122.921 Y104.277 E.01694
G1 X123.781 Y105.137 E.03839
G1 X123.781 Y105.674 E.01694
G1 X122.921 Y104.813 E.03839
G1 X122.921 Y105.35 E.01694
G1 X123.781 Y106.21 E.03839
G1 X123.781 Y106.747 E.01694
G1 X122.921 Y105.887 E.03839
G1 X122.921 Y106.424 E.01694
G1 X123.781 Y107.284 E.03839
G1 X123.781 Y107.821 E.01694
G1 X122.921 Y106.96 E.03839
G1 X122.921 Y107.497 E.01694
G1 X123.781 Y108.357 E.03839
G1 X123.781 Y108.894 E.01694
G1 X122.921 Y108.034 E.03839
G1 X122.921 Y108.57 E.01694
G1 X123.781 Y109.431 E.03839
G1 X123.781 Y109.967 E.01694
G1 X122.921 Y109.107 E.03839
G1 X122.921 Y109.644 E.01694
G1 X123.781 Y110.504 E.03839
G1 X123.781 Y111.041 E.01694
G1 X122.921 Y110.181 E.03839
G1 X122.921 Y110.717 E.01694
G1 X123.781 Y111.578 E.03839
G1 X123.781 Y112.114 E.01694
G1 X122.921 Y111.254 E.03839
G1 X122.921 Y111.791 E.01694
G1 X123.781 Y112.651 E.03839
G1 X123.781 Y113.188 E.01694
G1 X122.921 Y112.327 E.03839
G1 X122.921 Y112.864 E.01694
G1 X123.781 Y113.724 E.03839
G1 X123.781 Y114.261 E.01694
G1 X122.921 Y113.401 E.03839
G1 X122.921 Y113.938 E.01694
G1 X123.781 Y114.798 E.03839
G1 X123.781 Y115.335 E.01694
G1 X122.921 Y114.474 E.03839
G1 X122.921 Y115.011 E.01694
G1 X123.781 Y115.871 E.03839
G1 X123.781 Y116.408 E.01694
G1 X122.921 Y115.548 E.03839
G1 X122.921 Y116.084 E.01694
G1 X123.951 Y117.114 E.04596
M204 S1000
;WIPE_START
G1 F8640
G1 X122.921 Y116.084 E-.33632
G1 X122.921 Y115.548 E-.12393
G1 X123.781 Y116.408 E-.28091
G1 X123.781 Y116.326 E-.01884
;WIPE_END
G1 E-.04 F2100
G1 Z.6 F720
G1 X136.944 Y97.368 F10800
G1 Z.2 F720
G1 E.8 F2100
M204 S800
G1 F1200
G1 X134.041 Y94.465 E.12956
G1 X134.574 Y95.433 E.03486
G1 X134.656 Y95.617 E.00639
G1 X136.943 Y97.904 E.10204
G1 X137.209 Y98.707 E.02669
G1 X135.089 Y96.587 E.0946
G1 X135.307 Y97.073 E.01681
G1 X135.449 Y97.484 E.01371
G1 X137.384 Y99.418 E.08632
G1 X137.558 Y100.129 E.0231
G1 X135.736 Y98.307 E.08133
