; generated by PrusaSlicer 2.5.0+linux-x64-GTK3 on 2022-12-22 at 18:15:24 UTC


;
;
; 

; external perimeters extrusion width = 0.45mm
; perimeters extrusion width = 0.45mm
; infill extrusion width = 0.45mm
; solid infill extrusion width = 0.45mm
; top infill extrusion width = 0.40mm
; first layer extrusion width = 0.42mm

; external perimeters extrusion width = 0.45mm
; perimeters extrusion width = 0.45mm
; infill extrusion width = 0.45mm
; solid infill extrusion width = 0.45mm
; top infill extrusion width = 0.40mm
; first layer extrusion width = 0.42mm

M73 P0 R24
M73 Q0 S24
M201 X1000 Y1000 Z200 E5000 ; sets maximum accelerations, mm/sec^2
M203 X200 Y200 Z12 E120 ; sets maximum feedrates, mm / sec
M204 P1250 R1250 T1250 ; sets acceleration (P, T) and retract acceleration (R), mm/sec^2
M205 X8.00 Y8.00 Z0.40 E4.50 ; sets the jerk limits, mm/sec
M205 S0 T0 ; sets the minimum extruding and travel feed rate, mm/sec
M107
;TYPE:Custom
M862.3 P "MK3S" ; printer model check
M862.1 P0.4 ; nozzle diameter check
M115 U3.11.0 ; tell printer latest fw version
G90 ; use absolute coordinates
M83 ; extruder relative mode
M104 S215 ; set extruder temp
M140 S60 ; set bed temp
M190 S60 ; wait for bed temp
M109 S215 ; wait for extruder temp
G28 W ; home all without mesh bed level
G80 ; mesh bed leveling

G1 Z0.2 F720
G1 Y-3 F1000 ; go outside print area
G92 E0
G1 X60 E9 F1000 ; intro line
G1 X100 E12.5 F1000 ; intro line

G92 E0
M221 S95

; Don't change E values below. Excessive value can damage the printer.
M907 E430 ; set extruder motor current
G21 ; set units to millimeters
G90 ; use absolute coordinates
M83 ; use relative distances for extrusion
M900 K0.05 ; Filament gcode LA 1.5
M900 K30 ; Filament gcode LA 1.0
M107
;LAYER_CHANGE
;Z:0.2
;HEIGHT:0.2
;BEFORE_LAYER_CHANGE
G92 E0.0
;0.2


G1 E-.8 F2100
G1 Z.4 F720
;AFTER_LAYER_CHANGE
;0.2
G1 X106.159 Y50.363 F10800
G1 Z.2 F720
G1 E.8 F2100
M204 S800
;TYPE:Skirt/Brim
;WIDTH:0.42
G1 F1200
G1 X107.205 Y49.487 E.04278
G1 X108.145 Y49.293 E.03008
G1 X133.145 Y49.293 E.78386
G1 X134.452 Y49.685 E.04278
M73 P0 R23
G1 X135.042 Y50.238 E.02536
G1 X136.379 Y52.023 E.06993
G1 X137.569 Y53.91 E.06993
G1 X138.602 Y55.887 E.06993
G1 X139.472 Y57.94 E.06993
G1 X140.173 Y60.058 E.06994
G1 X140.701 Y62.225 E.06993
G1 X141.053 Y64.427 E.06993
G1 X141.223 Y66.556 E.06694
G1 X142.727 Y103.885 E1.17139
G1 X142.729 Y106.019 E.06692
G1 X142.556 Y108.243 E.06993
G1 X142.205 Y110.446 E.06993
G1 X141.677 Y112.613 E.06993
G1 X140.976 Y114.73 E.06994
G1 X140.023 Y116.957 E.07595
G1 X139.072 Y118.761 E.06392
G1 X137.883 Y120.648 E.06993
G1 X136.545 Y122.432 E.06993
G1 X135.445 Y123.239 E.04278
G1 X134.648 Y123.377 E.02536
G1 X109.648 Y123.377 E.78386
G1 X108.341 Y122.985 E.04278
M73 Q0 S23
G1 X107.465 Y121.94 E.04278
G1 X107.273 Y121.096 E.02714
G1 X105.769 Y83.766 E1.17139
G1 X105.768 Y51.67 E1.00634
M73 P1 R23
M73 Q1 S23
G1 X106.142 Y50.421 E.0409
M204 S1000
; printing object DDlock-Body.stl id:0 copy 0
;WIPE_START
G1 F8640
G1 X107.205 Y49.487 E-.32671
G1 X108.145 Y49.293 E-.22155
G1 X109.062 Y49.293 E-.21174
;WIPE_END
G1 E-.04 F2100
G1 Z.6 F720
G1 X121.956 Y117.765 F10800
G1 Z.2 F720
G1 E.8 F2100
M204 S800
;TYPE:Perimeter
;WIDTH:0.419999
G1 F1200
G1 X122.136 Y117.721 E.0058
G1 X122.322 Y117.561 E.00769
G1 X122.399 Y117.42 E.00503
G1 X122.435 Y117.221 E.00633
G1 X122.435 Y92.779 E.76639
G1 X122.399 Y92.58 E.00633
G1 X122.322 Y92.439 E.00503
G1 X122.136 Y92.279 E.00769
G1 X121.87 Y92.213 E.0086
G1 X113.427 Y92.213 E.26472
G1 X113.329 Y92.221 E.00308
G1 X113.027 Y92.379 E.01068
G1 X112.908 Y92.554 E.00665
G1 X112.861 Y92.779 E.00719
G1 X112.861 Y103.463 E.335
G1 X110.435 Y103.463 E.07606
G1 X110.435 Y89.787 E.4288
G1 X134.256 Y89.787 E.74689
G1 X135.229 Y91.076 E.05063
G1 X136.288 Y92.743 E.06192
G1 X137.209 Y94.49 E.06192
G1 X137.986 Y96.306 E.06192
G1 X138.613 Y98.178 E.06192
G1 X139.087 Y100.095 E.06192
G1 X139.405 Y102.044 E.06192
G1 X139.565 Y104.013 E.06192
G1 X139.565 Y105.987 E.06192
G1 X139.405 Y107.956 E.06192
G1 X139.087 Y109.905 E.06192
G1 X138.613 Y111.822 E.06192
G1 X137.986 Y113.694 E.06192
G1 X137.209 Y115.51 E.06192
G1 X136.288 Y117.257 E.06192
G1 X135.229 Y118.924 E.06192
G1 X134.256 Y120.213 E.05063
G1 X110.435 Y120.213 E.74689
G1 X110.435 Y106.537 E.4288
G1 X112.861 Y106.537 E.07606
G1 X112.861 Y117.221 E.335
G1 X112.87 Y117.319 E.00308
G1 X113.027 Y117.621 E.01068
G1 X113.202 Y117.741 E.00665
G1 X113.427 Y117.787 E.00719
G1 X121.898 Y117.78 E.26561
M204 S1000
G1 X121.87 Y117.41 F10800
M204 S800
;TYPE:External perimeter
G1 F1200
G1 X122.021 Y117.335 E.00529
G1 X122.058 Y117.221 E.00374
G1 X122.058 Y92.779 E.76639
G1 X122.021 Y92.665 E.00374
G1 X121.87 Y92.59 E.00529
G1 X113.427 Y92.59 E.26472
G1 X113.294 Y92.645 E.00452
M73 Q2 S23
G1 X113.238 Y92.779 E.00452
G1 X113.238 Y103.84 E.34682
G1 X110.058 Y103.84 E.09971
M73 P2 R23
G1 X110.058 Y89.41 E.45244
G1 X134.444 Y89.41 E.7646
G1 X135.539 Y90.861 E.05699
G1 X136.615 Y92.553 E.06288
G1 X137.55 Y94.327 E.06287
G1 X138.338 Y96.171 E.06288
G1 X138.975 Y98.073 E.06288
G1 X139.457 Y100.019 E.06288
G1 X139.78 Y101.999 E.06288
G1 X139.942 Y103.997 E.06288
G1 X139.942 Y106.003 E.06288
G1 X139.78 Y108.001 E.06288
G1 X139.457 Y109.981 E.06288
G1 X138.975 Y111.927 E.06288
G1 X138.338 Y113.829 E.06288
G1 X137.55 Y115.673 E.06288
G1 X136.615 Y117.447 E.06287
G1 X135.539 Y119.139 E.06288
G1 X134.444 Y120.59 E.05699
G1 X110.058 Y120.59 E.7646
G1 X110.058 Y106.16 E.45244
G1 X113.238 Y106.16 E.09971
G1 X113.238 Y117.221 E.34682
G1 X113.294 Y117.355 E.00452
G1 X113.427 Y117.41 E.00452
G1 X121.81 Y117.41 E.26284
M204 S1000
G1 X121.994 Y117.524 F10800
;WIPE_START
G1 F8640
G1 X122.021 Y117.335 E-.0517
G1 X122.058 Y117.221 E-.02753
G1 X122.058 Y114.273 E-.68076
;WIPE_END
G1 E-.04 F2100
G1 Z.6 F720
G1 X124.886 Y117.331 F10800
G1 Z.2 F720
G1 E.8 F2100
M204 S800
;TYPE:Perimeter
G1 F1200
G1 X124.861 Y117.221 E.00352
G1 X124.861 Y92.779 E.76639
G1 X124.897 Y92.58 E.00633
G1 X124.974 Y92.439 E.00503
G1 X125.161 Y92.279 E.00769
G1 X125.427 Y92.213 E.0086
G1 X132.771 Y92.213 E.23027
G1 X133.022 Y92.272 E.00808
G1 X133.251 Y92.479 E.00968
G1 X134.286 Y94.136 E.06126
G1 X135.167 Y95.862 E.06075
G1 X135.861 Y97.567 E.05771
G1 X136.422 Y99.37 E.05923
G1 X136.835 Y101.263 E.06075
G1 X137.071 Y103.089 E.05771
G1 X137.154 Y104.976 E.05923
G1 X137.075 Y106.863 E.05923
G1 X136.835 Y108.737 E.05923
G1 X136.692 Y109.399 E.02122
G1 X136.434 Y110.583 E.038
G1 X135.877 Y112.388 E.05923
G1 X135.167 Y114.138 E.05923
G1 X134.31 Y115.821 E.05923
G1 X133.249 Y117.525 E.06292
G1 X133.022 Y117.728 E.00955
G1 X132.771 Y117.787 E.00808
G1 X125.427 Y117.787 E.23027
G1 X125.161 Y117.721 E.0086
G1 X124.974 Y117.561 E.00769
G1 X124.908 Y117.387 E.00584
M204 S1000
G1 X125.238 Y117.221 F10800
M204 S800
;TYPE:External perimeter
G1 F1200
G1 X125.238 Y92.779 E.76639
G1 X125.276 Y92.665 E.00374
G1 X125.427 Y92.59 E.00529
G1 X132.771 Y92.59 E.23027
G1 X132.926 Y92.671 E.00549
G1 X133.966 Y94.336 E.06154
G1 X134.818 Y96.004 E.05872
G1 X135.511 Y97.709 E.05771
G1 X136.062 Y99.482 E.05822
G1 X136.458 Y101.296 E.05821
G1 X136.697 Y103.137 E.05821
G1 X136.777 Y104.992 E.05821
G1 X136.74 Y105.869 E.02753
G1 X136.698 Y106.847 E.03068
G1 X136.461 Y108.688 E.05821
G1 X136.066 Y110.502 E.05821
G1 X135.517 Y112.276 E.05822
G1 X134.816 Y113.999 E.05832
G1 X133.973 Y115.652 E.05819
G1 X132.93 Y117.323 E.06174
G1 X132.804 Y117.407 E.00477
G1 X125.427 Y117.41 E.2313
G1 X125.276 Y117.335 E.00529
M73 P3 R23
M73 Q3 S23
G1 X125.257 Y117.278 E.00186
M204 S1000
G1 X124.852 Y117.118 F10800
;WIPE_START
G1 F8640
G1 X125.255 Y113.987 E-.76
;WIPE_END
G1 E-.04 F2100
G1 Z.6 F720
G1 X133.427 Y89.9 F10800
G1 Z.2 F720
G1 E.8 F2100
M204 S800
;TYPE:Solid infill
;WIDTH:0.420396
G1 F1200
G1 X135.401 Y91.874 E.08762
G1 X136.043 Y92.885 E.03758
G1 X136.227 Y93.234 E.01239
G1 X133.063 Y90.07 E.14044
G1 X132.529 Y90.07 E.01676
G1 X136.822 Y94.363 E.19054
G1 X136.953 Y94.612 E.00884
G1 X137.264 Y95.339 E.02482
G1 X131.996 Y90.07 E.23387
G1 X131.462 Y90.07 E.01676
G1 X137.663 Y96.271 E.27528
G1 X137.951 Y97.093 E.02733
G1 X133.994 Y93.136 E.17566
G1 X133.464 Y92.287 E.03141
G1 X133.15 Y92.016 E.01301
G1 X132.79 Y91.932 E.0116
G1 X130.928 Y90.07 E.08266
G1 X130.394 Y90.07 E.01676
G1 X132.254 Y91.93 E.08257
G1 X131.721 Y91.93 E.01676
G1 X129.86 Y90.07 E.08257
G1 X129.326 Y90.07 E.01676
G1 X131.187 Y91.93 E.08257
G1 X130.653 Y91.93 E.01676
G1 X128.793 Y90.07 E.08257
G1 X128.259 Y90.07 E.01676
G1 X130.119 Y91.93 E.08257
G1 X129.585 Y91.93 E.01676
G1 X127.725 Y90.07 E.08257
G1 X127.191 Y90.07 E.01676
G1 X129.051 Y91.93 E.08257
G1 X128.518 Y91.93 E.01676
G1 X126.657 Y90.07 E.08257
G1 X126.123 Y90.07 E.01676
G1 X127.984 Y91.93 E.08257
G1 X127.45 Y91.93 E.01676
G1 X125.59 Y90.07 E.08257
G1 X125.056 Y90.07 E.01676
G1 X126.916 Y91.93 E.08257
G1 X126.382 Y91.93 E.01676
G1 X124.522 Y90.07 E.08257
G1 X123.988 Y90.07 E.01676
G1 X125.848 Y91.93 E.08257
G1 X125.323 Y91.939 E.01649
G1 X123.454 Y90.07 E.08296
G1 X122.92 Y90.07 E.01676
G1 X124.947 Y92.096 E.08995
G1 X124.749 Y92.266 E.00817
G1 X124.69 Y92.373 E.00385
G1 X122.387 Y90.07 E.10225
G1 X121.853 Y90.07 E.01676
G1 X124.578 Y92.795 E.12098
G1 X124.578 Y93.329 E.01676
G1 X121.319 Y90.07 E.14468
G1 X120.785 Y90.07 E.01676
G1 X124.578 Y93.863 E.16838
G1 X124.578 Y94.397 E.01676
G1 X120.251 Y90.07 E.19207
G1 X119.717 Y90.07 E.01676
G1 X121.578 Y91.93 E.08257
G1 X121.044 Y91.93 E.01676
G1 X119.184 Y90.07 E.08257
G1 X118.65 Y90.07 E.01676
G1 X120.51 Y91.93 E.08257
G1 X119.976 Y91.93 E.01676
G1 X118.116 Y90.07 E.08257
G1 X117.582 Y90.07 E.01676
G1 X119.442 Y91.93 E.08257
G1 X118.909 Y91.93 E.01676
G1 X117.048 Y90.07 E.08257
G1 X116.515 Y90.07 E.01676
G1 X118.375 Y91.93 E.08257
G1 X117.841 Y91.93 E.01676
G1 X115.981 Y90.07 E.08257
G1 X115.447 Y90.07 E.01676
G1 X117.307 Y91.93 E.08257
G1 X116.773 Y91.93 E.01676
G1 X114.913 Y90.07 E.08257
G1 X114.379 Y90.07 E.01676
G1 X116.239 Y91.93 E.08257
G1 X115.706 Y91.93 E.01676
G1 X113.845 Y90.07 E.08257
G1 X113.312 Y90.07 E.01676
G1 X115.172 Y91.93 E.08257
G1 X114.638 Y91.93 E.01676
G1 X112.778 Y90.07 E.08257
G1 X112.244 Y90.07 E.01676
G1 X114.104 Y91.93 E.08257
G1 X113.57 Y91.93 E.01676
G1 X111.71 Y90.07 E.08257
G1 X111.176 Y90.07 E.01676
G1 X113.102 Y91.996 E.08548
G1 X112.826 Y92.177 E.01038
G1 X112.795 Y92.223 E.00171
G1 X110.718 Y90.146 E.09219
G1 X110.718 Y90.68 E.01676
G1 X112.618 Y92.579 E.08432
G1 X112.578 Y92.769 E.00608
G1 X112.578 Y93.074 E.00956
G1 X110.718 Y91.213 E.08257
G1 X110.718 Y91.747 E.01676
G1 X112.578 Y93.607 E.08257
G1 X112.578 Y94.141 E.01676
G1 X110.718 Y92.281 E.08257
G1 X110.718 Y92.815 E.01676
G1 X112.578 Y94.675 E.08257
G1 X112.578 Y95.209 E.01676
G1 X110.718 Y93.349 E.08257
G1 X110.718 Y93.883 E.01676
G1 X112.578 Y95.743 E.08257
G1 X112.578 Y96.277 E.01676
G1 X110.718 Y94.416 E.08257
G1 X110.718 Y94.95 E.01676
G1 X112.578 Y96.81 E.08257
G1 X112.578 Y97.344 E.01676
G1 X110.718 Y95.484 E.08257
G1 X110.718 Y96.018 E.01676
G1 X112.578 Y97.878 E.08257
G1 X112.578 Y98.412 E.01676
G1 X110.718 Y96.552 E.08257
G1 X110.718 Y97.086 E.01676
G1 X112.578 Y98.946 E.08257
G1 X112.578 Y99.48 E.01676
G1 X110.718 Y97.619 E.08257
G1 X110.718 Y98.153 E.01676
G1 X112.578 Y100.013 E.08257
G1 X112.578 Y100.547 E.01676
G1 X110.718 Y98.687 E.08257
G1 X110.718 Y99.221 E.01676
G1 X112.578 Y101.081 E.08257
G1 X112.578 Y101.615 E.01676
G1 X110.718 Y99.755 E.08257
G1 X110.718 Y100.289 E.01676
G1 X112.578 Y102.149 E.08257
G1 X112.578 Y102.683 E.01676
G1 X110.718 Y100.822 E.08257
G1 X110.718 Y101.356 E.01676
G1 X112.542 Y103.18 E.08096
G1 X112.008 Y103.18 E.01676
G1 X110.718 Y101.89 E.05727
G1 X110.718 Y102.424 E.01676
G1 X111.474 Y103.18 E.03357
G1 X110.941 Y103.18 E.01676
G1 X110.548 Y102.788 E.01741
M204 S1000
;WIPE_START
G1 F8640
G1 X110.941 Y103.18 E-.12805
G1 X111.474 Y103.18 E-.12326
G1 X110.718 Y102.424 E-.24696
G1 X110.718 Y101.89 E-.12326
G1 X111.142 Y102.314 E-.13845
;WIPE_END
G1 E-.04 F2100
G1 Z.6 F720
G1 X112.275 Y106.65 F10800
G1 Z.2 F720
M73 Q4 S23
G1 E.8 F2100
M204 S800
G1 F1200
M73 P4 R23
G1 X112.578 Y106.953 E.01345
G1 X112.578 Y107.487 E.01676
G1 X111.911 Y106.82 E.02962
G1 X111.377 Y106.82 E.01676
G1 X112.578 Y108.021 E.05331
G1 X112.578 Y108.555 E.01676
G1 X110.844 Y106.82 E.07701
G1 X110.718 Y106.82 E.00394
G1 X110.718 Y107.228 E.01282
G1 X112.578 Y109.089 E.08257
G1 X112.578 Y109.622 E.01676
G1 X110.718 Y107.762 E.08257
G1 X110.718 Y108.296 E.01676
G1 X112.578 Y110.156 E.08257
G1 X112.578 Y110.69 E.01676
G1 X110.718 Y108.83 E.08257
G1 X110.718 Y109.364 E.01676
G1 X112.578 Y111.224 E.08257
G1 X112.578 Y111.758 E.01676
G1 X110.718 Y109.897 E.08257
G1 X110.718 Y110.431 E.01676
G1 X112.578 Y112.292 E.08257
G1 X112.578 Y112.825 E.01676
G1 X110.718 Y110.965 E.08257
G1 X110.718 Y111.499 E.01676
G1 X112.578 Y113.359 E.08257
G1 X112.578 Y113.893 E.01676
G1 X110.718 Y112.033 E.08257
G1 X110.718 Y112.567 E.01676
G1 X112.578 Y114.427 E.08257
G1 X112.578 Y114.961 E.01676
G1 X110.718 Y113.1 E.08257
G1 X110.718 Y113.634 E.01676
G1 X112.578 Y115.495 E.08257
G1 X112.578 Y116.028 E.01676
G1 X110.718 Y114.168 E.08257
G1 X110.718 Y114.702 E.01676
G1 X112.748 Y116.732 E.09011
M204 S1000
;WIPE_START
G1 F8640
G1 X110.718 Y114.702 E-.66287
G1 X110.718 Y114.281 E-.09713
;WIPE_END
G1 E-.04 F2100
G1 Z.6 F720
G1 X124.748 Y95.1 F10800
G1 Z.2 F720
G1 E.8 F2100
M204 S800
G1 F1200
G1 X122.718 Y93.071 E.09011
G1 X122.718 Y93.604 E.01676
G1 X124.578 Y95.465 E.08257
G1 X124.578 Y95.998 E.01676
G1 X122.718 Y94.138 E.08257
G1 X122.718 Y94.672 E.01676
G1 X124.578 Y96.532 E.08257
G1 X124.578 Y97.066 E.01676
G1 X122.718 Y95.206 E.08257
G1 X122.718 Y95.74 E.01676
G1 X124.578 Y97.6 E.08257
G1 X124.578 Y98.134 E.01676
G1 X122.718 Y96.274 E.08257
G1 X122.718 Y96.807 E.01676
G1 X124.578 Y98.668 E.08257
G1 X124.578 Y99.201 E.01676
G1 X122.718 Y97.341 E.08257
G1 X122.718 Y97.875 E.01676
G1 X124.578 Y99.735 E.08257
G1 X124.578 Y100.269 E.01676
G1 X122.718 Y98.409 E.08257
G1 X122.718 Y98.943 E.01676
G1 X124.578 Y100.803 E.08257
G1 X124.578 Y101.337 E.01676
G1 X122.718 Y99.477 E.08257
G1 X122.718 Y100.01 E.01676
G1 X124.578 Y101.871 E.08257
G1 X124.578 Y102.404 E.01676
G1 X122.718 Y100.544 E.08257
G1 X122.718 Y101.078 E.01676
G1 X124.578 Y102.938 E.08257
G1 X124.578 Y103.472 E.01676
G1 X122.718 Y101.612 E.08257
G1 X122.718 Y102.146 E.01676
G1 X124.578 Y104.006 E.08257
G1 X124.578 Y104.54 E.01676
G1 X122.718 Y102.68 E.08257
G1 X122.718 Y103.213 E.01676
G1 X124.578 Y105.074 E.08257
G1 X124.578 Y105.607 E.01676
G1 X122.718 Y103.747 E.08257
G1 X122.718 Y104.281 E.01676
G1 X124.578 Y106.141 E.08257
G1 X124.578 Y106.675 E.01676
G1 X122.718 Y104.815 E.08257
G1 X122.718 Y105.349 E.01676
G1 X124.578 Y107.209 E.08257
G1 X124.578 Y107.743 E.01676
G1 X122.718 Y105.883 E.08257
G1 X122.718 Y106.416 E.01676
G1 X124.578 Y108.277 E.08257
G1 X124.578 Y108.81 E.01676
G1 X122.718 Y106.95 E.08257
G1 X122.718 Y107.484 E.01676
G1 X124.578 Y109.344 E.08257
G1 X124.578 Y109.878 E.01676
G1 X122.718 Y108.018 E.08257
G1 X122.718 Y108.552 E.01676
G1 X124.578 Y110.412 E.08257
G1 X124.578 Y110.946 E.01676
G1 X122.718 Y109.086 E.08257
G1 X122.718 Y109.619 E.01676
G1 X124.578 Y111.48 E.08257
G1 X124.578 Y112.013 E.01676
G1 X122.718 Y110.153 E.08257
G1 X122.718 Y110.687 E.01676
G1 X124.578 Y112.547 E.08257
G1 X124.578 Y113.081 E.01676
M73 P4 R22
G1 X122.718 Y111.221 E.08257
G1 X122.718 Y111.755 E.01676
G1 X124.578 Y113.615 E.08257
G1 X124.578 Y114.149 E.01676
G1 X122.718 Y112.289 E.08257
G1 X122.718 Y112.822 E.01676
G1 X124.578 Y114.683 E.08257
G1 X124.578 Y115.216 E.01676
G1 X122.718 Y113.356 E.08257
G1 X122.718 Y113.89 E.01676
G1 X124.578 Y115.75 E.08257
G1 X124.578 Y116.284 E.01676
G1 X122.718 Y114.424 E.08257
G1 X122.718 Y114.958 E.01676
G1 X124.748 Y116.988 E.09011
M204 S1000
;WIPE_START
G1 F8640
G1 X122.718 Y114.958 E-.66287
G1 X122.718 Y114.537 E-.09713
;WIPE_END
G1 E-.04 F2100
G1 Z.6 F720
G1 X138.489 Y98.165 F10800
G1 Z.2 F720
G1 E.8 F2100
M204 S800
G1 F1200
G1 X134.752 Y94.428 E.16589
G1 X135.314 Y95.523 E.03864
G1 X138.438 Y98.647 E.13867
G1 X138.613 Y99.357 E.02293
G1 X135.711 Y96.455 E.12882
