; generated by PrusaSlicer 2.5.0+linux-x64-GTK3 on 2022-12-17 at 15:35:37 UTC


;
;
; 

; external perimeters extrusion width = 0.45mm
; perimeters extrusion width = 0.45mm
; infill extrusion width = 0.45mm
; solid infill extrusion width = 0.45mm
; top infill extrusion width = 0.40mm
; first layer extrusion width = 0.42mm

; external perimeters extrusion width = 0.45mm
; perimeters extrusion width = 0.45mm
; infill extrusion width = 0.45mm
; solid infill extrusion width = 0.45mm
; top infill extrusion width = 0.40mm
; first layer extrusion width = 0.42mm

; external perimeters extrusion width = 0.45mm
; perimeters extrusion width = 0.45mm
; infill extrusion width = 0.45mm
; solid infill extrusion width = 0.45mm
; top infill extrusion width = 0.40mm
; first layer extrusion width = 0.42mm

; external perimeters extrusion width = 0.45mm
; perimeters extrusion width = 0.45mm
; infill extrusion width = 0.45mm
; solid infill extrusion width = 0.45mm
; top infill extrusion width = 0.40mm
; first layer extrusion width = 0.42mm

; external perimeters extrusion width = 0.45mm
; perimeters extrusion width = 0.45mm
; infill extrusion width = 0.45mm
; solid infill extrusion width = 0.45mm
; top infill extrusion width = 0.40mm
; first layer extrusion width = 0.42mm

M73 P0 R53
M73 Q0 S53
M201 X1000 Y1000 Z200 E5000 ; sets maximum accelerations, mm/sec^2
M203 X200 Y200 Z12 E120 ; sets maximum feedrates, mm / sec
M204 P1250 R1250 T1250 ; sets acceleration (P, T) and retract acceleration (R), mm/sec^2
M205 X8.00 Y8.00 Z0.40 E4.50 ; sets the jerk limits, mm/sec
M205 S0 T0 ; sets the minimum extruding and travel feed rate, mm/sec
M107
;TYPE:Custom
M862.3 P "MK3S" ; printer model check
M862.1 P0.4 ; nozzle diameter check
M115 U3.11.0 ; tell printer latest fw version
G90 ; use absolute coordinates
M83 ; extruder relative mode
M104 S215 ; set extruder temp
M140 S60 ; set bed temp
M190 S60 ; wait for bed temp
M109 S215 ; wait for extruder temp
G28 W ; home all without mesh bed level
G80 ; mesh bed leveling

G1 Z0.2 F720
G1 Y-3 F1000 ; go outside print area
G92 E0
G1 X60 E9 F1000 ; intro line
G1 X100 E12.5 F1000 ; intro line

G92 E0
M221 S95

; Don't change E values below. Excessive value can damage the printer.
M907 E430 ; set extruder motor current
G21 ; set units to millimeters
G90 ; use absolute coordinates
M83 ; use relative distances for extrusion
M900 K0.05 ; Filament gcode LA 1.5
M900 K30 ; Filament gcode LA 1.0
M107
;LAYER_CHANGE
;Z:0.2
;HEIGHT:0.2
;BEFORE_LAYER_CHANGE
G92 E0.0
;0.2


M73 P0 R52
G1 E-.8 F2100
G1 Z.4 F720
;AFTER_LAYER_CHANGE
;0.2
G1 X29.905 Y31.082 F10800
G1 Z.2 F720
G1 E.8 F2100
M204 S800
;TYPE:Skirt/Brim
;WIDTH:0.42
G1 F1200
G1 X31.49 Y29.58 E.06846
G1 X33.384 Y28.075 E.07585
G1 X35.206 Y26.871 E.06847
G1 X37.333 Y25.718 E.07587
G1 X39.337 Y24.849 E.06846
G1 X41.632 Y24.083 E.07588
G1 X43.755 Y23.575 E.06845
G1 X46.147 Y23.219 E.07584
G1 X82.926 Y21.42 E1.15455
G1 X117.686 Y21.42 E1.08988
G1 X118.993 Y21.811 E.04278
G1 X119.945 Y23.057 E.04916
G1 X125.503 Y40.03 E.55998
G1 X126.307 Y42.977 E.09576
G1 X126.769 Y45.996 E.09577
G1 X126.886 Y48.228 E.07007
G1 X127.503 Y81.291 E1.03685
G1 X127.503 Y114.122 E1.0294
G1 X126.794 Y115.816 E.05759
G1 X125.743 Y116.851 E.04623
G1 X124.812 Y117.416 E.03415
G1 X107.449 Y123.078 E.57262
G1 X105.007 Y123.714 E.07913
G1 X103.388 Y124 E.05154
G1 X101.004 Y124.243 E.07514
G1 X98.535 Y124.263 E.07742
G1 X45.385 Y120.108 E1.67157
G1 X43.15 Y119.83 E.07063
G1 X41.896 Y119.577 E.0401
G1 X39.776 Y118.98 E.06904
G1 X38.574 Y118.543 E.04011
G1 X36.567 Y117.637 E.06904
G1 X35.444 Y117.025 E.04011
G1 X33.594 Y115.831 E.06905
G1 X32.574 Y115.058 E.0401
G1 X30.923 Y113.601 E.06905
G1 X30.03 Y112.685 E.0401
G1 X28.543 Y110.904 E.07276
G1 X27.302 Y109.085 E.06904
G1 X26.188 Y107.05 E.07276
G1 X25.661 Y105.884 E.0401
G1 X24.908 Y103.814 E.06904
G1 X24.562 Y102.583 E.04011
G1 X24.108 Y100.308 E.07276
G1 X23.883 Y98.01 E.07239
G1 X22.451 Y49.964 E1.50709
G1 X22.576 Y46.848 E.09781
G1 X22.939 Y44.391 E.07787
G1 X23.446 Y42.267 E.06845
G1 X24.241 Y39.899 E.07834
G1 X25.366 Y37.399 E.08595
G1 X26.648 Y35.179 E.08037
G1 X28.249 Y32.956 E.08592
G1 X29.865 Y31.127 E.07652
M204 S1000
; printing object case-Body.stl id:4 copy 0
;WIPE_START
G1 F8640
G1 X31.49 Y29.58 E-.51799
G1 X32.311 Y28.928 E-.24201
;WIPE_END
G1 E-.04 F2100
G1 Z.6 F720
G1 X123.299 Y85.377 F10800
G1 Z.2 F720
G1 E.8 F2100
M204 S800
;TYPE:Perimeter
;WIDTH:0.419999
G1 F1200
G1 X123.288 Y109.978 E.77135
G1 X123.323 Y110.173 E.00622
G1 X123.536 Y110.322 E.00815
G1 X123.539 Y114.427 E.1287
G1 X114.982 Y115.432 E.27015
G1 X114.694 Y115.553 E.00978
G1 X113.723 Y116.331 E.03902
G1 X112.782 Y117.012 E.03641
G1 X111.797 Y117.652 E.03684
G1 X110.805 Y118.229 E.03599
G1 X109.773 Y118.762 E.03641
G1 X108.717 Y119.244 E.03641
G1 X107.637 Y119.673 E.03641
G1 X106.538 Y120.048 E.03641
G1 X105.421 Y120.367 E.03642
G1 X104.292 Y120.631 E.03635
G1 X103.152 Y120.838 E.03633
G1 X102.004 Y120.989 E.03633
G1 X100.849 Y121.082 E.03632
G1 X99.651 Y121.119 E.03757
G1 X98.533 Y121.098 E.03508
G1 X97.337 Y121.016 E.03757
G1 X96.187 Y120.878 E.03632
G1 X95.083 Y120.692 E.03509
G1 X93.919 Y120.435 E.03737
G1 X92.8 Y120.129 E.03638
G1 X91.697 Y119.768 E.03641
G1 X90.612 Y119.352 E.03641
G1 X89.55 Y118.883 E.03641
G1 X88.513 Y118.362 E.0364
G1 X87.502 Y117.79 E.03641
G1 X86.521 Y117.168 E.03642
G1 X85.572 Y116.499 E.0364
G1 X84.658 Y115.784 E.0364
G1 X83.73 Y114.981 E.03848
G1 X83.525 Y114.868 E.00733
G1 X77.571 Y113.045 E.19525
G1 X77.573 Y110.335 E.08496
G1 X77.775 Y110.202 E.00757
G1 X77.821 Y109.978 E.00718
G1 X77.821 Y101.979 E.2508
;WIDTH:0.463206
G1 X77.843 Y101.721 E.00904
;WIDTH:0.506412
G1 X77.864 Y101.464 E.00997
;WIDTH:0.549619
G1 X77.886 Y101.206 E.01089
;WIDTH:0.592825
G1 X77.906 Y100.902 E.01392
;WIDTH:0.589367
G1 X77.89 Y100.387 E.02343
;WIDTH:0.557202
G1 X77.874 Y99.872 E.02205
;WIDTH:0.525036
G1 X77.873 Y99.829 E.00172
;WIDTH:0.5229
G1 X77.853 Y98.798 E.04114
;WIDTH:0.484335
G1 X77.853 Y98.757 E.0015
;WIDTH:0.483318
G1 X77.846 Y97.727 E.03774
;WIDTH:0.470467
G1 X77.846 Y97.686 E.00143
;WIDTH:0.483318
G1 X77.853 Y96.656 E.03774
;WIDTH:0.484335
G1 X77.853 Y96.615 E.0015
;WIDTH:0.5229
G1 X77.873 Y95.584 E.04114
;WIDTH:0.525036
G1 X77.874 Y95.541 E.00172
;WIDTH:0.557202
G1 X77.89 Y95.026 E.02205
;WIDTH:0.589367
G1 X77.906 Y94.511 E.02343
;WIDTH:0.592825
G1 X77.886 Y94.207 E.01392
;WIDTH:0.549619
G1 X77.864 Y93.949 E.01089
;WIDTH:0.506412
G1 X77.843 Y93.692 E.00997
;WIDTH:0.463206
G1 X77.821 Y93.434 E.00904
;WIDTH:0.419999
G1 X77.821 Y85.684 E.24299
G1 X77.79 Y85.25 E.01365
M73 P1 R52
M73 Q1 S53
G1 X77.573 Y85.078 E.00867
G1 X77.571 Y82.368 E.08496
G1 X83.502 Y80.553 E.19449
G1 X83.727 Y80.433 E.008
G1 X84.673 Y79.617 E.03916
G1 X85.586 Y78.904 E.03632
G1 X86.534 Y78.236 E.03639
G1 X87.515 Y77.615 E.03638
G1 X88.525 Y77.044 E.03638
G1 X89.563 Y76.524 E.03638
G1 X90.625 Y76.056 E.03639
G1 X91.702 Y75.643 E.03617
G1 X92.805 Y75.282 E.03639
G1 X93.925 Y74.976 E.03641
G1 X95.058 Y74.726 E.03638
G1 X96.201 Y74.533 E.03635
G1 X97.353 Y74.396 E.03638
G1 X98.511 Y74.316 E.03637
G1 X99.713 Y74.295 E.0377
G1 X100.831 Y74.33 E.03508
G1 X101.988 Y74.423 E.03639
G1 X103.138 Y74.573 E.03635
G1 X104.287 Y74.781 E.03663
G1 X105.417 Y75.044 E.03637
G1 X106.532 Y75.364 E.03639
G1 X107.659 Y75.748 E.03732
G1 X108.734 Y76.177 E.0363
G1 X109.79 Y76.659 E.03639
G1 X110.82 Y77.193 E.03639
G1 X111.787 Y77.756 E.03508
G1 X112.796 Y78.411 E.03769
G1 X113.702 Y79.066 E.03507
G1 X114.693 Y79.86 E.03983
G1 X114.981 Y79.981 E.00978
G1 X123.539 Y80.986 E.27018
G1 X123.536 Y85.091 E.1287
G1 X123.324 Y85.239 E.00813
G1 X123.309 Y85.318 E.00251
M204 S1000
G1 X123.913 Y85.246 F10800
M204 S800
;TYPE:External perimeter
G1 F1200
G1 X123.854 Y85.246 E.00186
G1 X123.677 Y85.37 E.00676
G1 X123.665 Y85.435 E.00208
G1 X123.667 Y110.003 E.77031
G1 X123.854 Y110.166 E.00778
G1 X123.913 Y110.166 E.00186
G1 X123.916 Y114.685 E.14168
G1 X123.872 Y114.768 E.00293
G1 X115.026 Y115.807 E.27928
G1 X114.93 Y115.847 E.00326
G1 X113.952 Y116.631 E.03931
G1 X112.996 Y117.323 E.037
G1 X111.995 Y117.973 E.03742
G1 X110.986 Y118.559 E.03658
G1 X109.938 Y119.102 E.037
G1 X108.865 Y119.591 E.037
G1 X107.768 Y120.027 E.037
G1 X106.651 Y120.407 E.037
G1 X105.516 Y120.732 E.03701
G1 X104.369 Y121 E.03694
G1 X103.211 Y121.211 E.03691
G1 X102.043 Y121.364 E.03691
G1 X100.87 Y121.459 E.03691
G1 X99.654 Y121.496 E.03816
G1 X98.516 Y121.474 E.03567
G1 X97.302 Y121.391 E.03816
G1 X96.133 Y121.252 E.03691
G1 X95.011 Y121.062 E.03567
G1 X93.829 Y120.802 E.03796
G1 X92.691 Y120.49 E.03698
G1 X91.57 Y120.123 E.03699
G1 X90.469 Y119.701 E.03699
G1 X89.389 Y119.224 E.03699
G1 X88.335 Y118.695 E.03699
G1 X87.308 Y118.113 E.03699
G1 X86.311 Y117.482 E.03701
G1 X85.347 Y116.802 E.03699
G1 X84.418 Y116.075 E.03699
G1 X83.415 Y115.228 E.04117
G1 X77.193 Y113.324 E.204
G1 X77.196 Y110.166 E.09899
G1 X77.255 Y110.166 E.00186
G1 X77.429 Y110.053 E.00649
G1 X77.444 Y109.978 E.00239
G1 X77.444 Y85.684 E.76172
G1 X77.434 Y85.373 E.00974
G1 X77.255 Y85.246 E.00686
G1 X77.196 Y85.246 E.00186
G1 X77.193 Y82.089 E.09899
G1 X83.392 Y80.192 E.20324
G1 X83.481 Y80.148 E.00312
G1 X84.433 Y79.326 E.03945
G1 X85.361 Y78.601 E.03691
G1 X86.325 Y77.922 E.03697
G1 X87.322 Y77.292 E.03697
G1 X88.348 Y76.712 E.03697
G1 X89.402 Y76.183 E.03697
G1 X90.481 Y75.707 E.03697
G1 X91.576 Y75.288 E.03675
G1 X92.696 Y74.921 E.03697
G1 X93.834 Y74.61 E.03699
G1 X94.986 Y74.356 E.03697
G1 X96.147 Y74.159 E.03694
G1 X97.318 Y74.02 E.03697
G1 X98.494 Y73.939 E.03697
G1 X99.715 Y73.918 E.03828
G1 X100.852 Y73.953 E.03566
G1 X102.027 Y74.047 E.03697
G1 X103.196 Y74.2 E.03694
G1 X104.363 Y74.412 E.03722
G1 X105.511 Y74.679 E.03696
G1 X106.645 Y75.004 E.03698
G1 X107.79 Y75.395 E.03792
G1 X108.883 Y75.83 E.03689
G1 X109.955 Y76.32 E.03697
G1 X111.002 Y76.862 E.03697
G1 X111.985 Y77.434 E.03566
G1 X113.009 Y78.1 E.03828
G1 X113.931 Y78.766 E.03566
G1 X114.929 Y79.566 E.04012
G1 X115.025 Y79.606 E.00326
G1 X123.84 Y80.642 E.27828
G1 X123.916 Y80.695 E.00292
G1 X123.913 Y85.186 E.14084
M204 S1000
G1 X123.862 Y85.217 F10800
;WIPE_START
G1 F8640
G1 X123.854 Y85.246 E-.01948
G1 X123.677 Y85.37 E-.04976
G1 X123.665 Y85.435 E-.01534
G1 X123.666 Y88.36 E-.67542
;WIPE_END
G1 E-.04 F2100
G1 Z.6 F720
G1 X103.86 Y76.921 F10800
G1 Z.2 F720
G1 E.8 F2100
M204 S800
;TYPE:Perimeter
G1 F1200
G1 X104.873 Y77.157 E.03263
G1 X105.884 Y77.447 E.03297
G1 X106.908 Y77.796 E.0339
G1 X107.882 Y78.185 E.03289
G1 X108.839 Y78.622 E.03299
G1 X109.773 Y79.107 E.033
G1 X110.647 Y79.615 E.0317
G1 X111.564 Y80.211 E.03429
G1 X112.788 Y81.112 E.04764
G1 X113.578 Y81.774 E.03232
G1 X114.375 Y82.513 E.03409
G1 X115.094 Y83.251 E.03232
G1 X115.795 Y84.045 E.0332
G1 X116.473 Y84.895 E.03409
G1 X117.075 Y85.732 E.03232
G1 X117.65 Y86.621 E.0332
G1 X118.18 Y87.537 E.0332
G1 X118.676 Y88.505 E.03409
G1 X119.111 Y89.47 E.0332
G1 X119.487 Y90.43 E.03232
G1 X119.834 Y91.46 E.03408
G1 X120.12 Y92.48 E.0332
G1 X120.349 Y93.485 E.03232
G1 X120.534 Y94.527 E.0332
G1 X120.669 Y95.606 E.03409
G1 X120.747 Y96.662 E.0332
G1 X120.773 Y97.692 E.03232
G1 X120.747 Y98.751 E.0332
G1 X120.666 Y99.835 E.03408
G1 X120.538 Y100.858 E.03232
G1 X120.355 Y101.901 E.0332
G1 X120.113 Y102.961 E.03408
G1 X119.834 Y103.953 E.03232
G1 X119.497 Y104.957 E.0332
G1 X119.111 Y105.943 E.0332
G1 X118.664 Y106.934 E.03409
G1 X118.193 Y107.851 E.03232
G1 X117.813 Y108.511 E.02389
G1 X117.075 Y109.681 E.04339
G1 X116.456 Y110.541 E.0332
G1 X115.814 Y111.347 E.03232
G1 X115.113 Y112.141 E.0332
G1 X114.375 Y112.899 E.0332
G1 X113.599 Y113.62 E.0332
G1 X112.788 Y114.301 E.0332
G1 X111.944 Y114.941 E.0332
G1 X111.07 Y115.538 E.0332
G1 X110.167 Y116.091 E.0332
G1 X109.237 Y116.598 E.0332
G1 X108.283 Y117.058 E.0332
G1 X107.308 Y117.47 E.0332
G1 X106.313 Y117.833 E.0332
G1 X105.301 Y118.146 E.0332
G1 X104.275 Y118.408 E.0332
G1 X103.238 Y118.618 E.0332
G1 X102.191 Y118.777 E.0332
G1 X101.137 Y118.883 E.0332
G1 X100.08 Y118.937 E.0332
G1 X99.021 Y118.937 E.0332
G1 X97.963 Y118.885 E.0332
G1 X96.909 Y118.78 E.0332
G1 X95.862 Y118.623 E.0332
G1 X94.824 Y118.414 E.0332
G1 X93.798 Y118.154 E.0332
G1 X92.786 Y117.842 E.0332
G1 X91.79 Y117.481 E.0332
G1 X90.814 Y117.07 E.0332
G1 X89.86 Y116.611 E.0332
G1 X88.93 Y116.105 E.0332
G1 X88.026 Y115.554 E.0332
G1 X87.15 Y114.958 E.0332
G1 X86.306 Y114.319 E.0332
G1 X85.494 Y113.639 E.0332
G1 X84.697 Y112.899 E.03409
G1 X83.959 Y112.141 E.0332
G1 X83.277 Y111.368 E.03232
G1 X82.616 Y110.541 E.0332
G1 X82.059 Y109.768 E.02986
G1 X81.489 Y108.896 E.03265
G1 X80.892 Y107.876 E.03708
G1 X80.408 Y106.934 E.0332
M73 Q1 S52
G1 X79.972 Y105.969 E.0332
G1 X79.575 Y104.957 E.03409
G1 X79.238 Y103.953 E.0332
G1 X78.959 Y102.961 E.03232
G1 X78.717 Y101.901 E.03408
;WIDTH:0.463206
G1 X78.651 Y101.651 E.00904
;WIDTH:0.506412
G1 X78.585 Y101.401 E.00997
;WIDTH:0.549619
G1 X78.519 Y101.151 E.01089
;WIDTH:0.592825
G1 X78.45 Y100.868 E.01329
;WIDTH:0.589367
G1 X78.402 Y100.355 E.02343
;WIDTH:0.557202
G1 X78.354 Y99.842 E.02205
;WIDTH:0.525036
G1 X78.352 Y99.811 E.00124
;WIDTH:0.5229
G1 X78.294 Y98.782 E.04114
;WIDTH:0.484335
G1 X78.293 Y98.752 E.00109
;WIDTH:0.483318
G1 X78.274 Y97.721 E.03774
;WIDTH:0.470467
G1 X78.274 Y97.692 E.00105
;WIDTH:0.483318
G1 X78.293 Y96.661 E.03774
;WIDTH:0.484335
G1 X78.294 Y96.631 E.00109
;WIDTH:0.5229
G1 X78.352 Y95.602 E.04114
;WIDTH:0.525036
G1 X78.354 Y95.571 E.00124
;WIDTH:0.557202
G1 X78.402 Y95.058 E.02205
;WIDTH:0.589367
G1 X78.45 Y94.545 E.02343
;WIDTH:0.592825
G1 X78.519 Y94.262 E.01329
;WIDTH:0.549619
G1 X78.585 Y94.012 E.01089
;WIDTH:0.506412
G1 X78.651 Y93.762 E.00997
;WIDTH:0.463206
G1 X78.717 Y93.512 E.00904
;WIDTH:0.419999
G1 X78.952 Y92.48 E.0332
G1 X79.238 Y91.46 E.0332
G1 X79.575 Y90.456 E.0332
G1 X79.961 Y89.47 E.0332
G1 X80.396 Y88.505 E.0332
G1 X80.878 Y87.562 E.0332
G1 X81.407 Y86.645 E.0332
G1 X81.981 Y85.755 E.0332
G1 X82.599 Y84.895 E.0332
G1 X83.258 Y84.066 E.0332
G1 X83.959 Y83.272 E.0332
G1 X84.697 Y82.513 E.0332
G1 X85.184 Y82.061 E.02084
G1 X86.066 Y81.295 E.03662
G1 X86.894 Y80.649 E.03293
G1 X87.754 Y80.043 E.03299
G1 X88.644 Y79.482 E.03299
G1 X89.56 Y78.965 E.03298
G1 X90.5 Y78.493 E.03298
G1 X91.463 Y78.069 E.03299
G1 X92.44 Y77.696 E.03277
G1 X93.44 Y77.369 E.03299
G1 X94.455 Y77.092 E.03301
G1 X95.483 Y76.866 E.03298
G1 X96.519 Y76.691 E.03295
G1 X97.564 Y76.567 E.03298
G1 X98.612 Y76.495 E.03295
G1 X99.705 Y76.476 E.03429
G1 X100.716 Y76.508 E.03171
G1 X101.765 Y76.593 E.03299
G1 X102.807 Y76.729 E.03295
G1 X103.801 Y76.909 E.03167
M204 S1000
G1 X103.821 Y77.299 F10800
M204 S800
;TYPE:External perimeter
G1 F1200
G1 X104.78 Y77.523 E.03089
G1 X105.773 Y77.807 E.03238
G1 X106.779 Y78.151 E.03331
G1 X107.736 Y78.532 E.0323
G1 X108.675 Y78.962 E.0324
G1 X109.593 Y79.438 E.03241
G1 X110.45 Y79.937 E.03111
G1 X111.352 Y80.523 E.0337
G1 X112.155 Y81.104 E.03108
G1 X113.067 Y81.838 E.03669
G1 X114.105 Y82.777 E.04389
G1 X114.824 Y83.515 E.03232
G1 X115.513 Y84.294 E.03261
G1 X116.161 Y85.107 E.03261
G1 X116.769 Y85.952 E.03261
G1 X117.333 Y86.825 E.03261
G1 X117.853 Y87.726 E.03261
G1 X118.328 Y88.651 E.03261
G1 X118.756 Y89.599 E.03261
G1 X119.136 Y90.568 E.03261
G1 X119.468 Y91.553 E.03261
G1 X119.75 Y92.555 E.03261
G1 X119.981 Y93.569 E.03261
G1 X120.162 Y94.593 E.03261
G1 X120.292 Y95.625 E.03261
G1 X120.37 Y96.662 E.03261
G1 X120.396 Y97.702 E.03261
G1 X120.37 Y98.742 E.03261
G1 X120.293 Y99.779 E.03261
G1 X120.164 Y100.811 E.03261
G1 X119.981 Y101.844 E.03291
G1 X119.75 Y102.858 E.03261
G1 X119.468 Y103.86 E.03261
G1 X119.136 Y104.845 E.03261
G1 X118.756 Y105.814 E.03261
G1 X118.332 Y106.753 E.03232
G1 X117.858 Y107.679 E.03261
G1 X117.487 Y108.322 E.0233
G1 X116.769 Y109.461 E.04221
G1 X116.161 Y110.306 E.03261
G1 X115.513 Y111.119 E.03261
G1 X114.831 Y111.891 E.03232
G1 X114.105 Y112.636 E.03261
G1 X113.342 Y113.344 E.03261
G1 X112.546 Y114.013 E.03261
G1 X111.717 Y114.641 E.03261
G1 X110.857 Y115.227 E.03261
G1 X109.97 Y115.769 E.03261
G1 X109.057 Y116.267 E.03261
G1 X108.12 Y116.719 E.03261
G1 X107.161 Y117.123 E.03261
