; generated by PrusaSlicer 2.5.0+linux-x64-GTK3 on 2023-04-06 at 15:16:34 UTC


;
;
; 

; external perimeters extrusion width = 0.45mm
; perimeters extrusion width = 0.45mm
; infill extrusion width = 0.45mm
; solid infill extrusion width = 0.45mm
; top infill extrusion width = 0.40mm
; support material extrusion width = 0.35mm
; first layer extrusion width = 0.42mm

; external perimeters extrusion width = 0.45mm
; perimeters extrusion width = 0.45mm
; infill extrusion width = 0.45mm
; solid infill extrusion width = 0.45mm
; top infill extrusion width = 0.40mm
; support material extrusion width = 0.35mm
; first layer extrusion width = 0.42mm

M73 P0 R53
M73 Q0 S54
M201 X1000 Y1000 Z200 E5000 ; sets maximum accelerations, mm/sec^2
M203 X200 Y200 Z12 E120 ; sets maximum feedrates, mm / sec
M204 P1250 R1250 T1250 ; sets acceleration (P, T) and retract acceleration (R), mm/sec^2
M205 X8.00 Y8.00 Z0.40 E4.50 ; sets the jerk limits, mm/sec
M205 S0 T0 ; sets the minimum extruding and travel feed rate, mm/sec
M107
;TYPE:Custom
M862.3 P "MK3S" ; printer model check
M862.1 P0.4 ; nozzle diameter check
M115 U3.11.0 ; tell printer latest fw version
G90 ; use absolute coordinates
M83 ; extruder relative mode
M104 S215 ; set extruder temp
M140 S60 ; set bed temp
M190 S60 ; wait for bed temp
M109 S215 ; wait for extruder temp
G28 W ; home all without mesh bed level
G80 ; mesh bed leveling

G1 Z0.2 F720
G1 Y-3 F1000 ; go outside print area
G92 E0
G1 X60 E9 F1000 ; intro line
G1 X100 E12.5 F1000 ; intro line

G92 E0
M221 S95

; Don't change E values below. Excessive value can damage the printer.
M907 E430 ; set extruder motor current
G21 ; set units to millimeters
G90 ; use absolute coordinates
M83 ; use relative distances for extrusion
M900 K0.05 ; Filament gcode LA 1.5
M900 K30 ; Filament gcode LA 1.0
M107
;LAYER_CHANGE
;Z:0.2
;HEIGHT:0.2
;BEFORE_LAYER_CHANGE
G92 E0.0
;0.2


G1 E-.8 F2100
G1 Z.4 F720
;AFTER_LAYER_CHANGE
;0.2
G1 X70.959 Y84.508 F10800
G1 Z.2 F720
G1 E.8 F2100
M204 S800
;TYPE:Skirt/Brim
;WIDTH:0.42
G1 F1200
G1 X72.777 Y83.066 E.07276
G1 X74.626 Y81.871 E.06905
G1 X76.689 Y80.808 E.07276
G1 X77.867 Y80.311 E.0401
G1 X79.955 Y79.609 E.06905
G1 X81.194 Y79.294 E.0401
G1 X83.363 Y78.911 E.06904
G1 X143.044 Y71.385 E1.88609
G1 X151.557 Y71.366 E.26691
G1 X152.62 Y71.617 E.03425
G1 X166.527 Y78.571 E.48751
G1 X167.145 Y79.016 E.02388
G1 X171.78 Y83.652 E.20555
G1 X172.477 Y85.333 E.05704
G1 X172.477 Y119.044 E1.057
G1 X171.78 Y120.725 E.05704
G1 X167.145 Y125.36 E.20555
G1 X165.733 Y126.041 E.04914
G1 X142.982 Y128.635 E.71797
G1 X140.263 Y128.765 E.08535
G1 X83.363 Y125.088 E1.78777
G1 X81.194 Y124.706 E.06904
G1 X80.069 Y124.422 E.03639
G1 X77.757 Y123.645 E.07647
G1 X76.689 Y123.192 E.03639
G1 X74.729 Y122.187 E.06904
G1 X72.68 Y120.864 E.07647
G1 X71.757 Y120.161 E.03639
G1 X70.106 Y118.704 E.06905
G1 X68.447 Y116.916 E.07647
G1 X67.726 Y116.007 E.03639
G1 X66.485 Y114.187 E.06904
G1 X65.319 Y112.045 E.07647
G1 X64.423 Y109.905 E.07276
G1 X63.745 Y107.686 E.07276
G1 X63.291 Y105.41 E.07276
G1 X63.066 Y103.101 E.07276
G1 X63.071 Y100.78 E.07276
G1 X63.308 Y98.472 E.07276
G1 X63.774 Y96.199 E.07276
G1 X64.464 Y93.983 E.07276
G1 X65.37 Y91.847 E.07276
G1 X66.485 Y89.812 E.07276
G1 X67.797 Y87.898 E.07276
G1 X69.293 Y86.124 E.07276
G1 X70.916 Y84.55 E.07088
M204 S1000
; printing object positioning ring-Body.stl id:0 copy 0
;WIPE_START
G1 F8640
G1 X72.777 Y83.066 E-.54958
G1 X73.542 Y82.572 E-.21042
;WIPE_END
G1 E-.04 F2100
G1 Z.6 F720
G1 X70.535 Y115.223 F10800
G1 Z.2 F720
G1 E.8 F2100
M204 S800
;TYPE:External perimeter
;WIDTH:0.419974
G1 F1200
G1 X69.896 Y114.42 E.03218
G1 X69.297 Y113.586 E.03219
G1 X68.741 Y112.723 E.03219
G1 X68.228 Y111.834 E.03218
G1 X67.76 Y110.92 E.03218
G1 X67.339 Y109.984 E.03219
G1 X66.965 Y109.028 E.03218
G1 X66.638 Y108.055 E.03218
G1 X66.361 Y107.066 E.03219
G1 X66.133 Y106.065 E.03218
G1 X65.956 Y105.054 E.03219
G1 X65.829 Y104.036 E.03219
;WIDTH:0.421221
G1 X65.751 Y102.96 E.03393
;WIDTH:0.420032
G1 X65.727 Y102 E.03011
;WIDTH:0.419973
G1 X65.754 Y100.959 E.03263
G1 X65.831 Y99.936 E.03218
G1 X65.96 Y98.917 E.03218
G1 X66.139 Y97.906 E.03219
G1 X66.368 Y96.906 E.03218
G1 X66.647 Y95.918 E.03219
G1 X66.974 Y94.945 E.03218
G1 X67.35 Y93.989 E.03218
G1 X67.773 Y93.054 E.03219
G1 X68.242 Y92.141 E.03218
G1 X68.756 Y91.252 E.03218
G1 X69.313 Y90.39 E.03218
G1 X69.913 Y89.557 E.03219
G1 X70.553 Y88.755 E.03218
G1 X71.233 Y87.986 E.03219
G1 X71.951 Y87.251 E.03218
G1 X72.704 Y86.554 E.03218
G1 X73.49 Y85.894 E.03218
G1 X74.309 Y85.275 E.03219
G1 X75.158 Y84.697 E.03218
G1 X76.034 Y84.163 E.03219
G1 X76.936 Y83.672 E.03219
G1 X77.861 Y83.228 E.03218
G1 X78.807 Y82.829 E.03218
G1 X79.772 Y82.479 E.03218
G1 X80.753 Y82.177 E.03218
G1 X81.748 Y81.924 E.03218
G1 X82.755 Y81.722 E.03218
G1 X83.77 Y81.569 E.03219
G1 X84.791 Y81.468 E.03218
G1 X85.817 Y81.417 E.03218
G1 X86.843 Y81.418 E.03218
G1 X87.869 Y81.47 E.03218
G1 X88.89 Y81.573 E.03218
G1 X89.905 Y81.727 E.03219
G1 X90.911 Y81.931 E.03218
G1 X91.906 Y82.185 E.03218
G1 X92.886 Y82.488 E.03218
G1 X93.851 Y82.84 E.03218
G1 X94.796 Y83.239 E.03218
G1 X95.721 Y83.685 E.03218
G1 X96.622 Y84.177 E.03219
G1 X97.498 Y84.713 E.03219
G1 X98.346 Y85.292 E.03218
G1 X99.163 Y85.912 E.03219
G1 X99.949 Y86.572 E.03218
G1 X100.701 Y87.271 E.03218
G1 X101.418 Y88.006 E.03218
G1 X102.096 Y88.777 E.03219
G1 X102.736 Y89.58 E.03218
G1 X103.335 Y90.414 E.03219
G1 X103.891 Y91.276 E.03218
G1 X104.404 Y92.166 E.03218
G1 X104.871 Y93.079 E.03218
G1 X105.293 Y94.015 E.03219
G1 X105.667 Y94.971 E.03219
G1 X105.994 Y95.945 E.03218
G1 X106.271 Y96.933 E.03219
G1 X106.499 Y97.934 E.03218
G1 X106.676 Y98.945 E.03219
G1 X106.803 Y99.964 E.03219
;WIDTH:0.421219
G1 X106.881 Y101.04 E.03393
;WIDTH:0.419974
G1 X106.904 Y102.014 E.03055
G1 X106.878 Y103.04 E.03218
G1 X106.8 Y104.064 E.03218
G1 X106.672 Y105.082 E.03218
G1 X106.493 Y106.093 E.03219
G1 X106.264 Y107.094 E.03218
G1 X105.985 Y108.082 E.03219
G1 X105.658 Y109.054 E.03218
G1 X105.282 Y110.01 E.03219
G1 X104.859 Y110.945 E.03219
G1 X104.39 Y111.858 E.03218
G1 X103.876 Y112.747 E.03218
G1 X103.319 Y113.609 E.03218
G1 X102.719 Y114.442 E.03219
G1 X102.078 Y115.244 E.03218
G1 X101.399 Y116.014 E.03218
G1 X100.681 Y116.748 E.03218
G1 X99.928 Y117.446 E.03218
G1 X99.141 Y118.105 E.03218
G1 X98.323 Y118.724 E.03219
G1 X97.474 Y119.302 E.03218
G1 X96.598 Y119.837 E.03219
G1 X95.696 Y120.327 E.03219
G1 X94.771 Y120.772 E.03218
G1 X93.825 Y121.17 E.03219
G1 X92.86 Y121.52 E.03218
G1 X91.878 Y121.822 E.03218
G1 X90.883 Y122.075 E.03218
G1 X89.877 Y122.278 E.03218
G1 X88.862 Y122.43 E.03219
G1 X87.84 Y122.531 E.03218
G1 X86.815 Y122.582 E.03218
G1 X85.789 Y122.581 E.03218
G1 X84.763 Y122.529 E.03218
G1 X83.742 Y122.426 E.03219
G1 X82.727 Y122.273 E.03218
G1 X81.721 Y122.069 E.03218
G1 X80.726 Y121.815 E.03218
G1 X79.745 Y121.511 E.03218
G1 X78.781 Y121.16 E.03218
G1 X77.835 Y120.76 E.03219
G1 X76.911 Y120.314 E.03218
G1 X76.01 Y119.823 E.03219
G1 X75.134 Y119.287 E.03219
G1 X74.286 Y118.708 E.03218
G1 X73.468 Y118.087 E.03219
G1 X72.682 Y117.427 E.03218
G1 X71.93 Y116.728 E.03218
G1 X71.214 Y115.993 E.03218
G1 X70.575 Y115.268 E.0303
M204 S1000
G1 X70.672 Y114.847 F10800
G1 X70.834 Y114.992
M204 S800
;WIDTH:0.419973
G1 F1200
G1 X70.208 Y114.207 E.03149
G1 X69.619 Y113.389 E.0316
G1 X69.072 Y112.543 E.0316
G1 X68.568 Y111.67 E.0316
G1 X68.108 Y110.773 E.03159
G1 X67.694 Y109.855 E.0316
G1 X67.325 Y108.917 E.0316
G1 X67.004 Y107.962 E.03159
G1 X66.731 Y106.991 E.0316
G1 X66.506 Y106.009 E.03159
G1 X66.331 Y105.017 E.0316
G1 X66.205 Y104.007 E.03191
;WIDTH:0.421221
G1 X66.131 Y103.003 E.03167
G1 X66.105 Y102.004 E.03142
;WIDTH:0.419975
G1 X66.13 Y100.997 E.0316
G1 X66.205 Y99.992 E.0316
G1 X66.33 Y98.992 E.0316
G1 X66.504 Y97.999 E.0316
G1 X66.728 Y97.017 E.03159
G1 X67.001 Y96.047 E.0316
G1 X67.322 Y95.091 E.03159
G1 X67.69 Y94.153 E.0316
G1 X68.104 Y93.235 E.0316
G1 X68.564 Y92.338 E.03159
G1 X69.067 Y91.465 E.0316
G1 X69.614 Y90.618 E.0316
M73 P0 R52
G1 X70.202 Y89.8 E.0316
G1 X70.83 Y89.012 E.03159
G1 X71.497 Y88.256 E.0316
G1 X72.2 Y87.534 E.0316
G1 X72.939 Y86.849 E.0316
G1 X73.711 Y86.201 E.0316
G1 X74.514 Y85.592 E.0316
G1 X75.346 Y85.024 E.03159
G1 X76.206 Y84.499 E.0316
G1 X77.091 Y84.016 E.0316
G1 X77.999 Y83.579 E.03159
G1 X78.928 Y83.187 E.0316
G1 X79.874 Y82.842 E.0316
G1 X80.837 Y82.545 E.0316
G1 X81.814 Y82.296 E.0316
G1 X82.802 Y82.096 E.0316
G1 X83.798 Y81.946 E.0316
G1 X84.801 Y81.845 E.03159
G1 X85.807 Y81.795 E.0316
G1 X86.815 Y81.795 E.0316
G1 X87.822 Y81.845 E.0316
G1 X88.824 Y81.945 E.03159
G1 X89.821 Y82.095 E.0316
G1 X90.809 Y82.294 E.0316
G1 X91.785 Y82.543 E.0316
G1 X92.748 Y82.839 E.0316
G1 X93.696 Y83.184 E.0316
G1 X94.624 Y83.575 E.0316
G1 X95.532 Y84.012 E.03159
G1 X96.417 Y84.494 E.0316
G1 X97.278 Y85.019 E.0316
G1 X98.11 Y85.587 E.03159
G1 X98.914 Y86.195 E.0316
G1 X99.686 Y86.843 E.0316
G1 X100.425 Y87.528 E.0316
G1 X101.129 Y88.249 E.0316
G1 X101.796 Y89.005 E.0316
G1 X102.424 Y89.792 E.03159
G1 X103.013 Y90.61 E.0316
G1 X103.56 Y91.457 E.0316
G1 X104.064 Y92.329 E.0316
G1 X104.524 Y93.226 E.03159
G1 X104.938 Y94.145 E.0316
M73 P1 R52
G1 X105.307 Y95.083 E.0316
G1 X105.628 Y96.038 E.03159
G1 X105.901 Y97.008 E.0316
G1 X106.126 Y97.99 E.03159
G1 X106.301 Y98.983 E.0316
G1 X106.427 Y99.992 E.03191
;WIDTH:0.421219
M73 Q1 S54
G1 X106.501 Y100.997 E.03167
G1 X106.527 Y101.995 E.03142
;WIDTH:0.419973
G1 X106.502 Y103.002 E.0316
G1 X106.427 Y104.007 E.0316
G1 X106.302 Y105.007 E.0316
G1 X106.127 Y106 E.0316
G1 X105.903 Y106.982 E.03159
G1 X105.631 Y107.953 E.0316
G1 X105.31 Y108.908 E.03159
G1 X104.942 Y109.846 E.0316
G1 X104.528 Y110.765 E.0316
G1 X104.068 Y111.662 E.03159
G1 X103.564 Y112.534 E.0316
G1 X103.018 Y113.381 E.0316
G1 X102.43 Y114.2 E.0316
G1 X101.802 Y114.988 E.0316
G1 X101.135 Y115.743 E.0316
G1 X100.432 Y116.465 E.0316
G1 X99.693 Y117.151 E.0316
G1 X98.921 Y117.799 E.0316
G1 X98.118 Y118.407 E.0316
G1 X97.285 Y118.975 E.03159
G1 X96.426 Y119.501 E.0316
G1 X95.541 Y119.983 E.0316
G1 X94.633 Y120.42 E.03159
G1 X93.704 Y120.812 E.0316
G1 X92.757 Y121.157 E.0316
G1 X91.794 Y121.454 E.0316
G1 X90.818 Y121.703 E.0316
G1 X89.83 Y121.903 E.0316
G1 X88.834 Y122.053 E.0316
G1 X87.831 Y122.154 E.03159
G1 X86.824 Y122.205 E.0316
G1 X85.817 Y122.205 E.0316
G1 X84.81 Y122.155 E.0316
M73 Q1 S53
G1 X83.807 Y122.055 E.0316
G1 X82.811 Y121.905 E.0316
G1 X81.823 Y121.705 E.0316
G1 X80.846 Y121.457 E.0316
G1 X79.883 Y121.16 E.0316
G1 X78.936 Y120.816 E.0316
G1 X78.008 Y120.424 E.0316
G1 X77.1 Y119.987 E.03159
G1 X76.214 Y119.505 E.0316
G1 X75.354 Y118.98 E.0316
G1 X74.522 Y118.413 E.03159
G1 X73.718 Y117.804 E.0316
G1 X72.946 Y117.157 E.0316
G1 X72.207 Y116.472 E.0316
G1 X71.503 Y115.75 E.0316
G1 X70.874 Y115.037 E.02982
M204 S1000
G1 X70.44 Y115.062 F10800
; stop printing object positioning ring-Body.stl id:0 copy 0
; printing object case-Body.stl id:1 copy 0
;WIPE_START
G1 F8640
G1 X70.208 Y114.207 E-.24574
G1 X69.619 Y113.389 E-.2327
G1 X69.072 Y112.543 E-.2327
G1 X68.966 Y112.359 E-.04886
;WIPE_END
G1 E-.04 F2100
G1 Z.6 F720
G1 X127.013 Y81.435 F10800
G1 Z.2 F720
G1 E.8 F2100
M204 S800
;TYPE:Support material
;WIDTH:0.42
G1 F1200
G1 X126.424 Y81.817 E.02202
G1 X125.436 Y82.528 E.03817
G1 X124.476 Y83.295 E.03853
G1 X123.555 Y84.109 E.03854
G1 X122.668 Y84.977 E.0389
G1 X121.833 Y85.878 E.03854
G1 X121.051 Y86.812 E.03817
G1 X120.386 Y87.691 E.03457
G1 X119.618 Y88.808 E.0425
G1 X118.971 Y89.867 E.0389
G1 X118.384 Y90.947 E.03854
G1 X117.857 Y92.044 E.03817
G1 X117.429 Y93.06 E.03457
G1 X116.96 Y94.332 E.0425
G1 X116.594 Y95.517 E.03891
G1 X116.292 Y96.709 E.03854
G1 X116.051 Y97.902 E.03816
G1 X115.886 Y98.992 E.03458
G1 X115.745 Y100.34 E.04249
G1 X115.683 Y101.58 E.03891
G1 X115.69 Y102.935 E.04249
G1 X115.745 Y104.036 E.03458
G1 X115.866 Y105.247 E.03816
G1 X116.051 Y106.474 E.03891
G1 X116.294 Y107.679 E.03854
G1 X116.597 Y108.87 E.03854
G1 X117.003 Y110.164 E.04249
G1 X117.38 Y111.2 E.03458
G1 X117.852 Y112.322 E.03817
G1 X118.384 Y113.43 E.03854
G1 X118.977 Y114.52 E.0389
G1 X119.689 Y115.673 E.04249
G1 X120.31 Y116.585 E.03458
G1 X121.044 Y117.556 E.03817
G1 X121.841 Y118.507 E.0389
G1 X122.766 Y119.497 E.0425
G1 X123.555 Y120.267 E.03457
G1 X124.467 Y121.074 E.03817
G1 X125.436 Y121.848 E.03889
G1 X126.424 Y122.56 E.03817
G1 X127.013 Y122.942 E.02203
G1 X126.754 Y123.679 E.02451
G1 X110.892 Y123.679 E.49735
G1 X110.892 Y119.044 E.14535
G1 X108.574 Y119.044 E.07267
G1 X108.574 Y110.828 E.25759
G1 X110.892 Y110.828 E.07267
G1 X110.892 Y93.548 E.54182
G1 X108.574 Y93.548 E.07267
G1 X108.574 Y85.333 E.25759
G1 X110.892 Y85.333 E.07267
G1 X110.892 Y80.697 E.14535
G1 X126.754 Y80.697 E.49735
G1 X126.994 Y81.381 E.02273
M204 S1000
;WIPE_START
G1 F8640
G1 X126.754 Y80.697 E-.16741
G1 X124.188 Y80.697 E-.59259
;WIPE_END
G1 E-.04 F2100
G1 Z.6 F720
G1 X126.349 Y123.51 F10800
G1 Z.2 F720
G1 E.8 F2100
M204 S800
G1 F1200
G1 X126.349 Y122.916 E.01862
G1 X125.93 Y122.622 E.01605
G1 X125.93 Y123.34 E.02251
G1 X125.511 Y123.34 E.01314
G1 X125.511 Y122.32 E.03198
G1 X125.092 Y122.008 E.01639
G1 X125.092 Y123.34 E.04178
G1 X124.673 Y123.34 E.01314
G1 X124.673 Y121.673 E.05228
G1 X124.254 Y121.338 E.01683
G1 X124.254 Y123.34 E.06279
G1 X123.835 Y123.34 E.01314
G1 X123.835 Y120.967 E.07439
G1 X123.416 Y120.597 E.01753
G1 X123.416 Y123.34 E.08601
G1 X122.997 Y123.34 E.01314
G1 X122.997 Y120.196 E.09857
G1 X122.578 Y119.787 E.01837
G1 X122.578 Y123.34 E.1114
G1 X122.159 Y123.34 E.01314
G1 X122.159 Y119.35 E.12511
G1 X121.74 Y118.898 E.01933
G1 X121.74 Y123.34 E.13929
G1 X121.321 Y123.34 E.01314
G1 X121.321 Y118.415 E.15441
G1 X120.902 Y117.915 E.02045
G1 X120.902 Y123.34 E.17009
G1 X120.483 Y123.34 E.01314
G1 X120.483 Y117.377 E.18698
G1 X120.064 Y116.823 E.02178
G1 X120.064 Y123.34 E.20435
G1 X119.645 Y123.34 E.01314
G1 X119.645 Y116.212 E.2235
G1 X119.226 Y115.579 E.0238
G1 X119.226 Y123.34 E.24335
G1 X118.807 Y123.34 E.01314
G1 X118.807 Y114.892 E.26487
G1 X118.388 Y114.147 E.0268
G1 X118.388 Y123.34 E.28823
G1 X117.969 Y123.34 E.01314
G1 X117.969 Y113.349 E.31327
G1 X117.55 Y112.478 E.03031
G1 X117.55 Y123.34 E.34059
G1 X117.131 Y123.34 E.01314
G1 X117.131 Y111.484 E.37174
G1 X116.712 Y110.358 E.03768
G1 X116.712 Y123.34 E.40706
G1 X116.293 Y123.34 E.01314
G1 X116.293 Y109.035 E.44852
G1 X115.964 Y107.759 E.04134
G1 X115.874 Y107.315 E.01419
G1 X115.874 Y123.34 E.50246
G1 X115.455 Y123.34 E.01314
G1 X115.455 Y81.036 E1.32641
G1 X115.874 Y81.036 E.01314
G1 X115.874 Y97.061 E.50245
G1 X115.964 Y96.618 E.01419
G1 X116.293 Y95.341 E.04134
G1 X116.293 Y81.036 E.44851
G1 X116.712 Y81.036 E.01314
G1 X116.712 Y94.019 E.40705
G1 X117.131 Y92.892 E.03768
G1 X117.131 Y81.036 E.37174
G1 X117.55 Y81.036 E.01314
G1 X117.55 Y91.899 E.34058
G1 X117.969 Y91.027 E.03031
G1 X117.969 Y81.036 E.31327
G1 X118.388 Y81.036 E.01314
G1 X118.388 Y90.229 E.28823
G1 X118.807 Y89.484 E.0268
G1 X118.807 Y81.036 E.26487
G1 X119.226 Y81.036 E.01314
G1 X119.226 Y88.797 E.24334
G1 X119.645 Y88.164 E.0238
G1 X119.645 Y81.036 E.22349
G1 X120.064 Y81.036 E.01314
G1 X120.064 Y87.554 E.20435
G1 X120.483 Y87 E.02178
G1 X120.483 Y81.036 E.18698
G1 X120.902 Y81.036 E.01314
G1 X120.902 Y86.461 E.17009
G1 X121.321 Y85.961 E.02045
G1 X121.321 Y81.036 E.15441
G1 X121.74 Y81.036 E.01314
G1 X121.74 Y85.479 E.13929
G1 X122.159 Y85.027 E.01933
G1 X122.159 Y81.036 E.12511
G1 X122.578 Y81.036 E.01314
G1 X122.578 Y84.589 E.1114
G1 X122.997 Y84.18 E.01837
G1 X122.997 Y81.036 E.09857
G1 X123.416 Y81.036 E.01314
G1 X123.416 Y83.779 E.08601
G1 X123.835 Y83.409 E.01753
G1 X123.835 Y81.036 E.07439
G1 X124.254 Y81.036 E.01314
G1 X124.254 Y83.039 E.06279
G1 X124.673 Y82.704 E.01683
G1 X124.673 Y81.036 E.05228
G1 X125.092 Y81.036 E.01314
G1 X125.092 Y82.369 E.04178
G1 X125.511 Y82.056 E.01639
G1 X125.511 Y81.036 E.03197
G1 X125.93 Y81.036 E.01314
G1 X125.93 Y81.754 E.02251
G1 X126.349 Y81.46 E.01605
G1 X126.349 Y80.867 E.01861
M204 S1000
;WIPE_START
G1 F8640
G1 X126.349 Y81.46 E-.13708
G1 X125.93 Y81.754 E-.11818
G1 X125.93 Y81.036 E-.16578
