; generated by PrusaSlicer 2.5.0+linux-x64-GTK3 on 2022-12-13 at 19:12:06 UTC


;
;
; 

; external perimeters extrusion width = 0.45mm
; perimeters extrusion width = 0.45mm
; infill extrusion width = 0.45mm
; solid infill extrusion width = 0.45mm
; top infill extrusion width = 0.40mm
; first layer extrusion width = 0.42mm

; external perimeters extrusion width = 0.45mm
; perimeters extrusion width = 0.45mm
; infill extrusion width = 0.45mm
; solid infill extrusion width = 0.45mm
; top infill extrusion width = 0.40mm
; first layer extrusion width = 0.42mm

; external perimeters extrusion width = 0.45mm
; perimeters extrusion width = 0.45mm
; infill extrusion width = 0.45mm
; solid infill extrusion width = 0.45mm
; top infill extrusion width = 0.40mm
; first layer extrusion width = 0.42mm

; external perimeters extrusion width = 0.45mm
; perimeters extrusion width = 0.45mm
; infill extrusion width = 0.45mm
; solid infill extrusion width = 0.45mm
; top infill extrusion width = 0.40mm
; first layer extrusion width = 0.42mm

M73 P0 R75
M73 Q0 S77
M201 X1000 Y1000 Z200 E5000 ; sets maximum accelerations, mm/sec^2
M203 X200 Y200 Z12 E120 ; sets maximum feedrates, mm / sec
M204 P1250 R1250 T1250 ; sets acceleration (P, T) and retract acceleration (R), mm/sec^2
M205 X8.00 Y8.00 Z0.40 E4.50 ; sets the jerk limits, mm/sec
M205 S0 T0 ; sets the minimum extruding and travel feed rate, mm/sec
M107
;TYPE:Custom
M862.3 P "MK3S" ; printer model check
M862.1 P0.4 ; nozzle diameter check
M115 U3.11.0 ; tell printer latest fw version
G90 ; use absolute coordinates
M83 ; extruder relative mode
M104 S215 ; set extruder temp
M140 S60 ; set bed temp
M190 S60 ; wait for bed temp
M109 S215 ; wait for extruder temp
G28 W ; home all without mesh bed level
G80 ; mesh bed leveling

G1 Z0.2 F720
G1 Y-3 F1000 ; go outside print area
G92 E0
G1 X60 E9 F1000 ; intro line
G1 X100 E12.5 F1000 ; intro line

G92 E0
M221 S95

; Don't change E values below. Excessive value can damage the printer.
M907 E430 ; set extruder motor current
G21 ; set units to millimeters
G90 ; use absolute coordinates
M83 ; use relative distances for extrusion
M900 K0.05 ; Filament gcode LA 1.5
M900 K30 ; Filament gcode LA 1.0
M107
;LAYER_CHANGE
;Z:0.2
;HEIGHT:0.2
;BEFORE_LAYER_CHANGE
G92 E0.0
;0.2


M73 Q0 S76
G1 E-.8 F2100
G1 Z.4 F720
;AFTER_LAYER_CHANGE
;0.2
G1 X70.812 Y35.386 F10800
G1 Z.2 F720
G1 E.8 F2100
M204 S800
;TYPE:Skirt/Brim
;WIDTH:0.42
G1 F1200
G1 X71.791 Y34.591 E.03958
G1 X87.688 Y27.633 E.54409
G1 X90.189 Y26.787 E.08279
G1 X92.533 Y26.245 E.0754
G1 X93.896 Y26.035 E.04326
G1 X96.294 Y25.847 E.0754
G1 X155.013 Y26.011 E1.84111
G1 X157.63 Y26.197 E.08227
G1 X159.983 Y26.6 E.07485
G1 X161.226 Y26.906 E.04011
G1 X177.72 Y32.227 E.54342
G1 X178.434 Y32.603 E.02528
G1 X181.443 Y34.912 E.11894
G1 X182.242 Y36.019 E.04278
G1 X182.373 Y36.798 E.02478
G1 X182.373 Y66.117 E.91928
G1 X181.599 Y114.062 E1.50348
G1 X181.186 Y115.363 E.04278
G1 X180.67 Y115.909 E.02359
G1 X177.66 Y118.219 E.11894
G1 X176.947 Y118.594 E.02528
G1 X160.566 Y123.885 E.53973
G1 X159.227 Y124.218 E.04326
G1 X156.74 Y124.638 E.0791
G1 X154.227 Y124.81 E.07898
G1 X94.598 Y124.67 E1.86963
G1 X92.082 Y124.478 E.0791
G1 X90.719 Y124.268 E.04326
G1 X88.262 Y123.694 E.0791
G1 X85.984 Y122.923 E.0754
G1 X69.978 Y115.922 E.54778
G1 X68.938 Y115.039 E.04278
G1 X68.555 Y113.745 E.04229
G1 X68.557 Y84.659 E.91197
G1 X70.371 Y36.678 E1.5055
G1 X70.792 Y35.443 E.0409
M204 S1000
; printing object case3-Body.stl id:2 copy 0
;WIPE_START
G1 F8640
G1 X71.791 Y34.591 E-.30329
G1 X73.603 Y33.798 E-.45671
;WIPE_END
G1 E-.04 F2100
G1 Z.6 F720
G1 X116.952 Y111.555 F10800
G1 Z.2 F720
G1 E.8 F2100
M204 S800
;TYPE:Perimeter
;WIDTH:0.419999
G1 F1200
G1 X116.953 Y111.616 E.00193
G1 X117.048 Y111.845 E.00775
G1 X117.298 Y112.043 E.01001
G1 X117.51 Y112.084 E.00677
G1 X118.918 Y112.084 E.04415
G1 X118.921 Y114.067 E.06216
G1 X118.384 Y114.475 E.02114
G1 X117.994 Y114.807 E.01607
G1 X117.39 Y115.418 E.02692
G1 X112.08 Y115.551 E.16656
G1 X111.167 Y115.711 E.02905
G1 X110.491 Y115.92 E.02218
G1 X109.968 Y116.156 E.01798
G1 X109.463 Y116.448 E.01829
G1 X108.143 Y117.417 E.05136
G1 X107.224 Y118.034 E.03471
G1 X106.277 Y118.604 E.03464
G1 X105.303 Y119.126 E.03464
G1 X104.305 Y119.599 E.03464
G1 X103.285 Y120.022 E.03464
G1 X102.244 Y120.394 E.03464
G1 X101.187 Y120.714 E.03464
G1 X100.115 Y120.981 E.03464
G1 X99.031 Y121.195 E.03464
G1 X97.938 Y121.354 E.03464
G1 X96.838 Y121.46 E.03464
G1 X95.734 Y121.51 E.03464
G1 X94.63 Y121.506 E.03464
G1 X93.527 Y121.447 E.03464
G1 X92.428 Y121.333 E.03464
G1 X91.336 Y121.165 E.03464
G1 X90.253 Y120.943 E.03464
G1 X89.184 Y120.667 E.03464
G1 X88.129 Y120.339 E.03464
G1 X87.091 Y119.959 E.03464
G1 X86.074 Y119.528 E.03464
G1 X85.08 Y119.047 E.03464
G1 X84.11 Y118.517 E.03464
G1 X83.168 Y117.94 E.03464
G1 X82.254 Y117.315 E.03471
G1 X80.884 Y116.297 E.05353
G1 X80.382 Y116.011 E.01811
G1 X79.847 Y115.773 E.01836
G1 X79.339 Y115.602 E.01682
G1 X74.528 Y114.246 E.1567
G1 X73.571 Y113.947 E.03145
G1 X73.017 Y113.672 E.01941
G1 X73.019 Y112.084 E.04977
G1 X73.773 Y112.066 E.02363
G1 X74.003 Y111.943 E.0082
G1 X74.128 Y111.786 E.00628
G1 X74.195 Y111.519 E.00863
G1 X74.195 Y86.976 E.76952
G1 X74.127 Y86.707 E.00869
G1 X74 Y86.549 E.00633
G1 X73.781 Y86.431 E.00781
G1 X73.629 Y86.41 E.00481
G1 X73.019 Y86.41 E.01912
G1 X73.017 Y84.811 E.05015
G1 X73.692 Y84.485 E.02352
G1 X79.366 Y82.884 E.18483
G1 X79.994 Y82.66 E.02091
G1 X80.454 Y82.446 E.01593
G1 X80.939 Y82.161 E.01762
G1 X82.254 Y81.18 E.05146
G1 X83.168 Y80.555 E.03471
G1 X84.11 Y79.978 E.03464
G1 X85.08 Y79.448 E.03464
G1 X86.074 Y78.967 E.03464
G1 X87.091 Y78.536 E.03464
G1 X88.129 Y78.156 E.03464
G1 X89.184 Y77.828 E.03464
G1 X90.253 Y77.552 E.03464
G1 X91.336 Y77.33 E.03464
G1 X92.428 Y77.162 E.03464
G1 X93.527 Y77.048 E.03464
G1 X94.63 Y76.989 E.03464
G1 X95.734 Y76.985 E.03464
G1 X96.838 Y77.035 E.03464
G1 X97.938 Y77.14 E.03464
G1 X99.031 Y77.3 E.03464
M73 P0 R74
G1 X100.115 Y77.513 E.03464
G1 X101.187 Y77.78 E.03464
G1 X102.244 Y78.1 E.03464
G1 X103.285 Y78.472 E.03464
G1 X104.305 Y78.895 E.03464
G1 X105.303 Y79.368 E.03464
G1 X106.277 Y79.891 E.03464
G1 X107.224 Y80.46 E.03464
G1 X108.143 Y81.078 E.03471
G1 X109.518 Y82.083 E.05342
G1 X110.018 Y82.364 E.01798
G1 X110.544 Y82.595 E.018
G1 X111.089 Y82.772 E.01797
G1 X111.824 Y82.911 E.02347
G1 X112.474 Y82.972 E.02047
G1 X117.383 Y83.077 E.15395
G1 X117.725 Y83.436 E.01554
G1 X118.509 Y84.126 E.03276
G1 X118.921 Y84.428 E.016
G1 X118.918 Y86.41 E.06216
G1 X117.596 Y86.41 E.04147
G1 X117.298 Y86.452 E.00943
G1 X117.152 Y86.538 E.00531
G1 X116.984 Y86.768 E.00891
G1 X116.945 Y86.976 E.00664
G1 X116.952 Y111.495 E.76877
M204 S1000
G1 X117.322 Y111.519 F10800
M204 S800
;TYPE:External perimeter
G1 F1200
G1 X117.391 Y111.665 E.00506
G1 X117.51 Y111.707 E.00397
G1 X119.295 Y111.707 E.05595
G1 X119.298 Y114.259 E.08
G1 X118.693 Y114.707 E.0236
G1 X118.262 Y115.072 E.01772
G1 X117.551 Y115.791 E.03171
G1 X112.134 Y115.924 E.1699
G1 X111.276 Y116.072 E.0273
G1 X110.644 Y116.265 E.02072
G1 X110.155 Y116.484 E.01681
G1 X109.686 Y116.751 E.01692
G1 X108.359 Y117.726 E.05161
G1 X107.426 Y118.353 E.03525
G1 X106.464 Y118.932 E.03523
G1 X105.473 Y119.463 E.03523
G1 X104.458 Y119.944 E.03523
G1 X103.42 Y120.374 E.03523
G1 X102.363 Y120.753 E.03522
G1 X101.287 Y121.078 E.03523
G1 X100.197 Y121.35 E.03522
G1 X99.095 Y121.567 E.03523
G1 X97.983 Y121.729 E.03523
G1 X96.865 Y121.836 E.03523
G1 X95.742 Y121.887 E.03523
G1 X94.619 Y121.883 E.03523
G1 X93.497 Y121.823 E.03523
G1 X92.379 Y121.707 E.03523
G1 X91.269 Y121.536 E.03522
G1 X90.169 Y121.31 E.03523
G1 X89.081 Y121.03 E.03522
G1 X88.008 Y120.696 E.03523
G1 X86.953 Y120.31 E.03523
G1 X85.918 Y119.871 E.03523
G1 X84.907 Y119.382 E.03523
G1 X83.921 Y118.843 E.03523
G1 X82.963 Y118.256 E.03522
G1 X82.035 Y117.622 E.03525
G1 X80.695 Y116.624 E.05239
G1 X80.227 Y116.354 E.01691
G1 X79.727 Y116.13 E.0172
G1 X79.236 Y115.965 E.01623
G1 X73.693 Y114.402 E.18059
G1 X73.4 Y114.283 E.0099
G1 X72.639 Y113.917 E.02649
G1 X72.643 Y111.707 E.06927
G1 X73.629 Y111.707 E.03092
G1 X73.754 Y111.66 E.00418
G1 X73.817 Y111.519 E.00486
G1 X73.817 Y86.976 E.76952
G1 X73.753 Y86.834 E.0049
G1 X73.629 Y86.787 E.00415
G1 X72.643 Y86.787 E.03092
G1 X72.639 Y84.574 E.06939
G1 X73.558 Y84.131 E.032
G1 X79.245 Y82.527 E.18527
G1 X79.753 Y82.355 E.01681
G1 X80.266 Y82.12 E.01768
G1 X80.713 Y81.859 E.01624
G1 X82.035 Y80.873 E.0517
G1 X82.963 Y80.238 E.03525
G1 X83.921 Y79.652 E.03522
G1 X84.907 Y79.113 E.03523
G1 X85.918 Y78.624 E.03523
G1 X86.953 Y78.185 E.03523
G1 X88.008 Y77.799 E.03523
G1 X89.081 Y77.465 E.03523
G1 X90.168 Y77.185 E.03522
G1 X91.269 Y76.959 E.03523
G1 X92.379 Y76.788 E.03522
G1 X93.497 Y76.672 E.03523
G1 X94.619 Y76.612 E.03523
G1 X95.742 Y76.608 E.03523
G1 X96.865 Y76.659 E.03523
G1 X97.983 Y76.766 E.03523
G1 X99.095 Y76.928 E.03523
G1 X100.197 Y77.145 E.03523
G1 X101.287 Y77.417 E.03522
G1 X102.363 Y77.742 E.03523
G1 X103.42 Y78.12 E.03522
G1 X104.458 Y78.551 E.03523
G1 X105.473 Y79.032 E.03523
G1 X106.464 Y79.563 E.03523
G1 X107.426 Y80.142 E.03523
G1 X108.359 Y80.769 E.03525
G1 X109.705 Y81.755 E.0523
G1 X110.171 Y82.019 E.01681
G1 X110.662 Y82.236 E.01683
G1 X111.171 Y82.404 E.0168
G1 X111.86 Y82.536 E.02201
G1 X112.482 Y82.595 E.01959
G1 X117.549 Y82.704 E.15889
G1 X118.048 Y83.218 E.02247
G1 X118.772 Y83.854 E.03023
G1 X119.298 Y84.236 E.02038
G1 X119.295 Y86.787 E.08
G1 X117.596 Y86.787 E.05327
G1 X117.391 Y86.83 E.00656
G1 X117.322 Y86.976 E.00506
G1 X117.322 Y111.459 E.76764
M204 S1000
G1 X117.211 Y111.637 F10800
;WIPE_START
G1 F8640
G1 X117.391 Y111.665 E-.05017
G1 X117.51 Y111.707 E-.02926
G1 X119.295 Y111.707 E-.41205
G1 X119.296 Y112.87 E-.26852
;WIPE_END
G1 E-.04 F2100
G1 Z.6 F720
G1 X106.98 Y91.068 F10800
G1 Z.2 F720
G1 E.8 F2100
M204 S800
;TYPE:Perimeter
G1 F1200
G1 X107.453 Y91.786 E.02696
G1 X107.81 Y92.402 E.02234
G1 X108.136 Y93.036 E.02234
G1 X108.429 Y93.685 E.02234
G1 X108.69 Y94.348 E.02234
G1 X108.918 Y95.023 E.02233
G1 X109.111 Y95.708 E.02234
G1 X109.271 Y96.403 E.02233
G1 X109.395 Y97.104 E.02234
G1 X109.484 Y97.811 E.02234
G1 X109.538 Y98.521 E.02234
G1 X109.557 Y99.233 E.02234
G1 X109.54 Y99.945 E.02234
G1 X109.487 Y100.656 E.02234
G1 X109.399 Y101.363 E.02234
G1 X109.276 Y102.064 E.02234
G1 X109.118 Y102.759 E.02233
G1 X108.914 Y103.482 E.02355
G1 X108.547 Y104.512 E.03429
G1 X108.151 Y105.426 E.03123
M73 P1 R74
G1 X107.824 Y106.068 E.02259
G1 X107.468 Y106.685 E.02234
G1 X107.082 Y107.284 E.02234
G1 X106.667 Y107.863 E.02234
G1 X105.953 Y108.727 E.03516
G1 X105.328 Y109.391 E.02857
G1 X104.762 Y109.924 E.02439
G1 X104.189 Y110.409 E.02354
G1 X103.621 Y110.839 E.02234
G1 X103.033 Y111.241 E.02234
G1 X102.425 Y111.613 E.02234
G1 X101.8 Y111.954 E.02234
G1 X101.159 Y112.264 E.02233
G1 X100.502 Y112.542 E.02234
G1 X99.833 Y112.786 E.02234
M73 Q1 S76
G1 X99.153 Y112.997 E.02234
G1 X98.463 Y113.173 E.02234
G1 X97.765 Y113.315 E.02233
G1 X97.06 Y113.422 E.02234
G1 X96.351 Y113.493 E.02234
G1 X95.64 Y113.53 E.02234
G1 X94.928 Y113.53 E.02234
G1 X94.216 Y113.495 E.02234
G1 X93.507 Y113.425 E.02234
G1 X92.803 Y113.32 E.02234
G1 X92.104 Y113.179 E.02233
G1 X91.414 Y113.004 E.02234
G1 X90.733 Y112.795 E.02234
G1 X90.063 Y112.552 E.02234
G1 X89.407 Y112.276 E.02234
G1 X88.764 Y111.967 E.02233
G1 X88.138 Y111.627 E.02234
G1 X87.53 Y111.256 E.02234
G1 X86.941 Y110.856 E.02234
G1 X86.373 Y110.426 E.02234
G1 X85.917 Y110.045 E.01863
G1 X85.304 Y109.485 E.02604
G1 X84.806 Y108.975 E.02234
G1 X84.334 Y108.442 E.02234
G1 X83.89 Y107.885 E.02234
G1 X83.473 Y107.307 E.02234
G1 X83.086 Y106.709 E.02234
G1 X82.729 Y106.093 E.02234
G1 X82.404 Y105.459 E.02234
G1 X82.11 Y104.81 E.02234
G1 X81.849 Y104.147 E.02234
G1 X81.622 Y103.472 E.02233
G1 X81.428 Y102.786 E.02234
G1 X81.269 Y102.092 E.02233
G1 X81.144 Y101.391 E.02234
G1 X81.055 Y100.684 E.02234
G1 X81.001 Y99.974 E.02234
G1 X80.983 Y99.261 E.02234
G1 X81 Y98.549 E.02234
G1 X81.052 Y97.839 E.02234
G1 X81.14 Y97.132 E.02234
G1 X81.263 Y96.43 E.02234
G1 X81.421 Y95.736 E.02233
G1 X81.625 Y95.013 E.02355
G1 X81.993 Y93.983 E.03429
G1 X82.388 Y93.069 E.03123
G1 X82.716 Y92.427 E.02259
G1 X83.071 Y91.81 E.02234
G1 X83.457 Y91.211 E.02234
G1 X83.873 Y90.632 E.02234
G1 X84.558 Y89.799 E.03383
G1 X85.111 Y89.207 E.02541
G1 X85.668 Y88.672 E.02419
G1 X86.351 Y88.086 E.02823
G1 X86.918 Y87.655 E.02234
G1 X87.507 Y87.254 E.02234
G1 X88.114 Y86.882 E.02234
G1 X88.739 Y86.54 E.02234
G1 X89.381 Y86.23 E.02233
G1 X90.037 Y85.953 E.02234
G1 X90.706 Y85.709 E.02234
G1 X91.387 Y85.498 E.02234
G1 X92.077 Y85.322 E.02234
G1 X92.775 Y85.18 E.02233
G1 X93.479 Y85.073 E.02234
G1 X94.188 Y85.001 E.02234
G1 X94.899 Y84.965 E.02234
G1 X95.612 Y84.964 E.02234
G1 X96.323 Y84.999 E.02234
G1 X97.032 Y85.069 E.02234
G1 X97.737 Y85.175 E.02234
G1 X98.435 Y85.315 E.02233
G1 X99.126 Y85.491 E.02234
G1 X99.807 Y85.7 E.02234
G1 X100.476 Y85.943 E.02234
G1 X101.133 Y86.219 E.02234
G1 X101.774 Y86.527 E.02229
G1 X102.396 Y86.865 E.02219
G1 X103 Y87.233 E.02219
G1 X103.598 Y87.639 E.02267
G1 X104.167 Y88.069 E.02234
G1 X104.713 Y88.526 E.02234
G1 X105.141 Y88.923 E.01831
G1 X105.69 Y89.475 E.02439
G1 X106.205 Y90.053 E.02429
G1 X106.65 Y90.61 E.02234
G1 X106.945 Y91.019 E.01583
M204 S1000
G1 X106.665 Y91.276 F10800
M204 S800
;TYPE:External perimeter
G1 F1200
G1 X107.137 Y91.99 E.02683
G1 X107.484 Y92.591 E.02175
G1 X107.8 Y93.208 E.02175
G1 X108.086 Y93.84 E.02175
G1 X108.339 Y94.485 E.02175
G1 X108.56 Y95.143 E.02175
G1 X108.748 Y95.81 E.02175
G1 X108.903 Y96.487 E.02175
G1 X109.024 Y97.17 E.02175
G1 X109.11 Y97.858 E.02175
G1 X109.162 Y98.549 E.02175
G1 X109.18 Y99.243 E.02175
G1 X109.163 Y99.936 E.02175
G1 X109.111 Y100.628 E.02175
G1 X109.025 Y101.316 E.02175
G1 X108.905 Y101.999 E.02175
G1 X108.751 Y102.675 E.02175
G1 X108.559 Y103.355 E.02215
G1 X108.192 Y104.385 E.03429
G1 X107.805 Y105.276 E.03044
G1 X107.488 Y105.896 E.02184
G1 X107.141 Y106.496 E.02175
G1 X106.765 Y107.079 E.02175
G1 X106.361 Y107.643 E.02175
G1 X105.67 Y108.478 E.03398
G1 X105.058 Y109.127 E.02798
G1 X104.505 Y109.648 E.0238
G1 X103.946 Y110.12 E.02295
G1 X103.393 Y110.539 E.02175
G1 X102.821 Y110.93 E.02175
G1 X102.229 Y111.291 E.02175
G1 X101.62 Y111.623 E.02175
G1 X100.995 Y111.924 E.02175
G1 X100.356 Y112.194 E.02175
G1 X99.704 Y112.432 E.02175
G1 X99.042 Y112.636 E.02175
G1 X98.37 Y112.808 E.02175
G1 X97.69 Y112.945 E.02174
G1 X97.004 Y113.049 E.02175
G1 X96.314 Y113.118 E.02175
G1 X95.621 Y113.153 E.02175
G1 X94.928 Y113.153 E.02175
G1 X94.235 Y113.119 E.02175
G1 X93.545 Y113.05 E.02175
G1 X92.859 Y112.947 E.02175
G1 X92.179 Y112.81 E.02175
G1 X91.507 Y112.639 E.02175
G1 X90.844 Y112.435 E.02175
G1 X90.192 Y112.198 E.02175
G1 X89.553 Y111.928 E.02175
G1 X88.928 Y111.628 E.02175
G1 X88.319 Y111.296 E.02175
G1 X87.727 Y110.935 E.02175
G1 X87.154 Y110.544 E.02175
G1 X86.601 Y110.126 E.02175
G1 X86.16 Y109.756 E.01804
G1 X85.561 Y109.208 E.02545
G1 X85.076 Y108.712 E.02175
G1 X84.617 Y108.192 E.02175
G1 X84.184 Y107.65 E.02175
G1 X83.779 Y107.087 E.02175
G1 X83.403 Y106.505 E.02175
G1 X83.056 Y105.904 E.02175
G1 X82.739 Y105.287 E.02175
G1 X82.454 Y104.655 E.02175
G1 X82.2 Y104.009 E.02175
G1 X81.979 Y103.352 E.02175
G1 X81.791 Y102.684 E.02175
G1 X81.636 Y102.008 E.02175
G1 X81.516 Y101.325 E.02175
G1 X81.429 Y100.637 E.02175
G1 X81.377 Y99.945 E.02175
G1 X81.36 Y99.252 E.02175
G1 X81.377 Y98.559 E.02175
G1 X81.428 Y97.867 E.02175
G1 X81.514 Y97.179 E.02175
G1 X81.635 Y96.496 E.02175
G1 X81.789 Y95.82 E.02175
G1 X81.98 Y95.139 E.02215
G1 X82.348 Y94.109 E.03429
G1 X82.734 Y93.219 E.03044
G1 X83.051 Y92.599 E.02184
G1 X83.398 Y91.998 E.02175
G1 X83.774 Y91.415 E.02175
G1 X84.179 Y90.852 E.02175
G1 X84.841 Y90.049 E.03265
G1 X85.381 Y89.47 E.02482
G1 X85.924 Y88.949 E.0236
G1 X86.593 Y88.375 E.02764
G1 X87.146 Y87.956 E.02175
G1 X87.719 Y87.565 E.02175
G1 X88.311 Y87.203 E.02175
G1 X88.92 Y86.871 E.02175
G1 X89.544 Y86.57 E.02175
G1 X90.183 Y86.301 E.02175
G1 X90.835 Y86.063 E.02175
G1 X91.498 Y85.859 E.02175
G1 X92.17 Y85.687 E.02175
