; generated by PrusaSlicer 2.5.0+linux-x64-GTK3 on 2022-12-15 at 20:13:42 UTC


;
;
; 

; external perimeters extrusion width = 0.45mm
; perimeters extrusion width = 0.45mm
; infill extrusion width = 0.45mm
; solid infill extrusion width = 0.45mm
; top infill extrusion width = 0.40mm
; first layer extrusion width = 0.42mm

M73 P0 R26
M73 Q0 S27
M201 X1000 Y1000 Z200 E5000 ; sets maximum accelerations, mm/sec^2
M203 X200 Y200 Z12 E120 ; sets maximum feedrates, mm / sec
M204 P1250 R1250 T1250 ; sets acceleration (P, T) and retract acceleration (R), mm/sec^2
M205 X8.00 Y8.00 Z0.40 E4.50 ; sets the jerk limits, mm/sec
M205 S0 T0 ; sets the minimum extruding and travel feed rate, mm/sec
M107
;TYPE:Custom
M862.3 P "MK3S" ; printer model check
M862.1 P0.4 ; nozzle diameter check
M115 U3.11.0 ; tell printer latest fw version
G90 ; use absolute coordinates
M83 ; extruder relative mode
M104 S215 ; set extruder temp
M140 S60 ; set bed temp
M190 S60 ; wait for bed temp
M109 S215 ; wait for extruder temp
G28 W ; home all without mesh bed level
G80 ; mesh bed leveling

G1 Z0.2 F720
G1 Y-3 F1000 ; go outside print area
G92 E0
G1 X60 E9 F1000 ; intro line
G1 X100 E12.5 F1000 ; intro line

G92 E0
M221 S95

; Don't change E values below. Excessive value can damage the printer.
M907 E430 ; set extruder motor current
G21 ; set units to millimeters
G90 ; use absolute coordinates
M83 ; use relative distances for extrusion
M900 K0.05 ; Filament gcode LA 1.5
M900 K30 ; Filament gcode LA 1.0
M107
;LAYER_CHANGE
;Z:0.2
;HEIGHT:0.2
;BEFORE_LAYER_CHANGE
G92 E0.0
;0.2


G1 E-.8 F2100
G1 Z.4 F720
;AFTER_LAYER_CHANGE
;0.2
G1 X41.479 Y39.927 F10800
G1 Z.2 F720
G1 E.8 F2100
M204 S800
;TYPE:Skirt/Brim
;WIDTH:0.42
G1 F1200
G1 X42.459 Y39.081 E.0406
G1 X57.399 Y32.111 E.5169
G1 X59.63 Y31.169 E.07596
G1 X62.079 Y30.397 E.08051
G1 X63.555 Y30.053 E.04751
G1 X66.089 Y29.664 E.08039
G1 X68.783 Y29.522 E.08457
G1 X70.092 Y29.552 E.04106
G1 X72.531 Y29.78 E.07681
G1 X75.238 Y30.303 E.08644
G1 X95.146 Y36.376 E.65261
G1 X95.825 Y36.711 E.02372
G1 X98.352 Y38.506 E.09721
G1 X99.191 Y39.582 E.04278
G1 X99.353 Y40.444 E.0275
M73 Q0 S26
G1 X99.353 Y71.753 E.98168
G1 X98.961 Y73.06 E.04278
G1 X98.352 Y73.691 E.0275
G1 X95.825 Y75.486 E.09721
G1 X95.146 Y75.821 E.02372
G1 X75.232 Y81.895 E.65281
G1 X73.722 Y82.221 E.04841
G1 X71.343 Y82.557 E.07535
G1 X68.895 Y82.674 E.07685
G1 X67.352 Y82.634 E.04837
G1 X65.01 Y82.395 E.07382
G1 X63.395 Y82.111 E.05143
G1 X60.975 Y81.485 E.07836
G1 X58.508 Y80.584 E.08235
G1 X42.459 Y73.116 E.55502
G1 X41.44 Y72.208 E.04278
G1 X41.087 Y70.963 E.0406
G1 X41.087 Y41.234 E.93211
G1 X41.462 Y39.985 E.0409
M204 S1000
; printing object case-Body.stl id:0 copy 0
;WIPE_START
M73 P1 R26
M73 Q1 S26
G1 F8640
G1 X42.459 Y39.081 E-.31074
G1 X44.222 Y38.259 E-.44926
;WIPE_END
G1 E-.04 F2100
G1 Z.6 F720
G1 X46.939 Y43.415 F10800
G1 Z.2 F720
G1 E.8 F2100
M204 S800
;TYPE:Perimeter
;WIDTH:0.419999
G1 F1200
G1 X46.733 Y43.289 E.00756
G1 X46.559 Y43.261 E.00553
G1 X45.207 Y43.261 E.04239
G1 X45.209 Y41.505 E.05506
G1 X45.963 Y41.181 E.02573
G1 X46.639 Y40.83 E.0239
G1 X51.724 Y39.275 E.16672
G1 X52.587 Y38.933 E.02909
G1 X53.408 Y38.456 E.02979
G1 X54.715 Y37.427 E.05217
G1 X55.622 Y36.774 E.03503
G1 X56.629 Y36.123 E.03759
G1 X57.631 Y35.544 E.03629
G1 X58.66 Y35.015 E.03629
G1 X59.715 Y34.537 E.0363
G1 X60.75 Y34.128 E.03491
G1 X61.876 Y33.746 E.03727
G1 X62.989 Y33.429 E.03629
G1 X64.116 Y33.167 E.03628
G1 X65.262 Y32.961 E.03651
G1 X66.409 Y32.812 E.03626
G1 X67.563 Y32.721 E.03629
G1 X68.719 Y32.686 E.03629
G1 X69.877 Y32.709 E.03629
G1 X71.031 Y32.789 E.03629
G1 X72.181 Y32.925 E.03629
G1 X73.321 Y33.119 E.03626
G1 X74.451 Y33.368 E.03628
G1 X75.568 Y33.673 E.0363
G1 X76.7 Y34.045 E.03737
G1 X77.743 Y34.445 E.035
G1 X78.802 Y34.911 E.03628
G1 X79.873 Y35.449 E.0376
G1 X80.845 Y35.998 E.03499
G1 X81.824 Y36.616 E.03629
G1 X82.771 Y37.281 E.03629
G1 X83.904 Y38.166 E.04508
G1 X84.9 Y38.763 E.03639
G1 X85.597 Y39.038 E.0235
G1 X86.47 Y39.246 E.02816
G1 X87.021 Y39.306 E.01737
G1 X94.127 Y39.43 E.22284
G1 X94.555 Y39.827 E.0183
G1 X95.315 Y40.388 E.02961
G1 X95.314 Y43.261 E.0901
G1 X94.227 Y43.261 E.03407
G1 X94.025 Y43.299 E.00645
G1 X93.877 Y43.383 E.00533
G1 X93.704 Y43.611 E.00897
G1 X93.661 Y43.827 E.00692
G1 X93.667 Y68.451 E.77205
G1 X93.77 Y68.704 E.00857
G1 X94.025 Y68.898 E.01004
G1 X94.227 Y68.936 E.00644
G1 X95.314 Y68.936 E.03407
G1 X95.315 Y71.8 E.08983
G1 X94.835 Y72.142 E.01848
G1 X94.136 Y72.767 E.02939
G1 X87.228 Y72.883 E.21663
G1 X86.417 Y72.959 E.02552
G1 X85.862 Y73.081 E.01782
G1 X85.078 Y73.354 E.02604
G1 X84.352 Y73.729 E.02562
G1 X83.904 Y74.031 E.01694
G1 X82.783 Y74.907 E.04459
G1 X81.836 Y75.573 E.0363
G1 X80.858 Y76.191 E.0363
G1 X79.849 Y76.761 E.03632
G1 X78.802 Y77.286 E.03671
G1 X77.754 Y77.748 E.03591
G1 X76.673 Y78.162 E.03631
G1 X75.573 Y78.522 E.03631
G1 X74.456 Y78.828 E.03629
G1 X73.334 Y79.076 E.03604
G1 X72.195 Y79.269 E.03623
G1 X71.047 Y79.407 E.03623
G1 X69.855 Y79.489 E.03747
G1 X68.7 Y79.511 E.03623
G1 X67.584 Y79.477 E.035
G1 X66.393 Y79.383 E.03747
G1 X65.247 Y79.234 E.03623
G1 X64.11 Y79.028 E.03623
G1 X62.984 Y78.767 E.03623
G1 X61.883 Y78.453 E.03591
G1 X60.773 Y78.078 E.03674
G1 X59.696 Y77.652 E.03631
G1 X58.641 Y77.173 E.03631
G1 X57.612 Y76.643 E.03631
G1 X56.609 Y76.063 E.03631
G1 X55.637 Y75.433 E.03631
G1 X54.696 Y74.756 E.03637
G1 X53.409 Y73.741 E.05139
G1 X52.452 Y73.194 E.03455
G1 X51.766 Y72.935 E.02298
G1 X47.687 Y71.688 E.13375
G1 X46.532 Y71.312 E.03807
G1 X45.837 Y70.959 E.02446
G1 X45.209 Y70.692 E.0214
G1 X45.207 Y68.936 E.05506
G1 X46.265 Y68.936 E.03316
G1 X46.733 Y68.908 E.01471
G1 X46.959 Y68.77 E.0083
G1 X47.077 Y68.599 E.00651
G1 X47.125 Y68.37 E.00733
G1 X47.125 Y60.371 E.2508
;WIDTH:0.463206
G1 X47.147 Y60.113 E.00904
;WIDTH:0.506412
G1 X47.168 Y59.856 E.00997
;WIDTH:0.549619
G1 X47.19 Y59.598 E.01089
;WIDTH:0.592825
G1 X47.21 Y59.294 E.01392
;WIDTH:0.589367
G1 X47.194 Y58.779 E.02343
;WIDTH:0.557202
G1 X47.177 Y58.264 E.02205
;WIDTH:0.525036
G1 X47.176 Y58.221 E.00172
;WIDTH:0.5229
G1 X47.157 Y57.19 E.04114
;WIDTH:0.484335
G1 X47.157 Y57.149 E.0015
;WIDTH:0.483317
G1 X47.15 Y56.119 E.03774
;WIDTH:0.470467
G1 X47.15 Y56.078 E.00143
;WIDTH:0.483316
G1 X47.157 Y55.048 E.03774
;WIDTH:0.484333
G1 X47.157 Y55.007 E.0015
;WIDTH:0.5229
G1 X47.176 Y53.976 E.04114
;WIDTH:0.525036
G1 X47.177 Y53.933 E.00172
;WIDTH:0.557202
G1 X47.194 Y53.418 E.02205
;WIDTH:0.589367
G1 X47.21 Y52.903 E.02343
;WIDTH:0.592826
G1 X47.19 Y52.599 E.01392
;WIDTH:0.54962
G1 X47.168 Y52.341 E.01089
;WIDTH:0.506413
G1 X47.147 Y52.084 E.00997
;WIDTH:0.463206
G1 X47.125 Y51.826 E.00904
;WIDTH:0.419999
G1 X47.125 Y44.076 E.24299
G1 X47.094 Y43.642 E.01364
G1 X46.979 Y43.458 E.0068
M204 S1000
G1 X46.693 Y43.694 F10800
M204 S800
;TYPE:External perimeter
G1 F1200
G1 X46.559 Y43.638 E.00452
G1 X44.83 Y43.638 E.05422
G1 X44.832 Y41.246 E.07502
G1 X45.254 Y41.084 E.01418
G1 X45.789 Y40.847 E.01834
G1 X46.496 Y40.479 E.02499
G1 X51.668 Y38.898 E.16959
G1 X52.399 Y38.606 E.02468
G1 X53.175 Y38.16 E.02806
G1 X54.488 Y37.125 E.05243
G1 X55.41 Y36.462 E.03558
G1 X56.432 Y35.801 E.03818
G1 X57.45 Y35.213 E.03687
G1 X58.496 Y34.675 E.03688
G1 X59.568 Y34.19 E.03688
G1 X60.62 Y33.774 E.03548
G1 X61.763 Y33.385 E.03786
G1 X62.895 Y33.063 E.03688
G1 X64.04 Y32.798 E.03686
G1 X65.204 Y32.588 E.03709
G1 X66.37 Y32.437 E.03685
G1 X67.542 Y32.344 E.03688
G1 X68.717 Y32.309 E.03687
G1 X69.893 Y32.332 E.03688
G1 X71.067 Y32.413 E.03687
G1 X72.234 Y32.552 E.03688
G1 X73.393 Y32.748 E.03685
G1 X74.541 Y33.002 E.03687
G1 X75.676 Y33.312 E.03689
G1 X76.826 Y33.69 E.03796
G1 X77.886 Y34.096 E.03558
G1 X78.962 Y34.57 E.03687
G1 X80.051 Y35.116 E.03818
G1 X81.038 Y35.674 E.03557
G1 X82.033 Y36.302 E.03687
G1 X82.995 Y36.978 E.03687
G1 X84.136 Y37.868 E.04538
G1 X85.2 Y38.476 E.0384
G1 X85.924 Y38.734 E.02411
G1 X86.513 Y38.872 E.01896
G1 X87.028 Y38.929 E.01625
G1 X94.28 Y39.056 E.22741
G1 X94.776 Y39.522 E.02135
G1 X95.692 Y40.197 E.03569
G1 X95.69 Y43.638 E.1079
G1 X94.227 Y43.638 E.04589
G1 X94.11 Y43.679 E.00387
G1 X94.038 Y43.827 E.00516
G1 X94.038 Y68.37 E.76952
G1 X94.075 Y68.481 E.00367
G1 X94.227 Y68.558 E.00535
G1 X95.69 Y68.558 E.04589
G1 X95.692 Y71.997 E.1078
G1 X95.086 Y72.423 E.02324
G1 X94.282 Y73.141 E.0338
G1 X87.261 Y73.259 E.22018
G1 X86.495 Y73.328 E.02411
G1 X85.984 Y73.438 E.0164
G1 X85.249 Y73.69 E.02435
G1 X84.562 Y74.042 E.02421
G1 X84.136 Y74.329 E.0161
G1 X83.008 Y75.21 E.04488
G1 X82.046 Y75.887 E.03689
G1 X81.051 Y76.515 E.03689
G1 X80.026 Y77.094 E.03691
G1 X78.963 Y77.627 E.03729
G1 X77.898 Y78.096 E.03649
G1 X76.799 Y78.517 E.03689
G1 X75.681 Y78.884 E.03689
G1 X74.547 Y79.194 E.03688
G1 X73.406 Y79.446 E.03662
G1 X72.249 Y79.643 E.03682
G1 X71.083 Y79.782 E.03682
G1 X69.872 Y79.866 E.03806
G1 X68.698 Y79.888 E.03682
G1 X67.564 Y79.854 E.03557
G1 X66.354 Y79.758 E.03806
G1 X65.189 Y79.607 E.03682
G1 X64.034 Y79.398 E.03682
G1 X62.89 Y79.132 E.03682
M73 P2 R26
G1 X61.771 Y78.813 E.03649
G1 X60.643 Y78.432 E.03732
G1 X59.549 Y77.999 E.0369
G1 X58.477 Y77.513 E.0369
G1 X57.431 Y76.974 E.0369
M73 Q2 S26
G1 X56.412 Y76.384 E.0369
G1 X55.424 Y75.745 E.0369
G1 X54.469 Y75.057 E.03692
G1 X53.175 Y74.037 E.05165
G1 X52.318 Y73.547 E.03097
G1 X51.656 Y73.295 E.02219
G1 X47.577 Y72.048 E.13375
G1 X46.358 Y71.647 E.04022
G1 X45.684 Y71.303 E.02373
G1 X44.832 Y70.951 E.02891
G1 X44.83 Y68.558 E.07502
G1 X46.559 Y68.558 E.05422
G1 X46.693 Y68.503 E.00452
G1 X46.748 Y68.37 E.00452
G1 X46.748 Y43.827 E.76952
G1 X46.716 Y43.749 E.00264
M204 S1000
G1 X46.73 Y43.554 F10800
;WIPE_START
G1 F8640
G1 X46.559 Y43.638 E-.04421
G1 X44.83 Y43.638 E-.39929
G1 X44.831 Y42.268 E-.31649
;WIPE_END
G1 E-.04 F2100
G1 Z.6 F720
G1 X47.597 Y57.147 F10800
G1 Z.2 F720
G1 E.8 F2100
M204 S800
;TYPE:Perimeter
;WIDTH:0.484335
G1 F1200
G1 X47.597 Y57.144 E.00012
;WIDTH:0.483317
G1 X47.578 Y56.113 E.03774
;WIDTH:0.470467
G1 X47.578 Y56.084 E.00105
;WIDTH:0.483316
G1 X47.597 Y55.053 E.03774
;WIDTH:0.484333
G1 X47.598 Y55.023 E.00109
;WIDTH:0.5229
G1 X47.656 Y53.994 E.04114
;WIDTH:0.525036
G1 X47.658 Y53.963 E.00124
;WIDTH:0.557202
G1 X47.706 Y53.45 E.02205
;WIDTH:0.589367
G1 X47.754 Y52.937 E.02343
;WIDTH:0.592826
G1 X47.823 Y52.654 E.01329
;WIDTH:0.54962
G1 X47.889 Y52.404 E.01089
;WIDTH:0.506413
G1 X47.955 Y52.154 E.00997
;WIDTH:0.463206
G1 X48.021 Y51.904 E.00904
;WIDTH:0.419999
G1 X48.263 Y50.844 E.03408
G1 X48.551 Y49.825 E.0332
G1 X48.888 Y48.822 E.0332
G1 X49.265 Y47.862 E.03232
G1 X49.7 Y46.897 E.0332
G1 X50.182 Y45.954 E.0332
G1 X50.711 Y45.037 E.0332
G1 X51.285 Y44.147 E.0332
G1 X51.903 Y43.287 E.0332
G1 X52.562 Y42.458 E.0332
G1 X53.262 Y41.664 E.0332
G1 X53.821 Y41.09 E.02512
G1 X54.799 Y40.166 E.04217
G1 X55.588 Y39.504 E.03231
G1 X56.03 Y39.167 E.01742
G1 X56.431 Y38.864 E.01578
G1 X57.306 Y38.267 E.0332
G1 X58.209 Y37.714 E.0332
G1 X59.139 Y37.207 E.0332
G1 X60.093 Y36.747 E.0332
G1 X61.068 Y36.335 E.0332
G1 X62.063 Y35.972 E.0332
G1 X63.074 Y35.659 E.0332
G1 X64.1 Y35.397 E.0332
G1 X65.138 Y35.187 E.0332
G1 X66.185 Y35.028 E.0332
G1 X67.239 Y34.922 E.0332
G1 X68.296 Y34.868 E.0332
G1 X69.355 Y34.868 E.0332
G1 X70.413 Y34.92 E.0332
G1 X71.467 Y35.025 E.0332
G1 X72.514 Y35.182 E.0332
G1 X73.552 Y35.391 E.0332
G1 X74.578 Y35.651 E.0332
G1 X75.59 Y35.963 E.0332
G1 X76.586 Y36.324 E.0332
G1 X77.562 Y36.735 E.0332
G1 X78.516 Y37.194 E.0332
G1 X79.446 Y37.7 E.0332
G1 X80.35 Y38.251 E.0332
G1 X81.225 Y38.847 E.0332
G1 X82.07 Y39.486 E.0332
G1 X82.527 Y39.868 E.01867
G1 X83.378 Y40.626 E.03575
G1 X84.08 Y41.318 E.03089
G1 X85.099 Y42.437 E.04745
G1 X85.76 Y43.264 E.0332
G1 X86.395 Y44.147 E.03408
G1 X86.956 Y45.016 E.03242
G1 X87.497 Y45.954 E.03398
G1 X87.98 Y46.897 E.0332
G1 X88.415 Y47.862 E.0332
G1 X88.791 Y48.822 E.03232
G1 X89.129 Y49.825 E.0332
G1 X89.417 Y50.844 E.0332
G1 X89.653 Y51.877 E.0332
G1 X89.838 Y52.919 E.0332
G1 X89.97 Y53.97 E.0332
G1 X90.05 Y55.026 E.0332
G1 X90.077 Y56.084 E.0332
G1 X90.051 Y57.143 E.0332
G1 X89.973 Y58.199 E.0332
G1 X89.842 Y59.25 E.0332
G1 X89.659 Y60.293 E.0332
G1 X89.417 Y61.353 E.03408
G1 X89.129 Y62.372 E.0332
G1 X88.791 Y63.375 E.0332
G1 X88.415 Y64.335 E.03232
G1 X87.98 Y65.3 E.0332
G1 X87.497 Y66.243 E.0332
G1 X86.969 Y67.16 E.0332
G1 X86.395 Y68.05 E.0332
G1 X85.777 Y68.91 E.0332
G1 X84.955 Y69.924 E.04094
G1 X84.417 Y70.533 E.02546
G1 X83.795 Y71.172 E.02795
G1 X83.104 Y71.825 E.02984
G1 X82.092 Y72.693 E.04181
G1 X81.475 Y73.161 E.02427
G1 X80.617 Y73.765 E.0329
G1 X79.729 Y74.325 E.03291
G1 X78.815 Y74.841 E.03292
G1 X77.865 Y75.317 E.03331
G1 X76.916 Y75.734 E.03252
G1 X75.935 Y76.109 E.03291
G1 X74.937 Y76.435 E.03291
G1 X73.925 Y76.712 E.0329
G1 X72.908 Y76.936 E.03265
G1 X71.876 Y77.111 E.03284
G1 X70.836 Y77.235 E.03282
G1 X69.753 Y77.31 E.03405
G1 X68.706 Y77.329 E.03283
G1 X67.698 Y77.299 E.03162
G1 X66.615 Y77.213 E.03407
G1 X65.577 Y77.077 E.03281
G1 X64.546 Y76.891 E.03284
G1 X63.526 Y76.654 E.03284
G1 X62.529 Y76.37 E.03252
G1 X61.522 Y76.028 E.03334
G1 X60.546 Y75.642 E.0329
G1 X59.59 Y75.208 E.03292
G1 X59.139 Y74.99 E.01571
G1 X58.234 Y74.497 E.03232
G1 X57.317 Y73.938 E.03366
G1 X56.443 Y73.342 E.03319
G1 X55.61 Y72.711 E.03275
G1 X54.798 Y72.031 E.0332
G1 X54.022 Y71.311 E.0332
G1 X53.262 Y70.533 E.03409
G1 X52.58 Y69.76 E.03232
G1 X51.92 Y68.933 E.0332
G1 X51.359 Y68.154 E.0301
G1 X50.793 Y67.288 E.03241
G1 X50.182 Y66.243 E.03797
G1 X49.7 Y65.3 E.0332
G1 X49.265 Y64.335 E.0332
G1 X48.879 Y63.349 E.0332
G1 X48.542 Y62.345 E.0332
G1 X48.256 Y61.325 E.0332
G1 X48.021 Y60.293 E.0332
;WIDTH:0.463206
G1 X47.955 Y60.043 E.00904
;WIDTH:0.506412
G1 X47.889 Y59.793 E.00997
;WIDTH:0.549619
G1 X47.823 Y59.543 E.01089
;WIDTH:0.592825
G1 X47.754 Y59.26 E.01329
;WIDTH:0.589367
G1 X47.706 Y58.747 E.02343
;WIDTH:0.557202
G1 X47.658 Y58.234 E.02205
;WIDTH:0.525036
G1 X47.656 Y58.203 E.00124
;WIDTH:0.5229
G1 X47.6 Y57.207 E.03981
M204 S1000
G1 X48.006 Y57.134 F10800
M204 S800
;TYPE:External perimeter
;WIDTH:0.419999
G1 F1200
G1 X47.98 Y56.103 E.03232
G1 X48.006 Y55.063 E.03261
G1 X48.083 Y54.026 E.03261
G1 X48.212 Y52.994 E.03261
G1 X48.393 Y51.97 E.03261
G1 X48.624 Y50.956 E.03261
G1 X48.905 Y49.954 E.03261
G1 X49.236 Y48.968 E.03261
G1 X49.616 Y48 E.03261
G1 X50.044 Y47.052 E.03261
G1 X50.518 Y46.126 E.03261
G1 X51.038 Y45.225 E.03261
G1 X51.602 Y44.352 E.03261
G1 X52.209 Y43.507 E.03261
G1 X52.857 Y42.694 E.03261
G1 X53.545 Y41.914 E.03261
G1 X54.091 Y41.353 E.02454
G1 X55.041 Y40.455 E.04099
G1 X55.83 Y39.792 E.03231
G1 X56.659 Y39.164 E.03261
G1 X57.518 Y38.578 E.03261
G1 X58.406 Y38.036 E.03261
G1 X59.319 Y37.538 E.03261
G1 X60.256 Y37.086 E.03261
G1 X61.214 Y36.682 E.03261
G1 X62.192 Y36.326 E.03261
G1 X63.186 Y36.019 E.03261
G1 X64.194 Y35.763 E.03261
G1 X65.213 Y35.556 E.03261
G1 X66.241 Y35.401 E.03261
G1 X67.276 Y35.297 E.03261
G1 X68.315 Y35.245 E.03261
G1 X69.355 Y35.245 E.03261
G1 X70.394 Y35.296 E.03261
G1 X71.429 Y35.4 E.03261
G1 X72.458 Y35.555 E.03261
G1 X73.477 Y35.76 E.03261
G1 X74.485 Y36.017 E.03261
G1 X75.479 Y36.323 E.03261
G1 X76.457 Y36.679 E.03261
G1 X77.415 Y37.083 E.03261
G1 X78.352 Y37.534 E.03261
G1 X79.266 Y38.031 E.03261
G1 X80.153 Y38.573 E.03261
G1 X81.013 Y39.159 E.03261
G1 X81.842 Y39.787 E.03261
G1 X83.122 Y40.903 E.05324
G1 X83.81 Y41.581 E.0303
G1 X84.45 Y42.271 E.02951
G1 X84.817 Y42.686 E.01735
G1 X85.471 Y43.507 E.03291
G1 X86.073 Y44.344 E.03232
G1 X86.638 Y45.218 E.03265
G1 X87.162 Y46.126 E.03287
G1 X87.636 Y47.052 E.03261
G1 X88.06 Y47.991 E.03232
G1 X88.44 Y48.96 E.03261
G1 X88.772 Y49.945 E.03261
G1 X89.054 Y50.947 E.03261
G1 X89.285 Y51.961 E.03261
G1 X89.466 Y52.985 E.03261
G1 X89.596 Y54.017 E.03261
G1 X89.674 Y55.054 E.03261
G1 X89.7 Y56.094 E.03261
G1 X89.674 Y57.134 E.03261
G1 X89.597 Y58.171 E.03261
G1 X89.468 Y59.203 E.03261
G1 X89.287 Y60.227 E.03261
G1 X89.056 Y61.241 E.03261
G1 X88.775 Y62.243 E.03261
G1 X88.444 Y63.229 E.03261
G1 X88.064 Y64.197 E.03261
G1 X87.636 Y65.145 E.03261
G1 X87.162 Y66.071 E.03261
G1 X86.642 Y66.972 E.03261
G1 X86.078 Y67.845 E.03261
G1 X85.471 Y68.69 E.03261
